; generated by PrusaSlicer 2.5.0+MacOS-x64 on 2023-03-21 at 21:34:09 UTC


;
;
; 

; external perimeters extrusion width = 0.45mm
; perimeters extrusion width = 0.45mm
; infill extrusion width = 0.45mm
; solid infill extrusion width = 0.45mm
; top infill extrusion width = 0.40mm
; support material extrusion width = 0.35mm
; first layer extrusion width = 0.42mm

M73 P0 R89
M73 Q0 S90
M201 X1000 Y1000 Z200 E5000 ; sets maximum accelerations, mm/sec^2
M203 X200 Y200 Z12 E120 ; sets maximum feedrates, mm / sec
M204 P1250 R1250 T1250 ; sets acceleration (P, T) and retract acceleration (R), mm/sec^2
M205 X8.00 Y8.00 Z0.40 E4.50 ; sets the jerk limits, mm/sec
M205 S0 T0 ; sets the minimum extruding and travel feed rate, mm/sec
M107
;TYPE:Custom
M862.3 P "MK3" ; printer model check
M862.1 P0.4 ; nozzle diameter check
M115 U3.11.0 ; tell printer latest fw version
G90 ; use absolute coordinates
M83 ; extruder relative mode
M104 S215 ; set extruder temp
M140 S60 ; set bed temp
M190 S60 ; wait for bed temp
M109 S215 ; wait for extruder temp
G28 W ; home all without mesh bed level
G80 ; mesh bed leveling

G1 Z0.2 F720
G1 Y-3 F1000 ; go outside print area
G92 E0
G1 X60 E9 F1000 ; intro line
G1 X100 E12.5 F1000 ; intro line

G92 E0
M221 S95

; Don't change E values below. Excessive value can damage the printer.

M907 E538 ; set extruder motor current
G21 ; set units to millimeters
G90 ; use absolute coordinates
M83 ; use relative distances for extrusion
M900 K0.05 ; Filament gcode LA 1.5
M900 K30 ; Filament gcode LA 1.0
M107
;LAYER_CHANGE
;Z:0.2
;HEIGHT:0.2
;BEFORE_LAYER_CHANGE
G92 E0.0
;0.2


G1 E-.8 F2100
G1 Z.4 F720
;AFTER_LAYER_CHANGE
;0.2
G1 X98.419 Y81.407 F10800
G1 Z.2 F720
G1 E.8 F2100
M204 S800
;TYPE:Skirt/Brim
;WIDTH:0.42
G1 F1200
G1 X101.407 Y78.419 E.13247
G1 X103.088 Y77.723 E.05704
G1 X146.912 Y77.723 E1.3741
G1 X148.593 Y78.419 E.05704
M73 Q0 S89
G1 X151.581 Y81.407 E.13247
G1 X152.277 Y83.088 E.05704
G1 X152.277 Y126.912 E1.3741
G1 X151.581 Y128.593 E.05704
G1 X148.593 Y131.581 E.13247
G1 X146.912 Y132.277 E.05704
G1 X103.088 Y132.277 E1.3741
G1 X101.407 Y131.581 E.05704
G1 X98.419 Y128.593 E.13247
G1 X97.723 Y126.912 E.05704
G1 X97.723 Y83.088 E1.3741
G1 X98.396 Y81.462 E.05516
M204 S1000
;WIPE_START
G1 F8640
G1 X100.711 Y79.122 E-.76
;WIPE_END
G1 E-.04 F2100
G1 Z.6 F720
G1 X100.909 Y83.075 F10800
G1 Z.2 F720
G1 E.8 F2100
M204 S800
G1 F1200
G1 X101.625 Y81.959 E.04159
G1 X102.201 Y81.426 E.02461
G1 X102.804 Y80.998 E.0232
G1 X104.754 Y80.386 E.06406
G1 X145.189 Y80.39 E1.26782
G1 X146.21 Y80.584 E.03256
M73 P0 R88
G1 X147.188 Y81 E.03333
G1 X148.312 Y81.896 E.04508
G1 X149.205 Y83.234 E.05044
G1 X149.613 Y84.779 E.05011
G1 X149.613 Y125.22 E1.268
G1 X149.233 Y126.705 E.04806
G1 X148.375 Y128.041 E.04979
G1 X147.799 Y128.574 E.02461
G1 X147.196 Y129.002 E.0232
G1 X145.246 Y129.613 E.06405
G1 X104.78 Y129.613 E1.26879
G1 X103.295 Y129.233 E.04806
G1 X101.959 Y128.375 E.04979
G1 X101.426 Y127.799 E.02461
G1 X100.998 Y127.196 E.0232
G1 X100.387 Y125.246 E.06405
G1 X100.387 Y84.78 E1.26879
G1 X100.767 Y83.295 E.04806
G1 X100.876 Y83.126 E.00633
M204 S1000
G1 X101.185 Y83.325 F10800
M204 S800
G1 F1200
G1 X101.899 Y82.22 E.04125
G1 X102.448 Y81.711 E.02347
G1 X102.998 Y81.323 E.02111
G1 X104.783 Y80.764 E.05864
G1 X145.171 Y80.767 E1.26635
G1 X146.117 Y80.95 E.03022
G1 X147.015 Y81.336 E.03062
G1 X148.053 Y82.171 E.0418
G1 X148.849 Y83.362 E.0449
G1 X149.236 Y84.804 E.04682
G1 X149.236 Y125.195 E1.26645
G1 X148.876 Y126.58 E.04486
G1 X148.101 Y127.78 E.04479
G1 X147.552 Y128.289 E.02347
G1 X147.002 Y128.677 E.02111
G1 X145.218 Y129.236 E.05863
G1 X104.805 Y129.236 E1.26712
G1 X103.42 Y128.876 E.04486
G1 X102.22 Y128.101 E.04479
G1 X101.711 Y127.552 E.02347
G1 X101.323 Y127.002 E.02111
G1 X100.764 Y125.218 E.05863
G1 X100.764 Y84.805 E1.26712
G1 X101.124 Y83.42 E.04486
G1 X101.153 Y83.376 E.00166
M204 S1000
G1 X101.47 Y83.579 F10800
M204 S800
G1 F1200
G1 X102.173 Y82.48 E.04089
G1 X102.695 Y81.996 E.0223
G1 X103.19 Y81.648 E.019
G1 X104.811 Y81.141 E.05325
G1 X145.152 Y81.144 E1.26487
G1 X146.024 Y81.316 E.02785
G1 X146.84 Y81.671 E.0279
G1 X147.793 Y82.445 E.03848
G1 X148.517 Y83.543 E.04126
G1 X148.859 Y84.828 E.0417
G1 X148.859 Y125.172 E1.26494
G1 X148.542 Y126.403 E.03986
G1 X147.827 Y127.52 E.0416
G1 X147.305 Y128.004 E.0223
G1 X146.81 Y128.352 E.019
G1 X145.189 Y128.859 E.05324
G1 X104.828 Y128.859 E1.26548
G1 X103.597 Y128.542 E.03986
G1 X102.48 Y127.827 E.0416
G1 X101.996 Y127.305 E.0223
G1 X101.648 Y126.81 E.019
G1 X101.141 Y125.189 E.05324
G1 X101.141 Y84.828 E1.26548
G1 X101.449 Y83.634 E.03868
M204 S1000
G1 X101.813 Y83.73 F10800
M204 S800
G1 F1200
G1 X102.446 Y82.74 E.03683
G1 X102.941 Y82.282 E.02115
G1 X103.382 Y81.974 E.01687
G1 X104.84 Y81.518 E.04788
G1 X145.133 Y81.521 E1.26337
G1 X145.929 Y81.681 E.02544
G1 X146.664 Y82.005 E.02518
G1 X147.53 Y82.717 E.03516
G1 X148.185 Y83.723 E.03763
G1 X148.482 Y84.852 E.03663
G1 X148.482 Y125.147 E1.26341
G1 X148.185 Y126.277 E.03665
G1 X147.554 Y127.26 E.03661
G1 X147.059 Y127.718 E.02115
G1 X146.618 Y128.026 E.01687
G1 X145.16 Y128.482 E.04788
G1 X104.853 Y128.482 E1.26381
G1 X103.723 Y128.185 E.03665
G1 X102.74 Y127.554 E.03661
G1 X102.282 Y127.059 E.02115
G1 X101.974 Y126.618 E.01687
G1 X101.518 Y125.16 E.04788
G1 X101.518 Y84.853 E1.26381
G1 X101.798 Y83.788 E.03454
M204 S1000
M73 P1 R88
M73 Q1 S89
G1 X102.149 Y83.899 F10800
M204 S800
G1 F1200
G1 X102.721 Y83 E.03341
G1 X103.187 Y82.568 E.01994
G1 X103.573 Y82.3 E.01473
G1 X104.868 Y81.895 E.04255
G1 X145.115 Y81.898 E1.26189
G1 X145.796 Y82.035 E.02178
G1 X146.487 Y82.339 E.02369
G1 X147.267 Y82.988 E.03181
G1 X147.829 Y83.85 E.03225
G1 X148.105 Y84.878 E.03337
G1 X148.105 Y125.123 E1.26187
G1 X147.851 Y126.101 E.03167
G1 X147.279 Y127 E.03341
G1 X146.813 Y127.432 E.01994
G1 X146.427 Y127.7 E.01473
G1 X145.132 Y128.105 E.04254
G1 X104.877 Y128.105 E1.26217
G1 X103.899 Y127.851 E.03167
G1 X103 Y127.279 E.03341
G1 X102.568 Y126.813 E.01994
G1 X102.3 Y126.427 E.01473
G1 X101.895 Y125.132 E.04254
G1 X101.895 Y84.877 E1.26217
G1 X102.134 Y83.957 E.02979
M204 S1000
G1 X102.498 Y84.055 F10800
M204 S800
G1 F1200
G1 X102.995 Y83.26 E.02937
G1 X103.433 Y82.854 E.01876
G1 X103.763 Y82.627 E.01256
G1 X104.897 Y82.272 E.03724
G1 X145.095 Y82.276 E1.26037
G1 X145.699 Y82.4 E.01932
G1 X146.308 Y82.672 E.02093
G1 X147.001 Y83.257 E.02843
G1 X147.495 Y84.028 E.0287
G1 X147.728 Y84.902 E.02837
G1 X147.728 Y125.098 E1.26032
G1 X147.494 Y125.975 E.02845
G1 X147.005 Y126.74 E.02846
G1 X146.567 Y127.146 E.01876
G1 X146.237 Y127.373 E.01256
G1 X145.103 Y127.728 E.03724
G1 X104.902 Y127.728 E1.26048
G1 X104.025 Y127.494 E.02845
M73 Q1 S88
G1 X103.26 Y127.005 E.02846
G1 X102.854 Y126.567 E.01876
G1 X102.627 Y126.237 E.01256
G1 X102.272 Y125.103 E.03724
G1 X102.272 Y84.902 E1.26048
G1 X102.483 Y84.112 E.02562
M204 S1000
G1 X102.845 Y84.212 F10800
M204 S800
G1 F1200
G1 X102.861 Y84.154 E.0019
G1 X103.268 Y83.521 E.02358
G1 X103.679 Y83.14 E.01756
G1 X103.952 Y82.954 E.01037
G1 X104.926 Y82.649 E.03199
G1 X145.074 Y82.653 E1.25884
G1 X145.599 Y82.764 E.01681
G1 X146.127 Y83.004 E.01817
G1 X146.734 Y83.525 E.0251
G1 X147.139 Y84.156 E.02351
G1 X147.351 Y84.928 E.0251
G1 X147.351 Y125.072 E1.25869
G1 X147.139 Y125.846 E.02517
G1 X146.732 Y126.479 E.02358
G1 X146.321 Y126.86 E.01756
G1 X146.048 Y127.046 E.01037
G1 X145.074 Y127.351 E.03198
G1 X104.928 Y127.351 E1.25876
G1 X104.154 Y127.139 E.02517
M73 P1 R87
G1 X103.521 Y126.732 E.02358
G1 X103.14 Y126.321 E.01756
G1 X102.954 Y126.048 E.01037
G1 X102.649 Y125.074 E.03198
G1 X102.649 Y84.928 E1.25876
G1 X102.83 Y84.27 E.0214
M204 S1000
G1 X103.191 Y84.372 F10800
M204 S800
G1 F1200
G1 X103.216 Y84.285 E.00286
G1 X103.541 Y83.782 E.01878
G1 X103.924 Y83.427 E.01636
G1 X104.14 Y83.282 E.00814
G1 X104.955 Y83.026 E.02679
G1 X145.053 Y83.03 E1.25726
G1 X145.497 Y83.127 E.01423
G1 X145.943 Y83.334 E.01541
G1 X146.466 Y83.791 E.02178
G1 X146.785 Y84.286 E.01847
G1 X146.974 Y84.955 E.02179
G1 X146.974 Y125.045 E1.25701
G1 X146.784 Y125.715 E.02184
G1 X146.459 Y126.218 E.01878
G1 X146.076 Y126.573 E.01636
G1 X145.86 Y126.718 E.00814
G1 X145.045 Y126.974 E.02678
G1 X104.955 Y126.974 E1.25701
G1 X104.285 Y126.784 E.02184
G1 X103.782 Y126.459 E.01878
G1 X103.427 Y126.076 E.01636
G1 X103.282 Y125.86 E.00814
G1 X103.026 Y125.045 E.02678
G1 X103.026 Y84.955 E1.25701
G1 X103.175 Y84.43 E.0171
M204 S1000
G1 X103.535 Y84.536 F10800
M204 S800
G1 F1200
G1 X103.569 Y84.419 E.00384
G1 X103.814 Y84.043 E.01407
G1 X104.168 Y83.715 E.01513
G1 X104.325 Y83.612 E.00588
G1 X104.984 Y83.403 E.02167
G1 X145.031 Y83.407 E1.25565
G1 X145.391 Y83.49 E.01157
G1 X145.756 Y83.662 E.01266
G1 X146.196 Y84.054 E.01848
G1 X146.431 Y84.42 E.01362
G1 X146.597 Y84.983 E.01841
G1 X146.597 Y125.017 E1.25525
G1 X146.431 Y125.581 E.01844
G1 X146.186 Y125.957 E.01407
G1 X145.832 Y126.285 E.01513
G1 X145.675 Y126.388 E.00588
G1 X145.016 Y126.597 E.02167
G1 X104.983 Y126.597 E1.25522
G1 X104.419 Y126.431 E.01844
G1 X104.043 Y126.186 E.01407
G1 X103.715 Y125.832 E.01513
G1 X103.612 Y125.675 E.00588
G1 X103.403 Y125.016 E.02167
G1 X103.403 Y84.983 E1.25522
G1 X103.518 Y84.594 E.01272
M204 S1000
G1 X103.875 Y84.704 F10800
M204 S800
G1 F1200
G1 X103.921 Y84.557 E.00483
G1 X104.087 Y84.304 E.00948
G1 X104.412 Y84.004 E.01387
G1 X104.507 Y83.943 E.00355
G1 X105.013 Y83.78 E.01667
G1 X145.009 Y83.784 E1.25404
G1 X145.247 Y83.839 E.00767
G1 X145.568 Y83.991 E.01111
G1 X145.923 Y84.315 E.01508
G1 X146.079 Y84.557 E.00902
G1 X146.22 Y85.012 E.01495
G1 X146.22 Y124.988 E1.25339
G1 X146.079 Y125.443 E.01495
G1 X145.913 Y125.696 E.00948
G1 X145.588 Y125.996 E.01387
G1 X145.493 Y126.057 E.00355
G1 X144.987 Y126.22 E.01667
G1 X105.012 Y126.22 E1.25336
G1 X104.557 Y126.079 E.01495
G1 X104.304 Y125.913 E.00948
G1 X104.004 Y125.588 E.01387
G1 X103.943 Y125.493 E.00355
G1 X103.78 Y124.987 E.01667
G1 X103.78 Y85.012 E1.25336
G1 X103.858 Y84.761 E.00824
M204 S1000
G1 X104.212 Y84.878 F10800
M204 S800
G1 F1200
G1 X104.27 Y84.701 E.00585
G1 X104.36 Y84.566 E.00506
G1 X104.652 Y84.295 E.01251
G1 X105.044 Y84.157 E.01302
G1 X144.987 Y84.161 E1.25238
M73 P2 R87
G1 X145.104 Y84.188 E.00377
M73 Q2 S88
G1 X145.378 Y84.318 E.0095
G1 X145.647 Y84.573 E.0116
G1 X145.73 Y84.7 E.00476
G1 X145.843 Y85.044 E.01136
G1 X145.843 Y124.956 E1.25141
G1 X145.73 Y125.299 E.01134
G1 X145.64 Y125.434 E.00506
G1 X145.317 Y125.724 E.01361
G1 X144.956 Y125.843 E.01193
G1 X105.044 Y125.843 E1.2514
G1 X104.701 Y125.73 E.01134
G1 X104.566 Y125.64 E.00506
G1 X104.276 Y125.317 E.01361
G1 X104.157 Y124.956 E.01193
G1 X104.157 Y85.044 E1.2514
G1 X104.193 Y84.935 E.00361
M204 S1000
G1 X104.541 Y85.059 F10800
M204 S800
G1 F1200
G1 X104.632 Y84.828 E.0078
G1 X104.866 Y84.611 E.01002
G1 X105.079 Y84.534 E.00709
G1 X144.935 Y84.534 E1.24965
G1 X145.185 Y84.644 E.00856
G1 X145.384 Y84.852 E.00902
G1 X145.466 Y85.079 E.00757
G1 X145.466 Y124.921 E1.24921
G1 X145.368 Y125.172 E.00845
G1 X145.134 Y125.389 E.01002
G1 X144.921 Y125.466 E.00709
G1 X105.079 Y125.466 E1.24921
G1 X104.828 Y125.368 E.00845
G1 X104.611 Y125.134 E.01002
G1 X104.534 Y124.921 E.00709
G1 X104.534 Y85.118 E1.24798
M204 S1000
G1 X104.911 Y85.121 F10800
M204 S800
G1 F1200
G1 X104.94 Y85.052 E.00235
G1 X105.052 Y84.94 E.00495
G1 X105.121 Y84.911 E.00235
G1 X144.879 Y84.911 E1.24658
G1 X144.948 Y84.94 E.00235
G1 X145.06 Y85.052 E.00495
G1 X145.089 Y85.121 E.00235
G1 X145.089 Y124.879 E1.24658
G1 X145.06 Y124.948 E.00235
G1 X144.948 Y125.06 E.00495
G1 X144.879 Y125.089 E.00235
G1 X105.121 Y125.089 E1.24658
G1 X105.052 Y125.06 E.00235
M73 Q2 S87
G1 X104.94 Y124.948 E.00495
G1 X104.911 Y124.879 E.00235
G1 X104.911 Y85.181 E1.2447
M204 S1000
; printing object base1.stl id:0 copy 0
;WIPE_START
G1 F8640
G1 X104.94 Y85.052 E-.03058
G1 X105.052 Y84.94 E-.03645
G1 X105.121 Y84.911 E-.01732
G1 X108.047 Y84.911 E-.67565
;WIPE_END
G1 E-.04 F2100
G1 Z.6 F720
G1 X105.787 Y85.787 F10800
G1 Z.2 F720
G1 E.8 F2100
M204 S800
;TYPE:Perimeter
;WIDTH:0.419999
G1 F1200
G1 X144.213 Y85.787 E1.20481
G1 X144.213 Y124.213 E1.20481
G1 X105.787 Y124.213 E1.20481
G1 X105.787 Y85.847 E1.20293
M204 S1000
G1 X105.41 Y85.41 F10800
M204 S800
;TYPE:External perimeter
M73 P2 R86
G1 F1200
G1 X144.59 Y85.41 E1.22846
G1 X144.59 Y124.59 E1.22846
G1 X105.41 Y124.59 E1.22846
G1 X105.41 Y85.47 E1.22658
M204 S1000
G1 X105.796 Y85.514 F10800
;WIPE_START
G1 F8640
G1 X108.701 Y85.465 E-.76
;WIPE_END
G1 E-.04 F2100
G1 Z.6 F720
G1 X143.335 Y85.9 F10800
G1 Z.2 F720
G1 E.8 F2100
M204 S800
;TYPE:Solid infill
;WIDTH:0.421072
G1 F1200
G1 X143.93 Y86.495 E.02645
G1 X143.93 Y87.03 E.01682
G1 X142.97 Y86.07 E.04269
G1 X142.435 Y86.07 E.01682
G1 X143.93 Y87.565 E.06647
G1 X143.93 Y88.099 E.01682
G1 X141.901 Y86.07 E.09025
G1 X141.366 Y86.07 E.01682
G1 X143.93 Y88.634 E.11403
G1 X143.93 Y89.169 E.01682
G1 X140.831 Y86.07 E.13781
G1 X140.296 Y86.07 E.01682
G1 X143.93 Y89.704 E.16159
G1 X143.93 Y90.239 E.01682
G1 X139.761 Y86.07 E.18537
G1 X139.227 Y86.07 E.01682
G1 X143.93 Y90.773 E.20915
G1 X143.93 Y91.308 E.01682
G1 X138.692 Y86.07 E.23293
G1 X138.157 Y86.07 E.01682
G1 X143.93 Y91.843 E.25671
G1 X143.93 Y92.378 E.01682
G1 X137.622 Y86.07 E.2805
G1 X137.087 Y86.07 E.01682
G1 X143.93 Y92.913 E.30428
G1 X143.93 Y93.447 E.01682
G1 X136.553 Y86.07 E.32806
G1 X136.018 Y86.07 E.01682
G1 X143.93 Y93.982 E.35184
G1 X143.93 Y94.517 E.01682
G1 X135.483 Y86.07 E.37562
G1 X134.948 Y86.07 E.01682
G1 X143.93 Y95.052 E.3994
G1 X143.93 Y95.586 E.01682
G1 X134.414 Y86.07 E.42318
G1 X133.879 Y86.07 E.01682
G1 X143.93 Y96.121 E.44696
G1 X143.93 Y96.656 E.01682
G1 X133.344 Y86.07 E.47074
G1 X132.809 Y86.07 E.01682
G1 X143.93 Y97.191 E.49452
G1 X143.93 Y97.726 E.01682
G1 X132.274 Y86.07 E.5183
G1 X131.74 Y86.07 E.01682
G1 X143.93 Y98.26 E.54208
G1 X143.93 Y98.795 E.01682
G1 X131.205 Y86.07 E.56587
G1 X130.67 Y86.07 E.01682
G1 X143.93 Y99.33 E.58965
G1 X143.93 Y99.865 E.01682
M73 P3 R86
G1 X130.135 Y86.07 E.61343
G1 X129.6 Y86.07 E.01682
M73 Q3 S87
G1 X143.93 Y100.4 E.63721
G1 X143.93 Y100.934 E.01682
G1 X129.066 Y86.07 E.66099
G1 X128.531 Y86.07 E.01682
G1 X143.93 Y101.469 E.68477
G1 X143.93 Y102.004 E.01682
G1 X127.996 Y86.07 E.70855
G1 X127.461 Y86.07 E.01682
G1 X143.93 Y102.539 E.73233
G1 X143.93 Y103.073 E.01682
G1 X126.927 Y86.07 E.75611
G1 X126.392 Y86.07 E.01682
G1 X143.93 Y103.608 E.77989
G1 X143.93 Y104.143 E.01682
G1 X125.857 Y86.07 E.80367
G1 X125.322 Y86.07 E.01682
G1 X143.93 Y104.678 E.82745
G1 X143.93 Y105.213 E.01682
G1 X124.787 Y86.07 E.85124
G1 X124.253 Y86.07 E.01682
G1 X143.93 Y105.747 E.87502
G1 X143.93 Y106.282 E.01682
G1 X123.718 Y86.07 E.8988
G1 X123.183 Y86.07 E.01682
G1 X143.93 Y106.817 E.92258
G1 X143.93 Y107.352 E.01682
G1 X122.648 Y86.07 E.94636
G1 X122.113 Y86.07 E.01682
G1 X143.93 Y107.887 E.97014
G1 X143.93 Y108.421 E.01682
G1 X121.579 Y86.07 E.99392
G1 X121.044 Y86.07 E.01682
G1 X143.93 Y108.956 E1.0177
G1 X143.93 Y109.491 E.01682
G1 X120.509 Y86.07 E1.04148
G1 X119.974 Y86.07 E.01682
G1 X143.93 Y110.026 E1.06526
G1 X143.93 Y110.56 E.01682
G1 X119.44 Y86.07 E1.08904
G1 X118.905 Y86.07 E.01682
M73 Q3 S86
G1 X143.93 Y111.095 E1.11282
G1 X143.93 Y111.63 E.01682
G1 X118.37 Y86.07 E1.13661
G1 X117.835 Y86.07 E.01682
G1 X143.93 Y112.165 E1.16039
G1 X143.93 Y112.7 E.01682
G1 X117.3 Y86.07 E1.18417
G1 X116.766 Y86.07 E.01682
G1 X143.93 Y113.234 E1.20795
G1 X143.93 Y113.769 E.01682
M73 P3 R85
G1 X116.231 Y86.07 E1.23173
G1 X115.696 Y86.07 E.01682
G1 X143.93 Y114.304 E1.25551
G1 X143.93 Y114.839 E.01682
G1 X115.161 Y86.07 E1.27929
G1 X114.626 Y86.07 E.01682
G1 X143.93 Y115.374 E1.30307
G1 X143.93 Y115.908 E.01682
G1 X114.092 Y86.07 E1.32685
G1 X113.557 Y86.07 E.01682
G1 X143.93 Y116.443 E1.35063
G1 X143.93 Y116.978 E.01682
G1 X113.022 Y86.07 E1.37441
G1 X112.487 Y86.07 E.01682
M73 P4 R85
G1 X143.93 Y117.513 E1.39819
G1 X143.93 Y118.048 E.01682
M73 Q4 S86
G1 X111.952 Y86.07 E1.42198
G1 X111.418 Y86.07 E.01682
G1 X143.93 Y118.582 E1.44576
G1 X143.93 Y119.117 E.01682
G1 X110.883 Y86.07 E1.46954
G1 X110.348 Y86.07 E.01682
G1 X143.93 Y119.652 E1.49332
