; generated by PrusaSlicer 2.5.0+MacOS-x64 on 2023-03-25 at 23:24:57 UTC


;
;

;
;
; 

; external perimeters extrusion width = 0.45mm
; perimeters extrusion width = 0.45mm
; infill extrusion width = 0.45mm
; solid infill extrusion width = 0.45mm
; top infill extrusion width = 0.40mm
; first layer extrusion width = 0.42mm

M73 P0 R43
M201 X2500 Y2500 Z400 E5000 ; sets maximum accelerations, mm/sec^2
M203 X180 Y180 Z12 E80 ; sets maximum feedrates, mm / sec
M204 P1250 R1250 T2500 ; sets acceleration (P, T) and retract acceleration (R), mm/sec^2
M205 X8.00 Y8.00 Z2.00 E10.00 ; sets the jerk limits, mm/sec
M205 S0 T0 ; sets the minimum extruding and travel feed rate, mm/sec
M107
;TYPE:Custom
M862.3 P "MINI" ; printer model check
G90 ; use absolute coordinates
M83 ; extruder relative mode
M104 S170 ; set extruder temp for bed leveling
M140 S60 ; set bed temp
M109 R170 ; wait for bed leveling temp
M190 S60 ; wait for bed temp
M204 T1250 ; set travel acceleration
G28 ; home all without mesh bed level
G29 ; mesh bed leveling 
M204 T2500 ; restore travel acceleration
M104 S215 ; set extruder temp
G92 E0
G1 Y-2 X179 F2400
G1 Z3 F720
M109 S215 ; wait for extruder temp

; intro line
G1 X170 F1000
G1 Z0.2 F720
G1 X110 E8 F900
G1 X40 E10 F700
G92 E0

M221 S95 ; set flow
G21 ; set units to millimeters
G90 ; use absolute coordinates
M83 ; use relative distances for extrusion
M900 K0.2 ; Filament gcode LA 1.5
; ; Filament gcode LA 1.0
M107
;LAYER_CHANGE
;Z:0.2
;HEIGHT:0.2
;BEFORE_LAYER_CHANGE
G92 E0.0
;0.2


G1 E-3.2 F4200
G1 Z.2 F720
;AFTER_LAYER_CHANGE
;0.2
G1 Z.4
G1 X82.861 Y38.871 F9000
G1 Z.2 F720
G1 E3.2 F2400
M204 P800
;TYPE:Skirt/Brim
;WIDTH:0.42
G1 F1200
G1 X83.445 Y37.638 E.04278
G1 X85.211 Y36.853 E.06058
G1 X94.789 Y36.853 E.30031
G1 X96.096 Y37.245 E.04278
G1 X97.139 Y38.871 E.06058
G1 X107.894 Y109.297 E2.23376
G1 X108.104 Y110.828 E.04845
G1 X108.178 Y112.393 E.04912
G1 X108.104 Y114.172 E.05583
G1 X107.716 Y116.523 E.0747
G1 X107.491 Y117.459 E.0302
G1 X106.961 Y119.047 E.05248
G1 X96.964 Y141.729 E.77721
G1 X96.078 Y142.767 E.04278
G1 X94.789 Y143.147 E.04214
G1 X86.212 Y143.147 E.26893
G1 X84.905 Y142.755 E.04278
G1 X84.075 Y141.812 E.03937
G1 X73.509 Y120.137 E.75605
G1 X72.591 Y117.733 E.0807
G1 X72.111 Y115.73 E.0646
G1 X71.906 Y114.262 E.04647
G1 X71.825 Y112.836 E.04478
G1 X71.896 Y110.835 E.06276
G1 X82.852 Y38.931 E2.28054
M204 P1000
; printing object DropperCasing v8.stl id:0 copy 0
G1 E-2.24 F4200
;WIPE_START
M73 P1 R43
G1 F7200
G1 X83.445 Y37.638 E-.78803
G1 X83.65 Y37.547 E-.12397
;WIPE_END
G1 E-.048 F4200
G1 Z.4 F720
G1 X93.967 Y126.979 F9000
G1 Z.2 F720
G1 E3.2 F2400
M204 P800
;TYPE:Perimeter
;WIDTH:0.419999
G1 F1200
G1 X93.321 Y127.139 E.02085
G1 X92.531 Y127.3 E.0253
G1 X91.269 Y127.462 E.0399
G1 X90 Y127.516 E.03982
G1 X88.731 Y127.462 E.03982
G1 X87.469 Y127.301 E.03989
G1 X86.679 Y127.139 E.0253
G1 X85.939 Y126.956 E.02389
G1 X84.616 Y126.517 E.04371
G1 X83.345 Y125.96 E.04349
G1 X82.132 Y125.289 E.04349
G1 X80.985 Y124.508 E.04349
G1 X79.916 Y123.626 E.04345
G1 X78.855 Y122.56 E.04716
G1 X78.043 Y121.583 E.03984
G1 X77.256 Y120.44 E.04352
G1 X76.577 Y119.23 E.04349
G1 X76.014 Y117.963 E.04349
G1 X75.569 Y116.648 E.04349
G1 X75.248 Y115.299 E.04349
G1 X75.052 Y113.926 E.04349
G1 X74.985 Y112.54 E.04349
G1 X75.045 Y111.155 E.04349
G1 X75.233 Y109.78 E.04349
G1 X75.547 Y108.429 E.04349
G1 X75.984 Y107.113 E.04349
G1 X76.541 Y105.842 E.04349
G1 X77.213 Y104.629 E.04349
G1 X77.994 Y103.482 E.04349
G1 X78.876 Y102.414 E.04345
G1 X79.942 Y101.353 E.04716
G1 X80.919 Y100.542 E.0398
G1 X82.161 Y99.695 E.04714
G1 X83.377 Y99.026 E.04351
G1 X84.659 Y98.47 E.04383
G1 X85.59 Y98.147 E.0309
G1 X86.895 Y97.811 E.04226
G1 X88.224 Y97.592 E.04222
G1 X89.095 Y97.515 E.02741
G1 X90.442 Y97.494 E.04223
G1 X91.78 Y97.593 E.04208
G1 X93.104 Y97.811 E.04208
G1 X94.407 Y98.147 E.04217
G1 X95.347 Y98.471 E.03119
G1 X96.723 Y99.074 E.04709
G1 X97.93 Y99.749 E.04336
G1 X99.07 Y100.533 E.0434
G1 X100.134 Y101.419 E.0434
G1 X101.111 Y102.4 E.0434
G1 X101.994 Y103.466 E.0434
G1 X102.775 Y104.609 E.0434
G1 X103.448 Y105.819 E.0434
G1 X104.006 Y107.086 E.04341
G1 X104.41 Y108.291 E.03987
G1 X104.761 Y109.748 E.04698
G1 X104.952 Y111.117 E.04335
G1 X105.016 Y112.5 E.04341
G1 X104.952 Y113.883 E.04341
G1 X104.761 Y115.254 E.0434
G1 X104.445 Y116.602 E.0434
G1 X104.006 Y117.914 E.0434
G1 X103.448 Y119.181 E.0434
G1 X102.775 Y120.391 E.0434
G1 X101.994 Y121.534 E.0434
G1 X101.112 Y122.599 E.04335
G1 X100.049 Y123.654 E.04697
G1 X99.071 Y124.466 E.03986
G1 X97.93 Y125.251 E.04342
G1 X96.723 Y125.926 E.04336
G1 X95.351 Y126.528 E.04696
G1 X94.025 Y126.965 E.04378
M204 P1000
G1 X94.058 Y127.345 F9000
M204 P800
;TYPE:External perimeter
G1 F1200
G1 X93.405 Y127.507 E.02109
G1 X92.593 Y127.673 E.02598
G1 X91.301 Y127.838 E.04084
G1 X90 Y127.893 E.04082
G1 X88.699 Y127.838 E.04082
G1 X87.408 Y127.673 E.04084
G1 X86.596 Y127.507 E.02598
G1 X85.834 Y127.318 E.0246
G1 X84.48 Y126.869 E.04472
G1 X83.178 Y126.299 E.04458
G1 X81.934 Y125.61 E.04459
G1 X80.758 Y124.81 E.04459
G1 X79.662 Y123.905 E.04457
G1 X78.576 Y122.814 E.04827
G1 X77.742 Y121.811 E.04091
G1 X76.935 Y120.639 E.04459
G1 X76.24 Y119.399 E.04459
G1 X75.662 Y118.1 E.04459
G1 X75.206 Y116.753 E.04459
G1 X74.877 Y115.369 E.04459
G1 X74.677 Y113.962 E.04459
G1 X74.607 Y112.541 E.04459
G1 X74.669 Y111.121 E.04459
G1 X74.862 Y109.712 E.04458
G1 X75.184 Y108.327 E.04459
G1 X75.632 Y106.977 E.04459
G1 X76.203 Y105.675 E.04458
G1 X76.892 Y104.431 E.04458
G1 X77.692 Y103.256 E.04459
G1 X78.597 Y102.16 E.04457
G1 X79.688 Y101.074 E.04827
G1 X80.692 Y100.24 E.04089
G1 X81.964 Y99.373 E.04826
G1 X83.209 Y98.688 E.04459
G1 X84.405 Y98.16 E.04097
G1 X85.483 Y97.786 E.0358
G1 X86.817 Y97.441 E.04321
G1 X88.177 Y97.218 E.04319
G1 X89.075 Y97.138 E.02828
G1 X90.452 Y97.116 E.04319
G1 X91.825 Y97.218 E.04314
G1 X93.182 Y97.441 E.04314
G1 X94.516 Y97.785 E.04317
G1 X95.485 Y98.119 E.03214
G1 X96.891 Y98.736 E.04815
G1 X98.129 Y99.428 E.04448
G1 X99.298 Y100.233 E.04449
G1 X100.389 Y101.141 E.04449
G1 X101.391 Y102.146 E.04449
G1 X102.296 Y103.239 E.04449
G1 X103.096 Y104.41 E.0445
G1 X103.786 Y105.651 E.04449
G1 X104.358 Y106.949 E.0445
G1 X104.773 Y108.187 E.04092
G1 X105.132 Y109.677 E.04807
G1 X105.328 Y111.082 E.04447
G1 X105.393 Y112.5 E.0445
G1 X105.328 Y113.918 E.0445
G1 X105.132 Y115.323 E.0445
G1 X104.808 Y116.705 E.04449
G1 X104.358 Y118.051 E.04449
G1 X103.786 Y119.349 E.04449
G1 X103.096 Y120.59 E.04449
G1 X102.296 Y121.761 E.0445
G1 X101.391 Y122.854 E.04448
G1 X100.302 Y123.934 E.04808
G1 X99.298 Y124.767 E.04092
G1 X98.129 Y125.572 E.0445
G1 X96.891 Y126.264 E.04448
G1 X95.487 Y126.88 E.04807
G1 X94.116 Y127.331 E.04526
M204 P1000
G1 X93.769 Y127.068 F9000
G1 E-2.24 F4200
;WIPE_START
G1 F7200
G1 X93.405 Y127.507 E-.40604
G1 X92.593 Y127.673 E-.45915
G1 X92.509 Y127.683 E-.04681
;WIPE_END
G1 E-.048 F4200
G1 Z.4 F720
G1 X82.19 Y115.747 F9000
G1 Z.2 F720
G1 E3.2 F2400
M204 P800
;TYPE:Perimeter
G1 F1200
G1 X81.837 Y114.715 E.03422
G1 X81.699 Y114.045 E.02143
G1 X81.605 Y113.364 E.02156
G1 X81.542 Y112.538 E.026
G1 X81.594 Y111.666 E.02737
G1 X81.687 Y111.016 E.02058
G1 X81.802 Y110.44 E.01843
G1 X82.172 Y109.298 E.03764
G1 X82.659 Y108.298 E.03489
G1 X83.214 Y107.459 E.03153
G1 X84.049 Y106.489 E.04014
G1 X84.826 Y105.809 E.03238
G1 X85.66 Y105.246 E.03153
G1 X86.803 Y104.669 E.04014
G1 X87.781 Y104.338 E.03238
G1 X88.865 Y104.118 E.03469
G1 X89.48 Y104.073 E.01933
G1 X90.166 Y104.06 E.0215
G1 X91.067 Y104.11 E.0283
G1 X91.783 Y104.247 E.02287
G1 X92.404 Y104.4 E.02003
G1 X93.208 Y104.674 E.02664
G1 X94.266 Y105.196 E.03699
G1 X95.041 Y105.714 E.02922
G1 X95.774 Y106.338 E.0302
G1 X96.208 Y106.775 E.01929
G1 X96.691 Y107.326 E.02299
G1 X97.253 Y108.158 E.03146
G1 X97.8 Y109.229 E.0377
G1 X98.151 Y110.25 E.03387
G1 X98.31 Y111.002 E.02409
G1 X98.397 Y111.669 E.0211
G1 X98.458 Y112.463 E.02495
G1 X98.404 Y113.363 E.02829
G1 X98.308 Y114.01 E.02051
G1 X98.198 Y114.56 E.01758
G1 X97.828 Y115.703 E.03767
G1 X97.328 Y116.726 E.03572
G1 X96.786 Y117.541 E.03067
G1 X95.951 Y118.511 E.04014
G1 X95.174 Y119.191 E.03238
G1 X94.372 Y119.733 E.03034
G1 X93.271 Y120.3 E.03881
G1 X92.219 Y120.662 E.03489
G1 X91.352 Y120.839 E.02775
G1 X90.038 Y120.958 E.04139
G1 X89.227 Y120.91 E.02545
G1 X88.648 Y120.839 E.0183
G1 X87.874 Y120.681 E.02477
G1 X86.798 Y120.328 E.0355
G1 X85.798 Y119.841 E.03489
G1 X84.959 Y119.286 E.03153
G1 X83.989 Y118.451 E.04014
G1 X83.309 Y117.674 E.03238
G1 X82.772 Y116.88 E.03005
G1 X82.216 Y115.802 E.03804
M204 P1000
G1 X82.543 Y115.613 F9000
M204 P800
;TYPE:External perimeter
G1 F1200
G1 X82.195 Y114.597 E.03368
G1 X82.069 Y113.972 E.01999
G1 X81.981 Y113.336 E.02013
G1 X81.918 Y112.509 E.026
G1 X81.971 Y111.691 E.0257
G1 X82.057 Y111.09 E.01904
G1 X82.171 Y110.513 E.01843
G1 X82.53 Y109.416 E.03622
G1 X82.998 Y108.465 E.03321
G1 X83.528 Y107.669 E.02999
G1 X84.086 Y107.016 E.02694
G1 X84.566 Y106.538 E.02122
G1 X85.075 Y106.092 E.02122
G1 X85.869 Y105.56 E.02999
G1 X86.93 Y105.024 E.03727
G1 X87.902 Y104.695 E.03215
G1 X88.938 Y104.488 E.03315
G1 X89.505 Y104.449 E.01779
G1 X90.145 Y104.437 E.02008
G1 X91.046 Y104.486 E.0283
G1 X91.709 Y104.617 E.0212
G1 X92.282 Y104.757 E.01849
G1 X93.087 Y105.031 E.02664
G1 X94.162 Y105.581 E.03788
G1 X94.833 Y106.029 E.0253
G1 X95.528 Y106.625 E.0287
G1 X95.925 Y107.023 E.01762
G1 X96.408 Y107.575 E.02299
G1 X96.939 Y108.367 E.02992
G1 X97.463 Y109.399 E.03628
G1 X97.794 Y110.371 E.0322
G1 X97.94 Y111.075 E.02255
G1 X98.021 Y111.698 E.01968
G1 X98.082 Y112.491 E.02495
G1 X98.027 Y113.338 E.02662
G1 X97.938 Y113.937 E.01897
G1 X97.829 Y114.487 E.01758
G1 X97.47 Y115.585 E.03623
G1 X96.99 Y116.556 E.03397
G1 X96.471 Y117.333 E.02929
G1 X95.906 Y117.993 E.02727
G1 X95.428 Y118.468 E.0211
G1 X94.925 Y118.908 E.02095
G1 X94.162 Y119.419 E.0288
G1 X93.101 Y119.963 E.03739
G1 X92.098 Y120.305 E.03321
G1 X91.279 Y120.469 E.02621
G1 X90.009 Y120.582 E.03997
G1 X89.252 Y120.533 E.02377
G1 X88.722 Y120.469 E.01676
G1 X87.991 Y120.323 E.02335
G1 X86.916 Y119.97 E.0355
G1 X85.965 Y119.502 E.03321
G1 X85.169 Y118.972 E.02999
G1 X84.518 Y118.415 E.02687
G1 X84.04 Y117.936 E.02121
G1 X83.592 Y117.425 E.0213
G1 X83.086 Y116.67 E.02851
G1 X82.57 Y115.667 E.03537
M204 P1000
G1 X82.146 Y115.562 F9000
G1 E-2.24 F4200
;WIPE_START
G1 F7200
G1 X82.195 Y114.597 E-.62829
G1 X82.094 Y114.095 E-.28371
;WIPE_END
G1 E-.048 F4200
G1 Z.4 F720
G1 X102.024 Y103.709 F9000
G1 Z.2 F720
G1 E3.2 F2400
M204 P800
;TYPE:Solid infill
;WIDTH:0.420255
G1 F1200
G1 X99.941 Y101.627 E.09239
G1 X98.899 Y100.759 E.04256
G1 X97.757 Y99.976 E.04345
G1 X102.526 Y104.746 E.21162
G1 X103.196 Y105.949 E.04322
G1 X96.556 Y99.309 E.29462
G1 X95.606 Y98.893 E.03255
G1 X103.616 Y106.903 E.35543
G1 X103.742 Y107.188 E.00977
G1 X103.931 Y107.751 E.01863
G1 X94.74 Y98.561 E.40778
G1 X94.325 Y98.418 E.01377
G1 X93.973 Y98.327 E.01143
G1 X104.177 Y108.531 E.45277
G1 X104.347 Y109.234 E.0227
G1 X93.253 Y98.141 E.49222
G1 X93.046 Y98.088 E.00672
G1 X92.591 Y98.013 E.01446
G1 X104.5 Y109.921 E.52841
G1 X104.586 Y110.541 E.01964
G1 X91.953 Y97.908 E.56058
G1 X91.356 Y97.845 E.01881
G1 X104.671 Y111.159 E.59079
G1 X104.697 Y111.719 E.01757
G1 X90.78 Y97.802 E.6175
G1 X90.234 Y97.789 E.01715
M73 P2 R43
G1 X104.723 Y112.278 E.6429
G1 X104.719 Y112.808 E.01662
G1 X89.704 Y97.793 E.66623
G1 X89.174 Y97.797 E.01662
G1 X104.695 Y113.318 E.68869
G1 X104.672 Y113.828 E.01602
M73 P2 R42
G1 X88.679 Y97.836 E.70962
G1 X88.193 Y97.884 E.01531
G1 X104.609 Y114.299 E.72838
G1 X104.543 Y114.767 E.01484
G1 X87.735 Y97.959 E.74582
G1 X87.277 Y98.034 E.01457
G1 X93.976 Y104.733 E.29724
G1 X93.365 Y104.431 E.02138
G1 X93.024 Y104.315 E.0113
G1 X86.829 Y98.12 E.27489
G1 X86.405 Y98.229 E.01374
G1 X92.223 Y104.047 E.25816
G1 X91.555 Y103.913 E.02137
G1 X85.98 Y98.339 E.24735
G1 X85.564 Y98.456 E.01358
G1 X90.934 Y103.826 E.2383
G1 X90.369 Y103.794 E.01778
G1 X85.168 Y98.593 E.23077
G1 X84.772 Y98.731 E.01316
G1 X89.809 Y103.768 E.22352
G1 X89.31 Y103.803 E.0157
G1 X84.393 Y98.886 E.21816
G1 X84.023 Y99.05 E.0127
G1 X88.814 Y103.841 E.21258
G1 X88.368 Y103.929 E.01425
G1 X83.653 Y99.213 E.20923
G1 X83.298 Y99.392 E.01247
G1 X87.923 Y104.017 E.20521
G1 X87.51 Y104.137 E.0135
G1 X82.954 Y99.582 E.20215
G1 X82.61 Y99.771 E.01233
G1 X87.11 Y104.271 E.19969
G1 X86.711 Y104.405 E.01322
G1 X82.269 Y99.964 E.19708
G1 X81.952 Y100.18 E.01205
G1 X86.349 Y104.577 E.19509
G1 X85.994 Y104.756 E.01246
G1 X81.634 Y100.396 E.19345
G1 X81.317 Y100.613 E.01205
G1 X85.64 Y104.935 E.1918
G1 X85.312 Y105.141 E.01215
G1 X81.007 Y100.836 E.191
G1 X80.715 Y101.078 E.01189
G1 X84.991 Y105.354 E.18971
G1 X84.676 Y105.573 E.01203
G1 X80.424 Y101.321 E.18867
G1 X80.132 Y101.563 E.01189
G1 X84.39 Y105.821 E.18893
G1 X84.105 Y106.069 E.01187
G1 X79.865 Y101.829 E.18813
G1 X79.598 Y102.095 E.01184
G1 X83.82 Y106.317 E.18734
G1 X83.574 Y106.605 E.01188
G1 X79.33 Y102.361 E.1883
G1 X79.065 Y102.63 E.01184
G1 X83.328 Y106.893 E.18915
G1 X83.082 Y107.18 E.01188
G1 X78.824 Y102.922 E.18895
G1 X78.582 Y103.214 E.01189
G1 X82.856 Y107.488 E.18962
G1 X82.643 Y107.808 E.01208
G1 X78.341 Y103.506 E.19088
G1 X78.112 Y103.811 E.01196
G1 X82.43 Y108.129 E.19158
G1 X82.252 Y108.485 E.01249
G1 X77.896 Y104.129 E.19331
G1 X77.68 Y104.446 E.01205
G1 X82.076 Y108.842 E.19507
G1 X81.908 Y109.208 E.01262
G1 X77.463 Y104.764 E.19719
G1 X77.272 Y105.106 E.0123
G1 X81.776 Y109.61 E.19986
G1 X81.645 Y110.012 E.01328
G1 X77.082 Y105.449 E.20247
G1 X76.892 Y105.793 E.01232
G1 X81.518 Y110.419 E.20525
G1 X81.43 Y110.864 E.01425
G1 X76.715 Y106.15 E.20918
G1 X76.553 Y106.521 E.01271
G1 X81.342 Y111.31 E.2125
G1 X81.304 Y111.806 E.0156
G1 X76.39 Y106.892 E.21803
G1 X76.231 Y107.267 E.01277
G1 X81.271 Y112.306 E.22361
G1 X81.258 Y112.502 E.00617
G1 X81.284 Y112.854 E.01105
G1 X76.098 Y107.667 E.23012
G1 X75.965 Y108.068 E.01324
G1 X81.328 Y113.431 E.23797
G1 X81.352 Y113.743 E.00981
G1 X81.412 Y114.049 E.00979
G1 X75.832 Y108.468 E.24761
G1 X75.728 Y108.898 E.01388
G1 X81.545 Y114.715 E.25809
G1 X81.815 Y115.518 E.02659
G1 X75.628 Y109.331 E.27452
G1 X75.527 Y109.764 E.01395
G1 X82.632 Y116.87 E.31528
M204 P1000
G1 E-2.24 F4200
;WIPE_START
G1 F7200
G1 X81.469 Y115.706 E-.912
;WIPE_END
G1 E-.048 F4200
G1 Z.4 F720
G1 X97.357 Y108.114 F9000
G1 Z.2 F720
G1 E3.2 F2400
M204 P800
G1 F1200
G1 X104.476 Y115.233 E.31588
G1 X104.374 Y115.665 E.01393
G1 X98.183 Y109.474 E.2747
G1 X98.453 Y110.277 E.02658
G1 X104.273 Y116.098 E.25825
G1 X104.171 Y116.529 E.01392
G1 X98.586 Y110.945 E.2478
G1 X98.648 Y111.26 E.01007
M73 P3 R42
G1 X98.671 Y111.564 E.00956
G1 X104.037 Y116.929 E.23809
G1 X103.903 Y117.329 E.01323
G1 X98.715 Y112.141 E.23022
G1 X98.742 Y112.504 E.01143
G1 X98.73 Y112.689 E.00583
G1 X103.77 Y117.729 E.22361
G1 X103.613 Y118.106 E.0128
G1 X98.697 Y113.19 E.21812
G1 X98.659 Y113.686 E.01561
G1 X103.449 Y118.476 E.21254
G1 X103.286 Y118.846 E.0127
G1 X98.571 Y114.132 E.2092
G1 X98.483 Y114.577 E.01425
G1 X103.111 Y119.205 E.20534
G1 X102.92 Y119.548 E.01231
G1 X98.356 Y114.984 E.20252
G1 X98.225 Y115.386 E.01328
G1 X102.73 Y119.891 E.19989
G1 X102.539 Y120.234 E.01231
G1 X98.094 Y115.788 E.19725
G1 X97.926 Y116.154 E.01263
G1 X102.323 Y120.552 E.19512
G1 X102.106 Y120.869 E.01205
G1 X97.749 Y116.511 E.19334
G1 X97.572 Y116.868 E.01249
G1 X101.89 Y121.186 E.19157
G1 X101.662 Y121.492 E.01197
G1 X97.359 Y117.189 E.19092
G1 X97.146 Y117.509 E.01208
G1 X101.421 Y121.783 E.18965
G1 X101.179 Y122.075 E.01189
G1 X96.92 Y117.817 E.18896
G1 X96.674 Y118.105 E.01188
G1 X100.937 Y122.367 E.18914
G1 X100.673 Y122.637 E.01184
G1 X96.428 Y118.392 E.18833
G1 X96.183 Y118.68 E.01188
G1 X100.405 Y122.902 E.18736
G1 X100.137 Y123.168 E.01184
G1 X95.898 Y118.929 E.1881
G1 X95.612 Y119.177 E.01187
G1 X99.869 Y123.434 E.18889
G1 X99.579 Y123.677 E.01189
G1 X95.327 Y119.425 E.18867
G1 X95.012 Y119.644 E.01203
G1 X99.287 Y123.919 E.18968
G1 X98.996 Y124.161 E.01189
G1 X94.692 Y119.857 E.19097
G1 X94.364 Y120.063 E.01215
G1 X98.687 Y124.387 E.19186
G1 X98.371 Y124.604 E.01204
