; generated by PrusaSlicer 2.5.0+MacOS-x64 on 2023-03-25 at 23:30:02 UTC


;
;
; 

; external perimeters extrusion width = 0.65mm
; perimeters extrusion width = 0.65mm
; infill extrusion width = 0.65mm
; solid infill extrusion width = 0.65mm
; top infill extrusion width = 0.60mm
; support material extrusion width = 0.55mm
; first layer extrusion width = 0.65mm

M73 P0 R33
M73 Q0 S33
M201 X1000 Y1000 Z200 E5000 ; sets maximum accelerations, mm/sec^2
M203 X200 Y200 Z12 E120 ; sets maximum feedrates, mm / sec
M204 P1250 R1250 T1250 ; sets acceleration (P, T) and retract acceleration (R), mm/sec^2
M205 X8.00 Y8.00 Z0.40 E4.50 ; sets the jerk limits, mm/sec
M205 S0 T0 ; sets the minimum extruding and travel feed rate, mm/sec
M107
;TYPE:Custom
M862.3 P "MK3" ; printer model check
M862.1 P0.6 ; nozzle diameter check
M115 U3.11.0 ; tell printer latest fw version
G90 ; use absolute coordinates
M83 ; extruder relative mode
M104 S215 ; set extruder temp
M140 S60 ; set bed temp
M190 S60 ; wait for bed temp
M109 S215 ; wait for extruder temp
G28 W ; home all without mesh bed level
G80 ; mesh bed leveling

G1 Z0.2 F720
G1 Y-3 F1000 ; go outside print area
G92 E0
G1 X60 E9 F1000 ; intro line
G1 X100 E12.5 F1000 ; intro line

G92 E0
M221 S95
G21 ; set units to millimeters
G90 ; use absolute coordinates
M83 ; use relative distances for extrusion
M900 K0.04 ; Filament gcode LA 1.5
M900 K18 ; Filament gcode LA 1.0
M107
;LAYER_CHANGE
;Z:0.2
;HEIGHT:0.2
;BEFORE_LAYER_CHANGE
G92 E0.0
;0.2


G1 E-.8 F2100
G1 Z.4 F720
;AFTER_LAYER_CHANGE
;0.2
G1 X114.181 Y48.878 F10800
G1 Z.2 F720
G1 E.8 F1500
M204 S800
;TYPE:Skirt/Brim
;WIDTH:0.65
G1 F1200
G1 X114.91 Y47.454 E.0808
G1 X115.088 Y47.276 E.0127
G1 X116.932 Y46.512 E.10072
G1 X130.561 Y46.512 E.68801
G1 X132.405 Y47.276 E.10072
M73 P0 R32
G1 X132.583 Y47.454 E.0127
G1 X133.297 Y48.795 E.07671
G1 X147.893 Y123.103 E3.82269
G1 X148.202 Y125.251 E.10954
G1 X148.308 Y127.267 E.10191
G1 X148.189 Y129.864 E.13122
G1 X147.899 Y131.866 E.10212
G1 X147.402 Y133.947 E.10798
G1 X146.717 Y135.973 E.10799
G1 X145.939 Y137.744 E.09764
G1 X133.039 Y161.931 E1.38368
G1 X132.583 Y162.546 E.0387
G1 X132.405 Y162.724 E.0127
G1 X130.561 Y163.488 E.10072
G1 X116.932 Y163.488 E.68801
G1 X115.088 Y162.724 E.10072
G1 X114.359 Y161.733 E.06212
G1 X103.299 Y136.011 E1.41338
G1 X102.491 Y133.545 E.13096
G1 X102.09 Y131.8 E.09038
G1 X101.824 Y129.971 E.09329
G1 X101.69 Y127.515 E.12419
G1 X101.833 Y124.961 E.12911
G1 X114.166 Y48.967 E3.88628
M204 S1000
;WIPE_START
G1 F8640
M73 P1 R32
M73 Q1 S33
G1 X114.91 Y47.454 E-.38944
G1 X115.088 Y47.276 E-.05808
G1 X116.338 Y46.758 E-.31247
;WIPE_END
G1 E-.04 F2100
G1 Z.6 F720
G1 X122.199 Y107.446 F10800
G1 Z.2 F720
G1 E.8 F1500
M204 S800
G1 F1200
G1 X122.691 Y107.378 E.02507
G1 X123.798 Y107.283 E.0561
G1 X124.493 Y107.253 E.03511
G1 X125.511 Y107.253 E.05138
G1 X126.308 Y107.29 E.0403
G1 X127.525 Y107.405 E.06168
G1 X129.051 Y107.656 E.07808
G1 X129.779 Y107.821 E.03766
G1 X130.984 Y108.149 E.06304
G1 X132.155 Y108.551 E.0625
G1 X133.823 Y109.269 E.09168
G1 X135.576 Y110.224 E.10076
G1 X137.135 Y111.281 E.0951
G1 X138.577 Y112.467 E.09422
G1 X139.815 Y113.69 E.08787
G1 X141.093 Y115.198 E.09978
G1 X142.167 Y116.747 E.09514
G1 X143.097 Y118.4 E.09575
G1 X143.869 Y120.133 E.09575
G1 X144.476 Y121.933 E.09591
G1 X144.918 Y123.812 E.09742
G1 X145.176 Y125.695 E.09596
G1 X145.256 Y127.626 E.09754
G1 X145.158 Y129.491 E.0943
G1 X144.889 Y131.34 E.09431
G1 X144.445 Y133.174 E.09523
G1 X143.798 Y135.037 E.09958
G1 X143.112 Y136.57 E.08477
G1 X142.295 Y138.045 E.08511
G1 X141.256 Y139.586 E.09381
G1 X140.071 Y141.034 E.09445
G1 X138.763 Y142.362 E.09409
G1 X137.31 Y143.587 E.09595
G1 X135.748 Y144.669 E.09591
G1 X134.092 Y145.601 E.09591
G1 X132.355 Y146.374 E.096
G1 X130.458 Y147.008 E.10098
G1 X129.477 Y147.25 E.05101
G1 X128.483 Y147.455 E.05122
G1 X126.686 Y147.686 E.09142
G1 X124.885 Y147.756 E.09102
G1 X123.198 Y147.676 E.08521
G1 X121.517 Y147.454 E.08559
G1 X120.538 Y147.253 E.05046
G1 X119.574 Y147.016 E.05014
G1 X117.496 Y146.314 E.11069
G1 X115.964 Y145.629 E.08473
G1 X114.486 Y144.814 E.08518
G1 X112.941 Y143.775 E.09401
G1 X111.488 Y142.591 E.0946
G1 X110.155 Y141.281 E.09434
G1 X108.908 Y139.803 E.09762
G1 X107.809 Y138.212 E.0976
G1 X106.878 Y136.55 E.09618
G1 X106.098 Y134.781 E.09757
G1 X105.506 Y133.004 E.09455
G1 X105.076 Y131.153 E.09593
G1 X104.823 Y129.284 E.09521
G1 X104.746 Y127.296 E.10041
G1 X104.832 Y125.62 E.08474
G1 X105.058 Y123.947 E.08519
G1 X105.469 Y122.131 E.094
G1 X106.048 Y120.349 E.09461
G1 X106.788 Y118.633 E.09431
G1 X107.685 Y116.988 E.09461
G1 X108.73 Y115.434 E.09448
G1 X109.913 Y113.984 E.09446
G1 X111.222 Y112.652 E.09431
G1 X112.701 Y111.406 E.09761
G1 X114.266 Y110.322 E.09614
G1 X115.953 Y109.377 E.09758
G1 X117.714 Y108.599 E.09719
G1 X118.969 Y108.164 E.06702
G1 X120.123 Y107.845 E.06045
G1 X120.902 Y107.665 E.04037
G1 X122.11 Y107.458 E.06184
M204 S1000
G1 X122.192 Y108.059 F10800
M204 S800
G1 F1200
G1 X122.751 Y107.983 E.02845
G1 X123.844 Y107.888 E.05538
G1 X124.499 Y107.86 E.03313
G1 X125.504 Y107.86 E.05071
G1 X126.259 Y107.895 E.03816
G1 X127.437 Y108.005 E.05971
G1 X128.944 Y108.253 E.07708
G1 X129.638 Y108.411 E.03595
G1 X130.796 Y108.726 E.06059
G1 X131.947 Y109.121 E.06142
G1 X133.57 Y109.821 E.08921
G1 X135.272 Y110.75 E.09788
G1 X136.783 Y111.775 E.09217
G1 X138.18 Y112.927 E.09139
G1 X139.379 Y114.112 E.08511
G1 X140.62 Y115.579 E.097
G1 X141.66 Y117.081 E.09221
G1 X142.561 Y118.685 E.09289
G1 X143.299 Y120.341 E.09149
G1 X143.889 Y122.087 E.09303
G1 X144.318 Y123.909 E.09452
G1 X144.57 Y125.736 E.09307
G1 X144.649 Y127.609 E.09465
G1 X144.555 Y129.418 E.09146
G1 X144.296 Y131.212 E.09147
G1 X143.867 Y132.989 E.09229
G1 X143.238 Y134.802 E.09684
G1 X142.563 Y136.31 E.08343
G1 X141.771 Y137.739 E.08246
G1 X140.761 Y139.234 E.09109
G1 X139.611 Y140.638 E.09163
G1 X138.341 Y141.926 E.09126
G1 X136.93 Y143.113 E.09309
G1 X135.415 Y144.162 E.09303
G1 X133.808 Y145.064 E.09304
G1 X132.148 Y145.803 E.09168
G1 X130.3 Y146.422 E.09839
G1 X129.348 Y146.657 E.04949
G1 X128.371 Y146.858 E.05035
G1 X126.649 Y147.08 E.08768
G1 X124.9 Y147.149 E.08834
G1 X123.24 Y147.07 E.0839
G1 X121.629 Y146.858 E.08204
G1 X120.677 Y146.663 E.04902
G1 X119.731 Y146.43 E.04919
G1 X117.731 Y145.754 E.10656
G1 X116.224 Y145.08 E.08336
G1 X114.792 Y144.289 E.08257
G1 X113.292 Y143.279 E.09128
G1 X111.883 Y142.13 E.09177
G1 X110.591 Y140.858 E.0915
G1 X109.399 Y139.445 E.09331
G1 X108.331 Y137.903 E.0947
G1 X107.427 Y136.291 E.09328
G1 X106.669 Y134.575 E.09468
G1 X106.094 Y132.852 E.09169
G1 X105.676 Y131.057 E.09306
G1 X105.429 Y129.245 E.09229
G1 X105.353 Y127.313 E.0976
G1 X105.437 Y125.664 E.08339
G1 X105.658 Y124.043 E.08257
G1 X106.058 Y122.279 E.09128
G1 X106.621 Y120.55 E.09178
G1 X107.34 Y118.887 E.09148
G1 X108.211 Y117.291 E.09178
G1 X109.225 Y115.785 E.09165
G1 X110.374 Y114.379 E.09163
G1 X111.645 Y113.088 E.09147
G1 X113.08 Y111.88 E.09472
G1 X114.6 Y110.829 E.09324
G1 X116.212 Y109.926 E.09326
G1 X117.925 Y109.168 E.09458
G1 X119.158 Y108.741 E.06588
G1 X120.278 Y108.432 E.05864
G1 X121.016 Y108.261 E.03825
G1 X122.103 Y108.072 E.0557
M204 S1000
G1 X122.186 Y108.673 F10800
M204 S800
G1 F1200
G1 X122.811 Y108.587 E.03183
G1 X123.877 Y108.494 E.054
G1 X124.506 Y108.467 E.03181
G1 X125.497 Y108.467 E.05002
G1 X126.21 Y108.5 E.03604
G1 X127.349 Y108.606 E.05774
G1 X128.836 Y108.851 E.07605
G1 X129.497 Y109.002 E.03422
G1 X130.627 Y109.31 E.05914
G1 X131.739 Y109.692 E.05933
G1 X133.317 Y110.372 E.08674
G1 X134.967 Y111.275 E.09499
G1 X136.429 Y112.269 E.08924
G1 X137.783 Y113.386 E.08857
G1 X138.942 Y114.534 E.08234
G1 X140.146 Y115.96 E.09421
G1 X141.152 Y117.414 E.08927
G1 X142.025 Y118.97 E.09004
G1 X142.738 Y120.574 E.08864
G1 X143.309 Y122.267 E.09016
G1 X143.724 Y124.034 E.09162
G1 X143.967 Y125.804 E.09018
G1 X144.042 Y127.592 E.09037
G1 X143.953 Y129.346 E.08863
G1 X143.702 Y131.084 E.08864
G1 X143.288 Y132.805 E.08935
G1 X142.679 Y134.566 E.09409
G1 X142.026 Y136.027 E.08077
G1 X141.247 Y137.433 E.08111
G1 X140.266 Y138.882 E.08835
G1 X139.15 Y140.243 E.08881
G1 X137.919 Y141.489 E.08843
G1 X136.551 Y142.639 E.09024
G1 X135.081 Y143.654 E.09016
G1 X133.523 Y144.528 E.09017
G1 X131.915 Y145.242 E.08882
G1 X130.143 Y145.835 E.09435
G1 X129.209 Y146.066 E.04856
G1 X128.26 Y146.261 E.04887
G1 X126.585 Y146.476 E.08528
G1 X124.915 Y146.542 E.08433
G1 X123.306 Y146.467 E.08131
G1 X121.74 Y146.261 E.07975
G1 X120.805 Y146.069 E.04817
G1 X119.889 Y145.843 E.04765
G1 X117.965 Y145.194 E.10247
G1 X116.506 Y144.542 E.08069
G1 X115.097 Y143.764 E.08123
G1 X113.643 Y142.784 E.08854
G1 X112.278 Y141.669 E.08895
G1 X111.027 Y140.436 E.08867
G1 X109.873 Y139.065 E.09044
G1 X108.839 Y137.57 E.0918
G1 X107.964 Y136.007 E.09038
G1 X107.231 Y134.344 E.09179
G1 X106.675 Y132.674 E.08882
G1 X106.275 Y130.96 E.08882
G1 X106.035 Y129.206 E.08937
G1 X105.96 Y127.33 E.09479
G1 X106.04 Y125.732 E.08075
G1 X106.257 Y124.138 E.08123
G1 X106.646 Y122.428 E.08854
G1 X107.194 Y120.753 E.08895
G1 X107.891 Y119.141 E.08865
G1 X108.737 Y117.595 E.08895
G1 X109.721 Y116.136 E.08881
G1 X110.835 Y114.775 E.08879
G1 X112.067 Y113.524 E.08864
G1 X113.438 Y112.371 E.09043
G1 X114.91 Y111.352 E.09037
G1 X116.471 Y110.475 E.09037
G1 X118.136 Y109.738 E.09195
M73 P2 R32
G1 X119.348 Y109.317 E.06473
G1 X120.433 Y109.019 E.05682
G1 X121.13 Y108.857 E.03613
G1 X122.097 Y108.685 E.04956
M204 S1000
G1 X122.203 Y109.283 F10800
M204 S800
M73 Q2 S33
G1 F1200
G1 X122.871 Y109.191 E.03403
G1 X123.909 Y109.101 E.05262
G1 X124.513 Y109.075 E.03048
G1 X125.49 Y109.075 E.04933
G1 X126.161 Y109.105 E.03393
G1 X127.261 Y109.207 E.05575
G1 X128.728 Y109.448 E.07502
G1 X129.355 Y109.592 E.03248
G1 X130.458 Y109.893 E.0577
G1 X131.53 Y110.262 E.05724
G1 X133.063 Y110.924 E.08428
G1 X134.663 Y111.801 E.0921
G1 X136.076 Y112.763 E.08631
G1 X137.385 Y113.845 E.08575
G1 X138.505 Y114.955 E.07959
G1 X139.673 Y116.34 E.09143
G1 X140.644 Y117.747 E.08634
G1 X141.476 Y119.23 E.0858
G1 X142.168 Y120.782 E.0858
G1 X142.722 Y122.42 E.08728
G1 X143.125 Y124.131 E.08873
G1 X143.361 Y125.844 E.08729
G1 X143.435 Y127.576 E.08751
G1 X143.35 Y129.274 E.0858
M73 Q2 S32
G1 X143.108 Y130.956 E.0858
G1 X142.709 Y132.621 E.0864
G1 X142.119 Y134.331 E.09133
G1 X141.477 Y135.768 E.07943
G1 X140.723 Y137.126 E.07843
G1 X139.771 Y138.53 E.08562
G1 X138.69 Y139.846 E.08598
G1 X137.498 Y141.052 E.0856
G1 X136.172 Y142.164 E.08738
G1 X134.749 Y143.146 E.08728
G1 X133.239 Y143.991 E.0873
G1 X131.682 Y144.681 E.08596
G1 X129.985 Y145.249 E.09033
G1 X129.069 Y145.475 E.04764
G1 X128.149 Y145.664 E.04739
G1 X126.547 Y145.87 E.08157
G1 X124.93 Y145.935 E.08168
G1 X123.372 Y145.863 E.07872
G1 X121.851 Y145.664 E.07745
G1 X120.944 Y145.478 E.04672
G1 X120.046 Y145.257 E.0467
G1 X118.2 Y144.633 E.09837
G1 X116.765 Y143.993 E.07931
G1 X115.403 Y143.239 E.07858
G1 X113.994 Y142.289 E.0858
G1 X112.674 Y141.208 E.08612
G1 X111.464 Y140.014 E.08583
G1 X110.347 Y138.686 E.08759
G1 X109.361 Y137.26 E.08749
G1 X108.514 Y135.748 E.08748
G1 X107.802 Y134.138 E.0889
G1 X107.263 Y132.522 E.08598
G1 X106.875 Y130.863 E.08598
G1 X106.641 Y129.167 E.08645
G1 X106.567 Y127.347 E.09196
G1 X106.646 Y125.776 E.07938
G1 X106.857 Y124.234 E.07858
G1 X107.235 Y122.576 E.0858
G1 X107.766 Y120.955 E.08612
G1 X108.442 Y119.395 E.08582
G1 X109.263 Y117.899 E.08612
G1 X110.216 Y116.488 E.08598
G1 X111.295 Y115.171 E.08596
G1 X112.489 Y113.961 E.0858
G1 X113.817 Y112.845 E.08757
G1 X115.243 Y111.859 E.08749
G1 X116.755 Y111.012 E.08749
G1 X118.347 Y110.307 E.08789
G1 X119.537 Y109.894 E.06359
G1 X120.588 Y109.606 E.055
G1 X121.245 Y109.453 E.03404
G1 X122.115 Y109.299 E.04461
M204 S1000
G1 X122.221 Y109.896 F10800
M204 S800
G1 F1200
G1 X122.931 Y109.795 E.03623
G1 X123.943 Y109.707 E.05124
G1 X124.519 Y109.682 E.02914
G1 X125.483 Y109.682 E.04864
G1 X126.113 Y109.711 E.03184
G1 X127.174 Y109.808 E.05375
G1 X128.62 Y110.046 E.07398
G1 X129.213 Y110.182 E.03073
G1 X130.27 Y110.47 E.05528
G1 X131.321 Y110.832 E.05615
G1 X132.808 Y111.475 E.0818
G1 X134.358 Y112.326 E.0892
G1 X135.722 Y113.257 E.08337
G1 X136.987 Y114.304 E.08293
G1 X138.067 Y115.376 E.07683
G1 X139.199 Y116.719 E.08865
G1 X140.136 Y118.08 E.08341
G1 X140.939 Y119.514 E.08297
G1 X141.607 Y121.016 E.08297
G1 X142.142 Y122.601 E.08443
G1 X142.525 Y124.229 E.08443
G1 X142.755 Y125.885 E.08442
G1 X142.828 Y127.561 E.08465
G1 X142.747 Y129.202 E.08296
G1 X142.515 Y130.829 E.08297
G1 X142.131 Y132.437 E.08345
G1 X141.559 Y134.096 E.08857
G1 X140.94 Y135.485 E.07673
G1 X140.199 Y136.819 E.07706
G1 X139.277 Y138.177 E.08286
G1 X138.23 Y139.45 E.08316
G1 X137.076 Y140.615 E.08278
G1 X135.815 Y141.673 E.08314
G1 X134.439 Y142.624 E.08442
G1 X132.98 Y143.442 E.08444
G1 X131.476 Y144.11 E.08307
G1 X129.828 Y144.663 E.08774
G1 X128.941 Y144.882 E.0461
G1 X128.039 Y145.067 E.04651
G1 X126.483 Y145.266 E.07918
G1 X124.945 Y145.328 E.07771
G1 X123.438 Y145.259 E.07613
G1 X121.962 Y145.067 E.07515
G1 X121.084 Y144.887 E.04525
G1 X120.203 Y144.671 E.04575
G1 X118.434 Y144.073 E.09429
G1 X117.047 Y143.455 E.07661
G1 X115.709 Y142.715 E.07723
G1 X114.346 Y141.794 E.08304
G1 X113.07 Y140.747 E.08329
G1 X111.9 Y139.592 E.08299
G1 X110.821 Y138.307 E.08473
G1 X109.869 Y136.927 E.0846
G1 X109.051 Y135.465 E.08461
G1 X108.373 Y133.932 E.08461
G1 X107.85 Y132.369 E.08315
G1 X107.474 Y130.766 E.08314
G1 X107.247 Y129.127 E.08352
G1 X107.174 Y127.363 E.08914
G1 X107.249 Y125.845 E.0767
G1 X107.457 Y124.329 E.07723
G1 X107.824 Y122.726 E.08304
G1 X108.339 Y121.158 E.08329
G1 X108.994 Y119.65 E.08299
G1 X109.788 Y118.204 E.08329
G1 X110.711 Y116.84 E.08315
G1 X111.755 Y115.567 E.08313
G1 X112.911 Y114.398 E.08297
G1 X114.196 Y113.319 E.08471
G1 X115.576 Y112.367 E.0846
G1 X117.039 Y111.549 E.08462
G1 X118.558 Y110.877 E.08386
G1 X119.726 Y110.471 E.06244
G1 X120.742 Y110.193 E.05317
G1 X121.359 Y110.05 E.03195
G1 X122.132 Y109.912 E.03966
M204 S1000
G1 X122.239 Y110.51 F10800
M204 S800
G1 F1200
G1 X122.992 Y110.399 E.03844
G1 X123.976 Y110.313 E.04988
G1 X124.526 Y110.289 E.02779
G1 X125.476 Y110.289 E.04794
G1 X126.065 Y110.316 E.02977
G1 X127.086 Y110.409 E.05174
G1 X128.511 Y110.643 E.07291
G1 X129.07 Y110.772 E.02897
G1 X130.081 Y111.047 E.05289
G1 X131.112 Y111.402 E.05504
G1 X132.554 Y112.027 E.0793
G1 X134.052 Y112.85 E.0863
G1 X135.367 Y113.75 E.08044
G1 X136.589 Y114.762 E.08011
G1 X137.63 Y115.797 E.07407
G1 X138.725 Y117.099 E.08587
G1 X139.628 Y118.412 E.08046
G1 X140.403 Y119.798 E.08014
G1 X141.046 Y121.249 E.08014
G1 X141.562 Y122.781 E.08158
G1 X141.926 Y124.326 E.08016
G1 X142.149 Y125.927 E.08156
G1 X142.221 Y127.545 E.08179
G1 X142.144 Y129.131 E.08013
G1 X141.921 Y130.703 E.08014
G1 X141.552 Y132.254 E.0805
G1 X140.999 Y133.862 E.08582
G1 X140.403 Y135.202 E.07402
G1 X139.675 Y136.512 E.07568
G1 X138.783 Y137.824 E.08009
G1 X137.771 Y139.053 E.08033
G1 X136.656 Y140.177 E.07995
G1 X135.436 Y141.199 E.08031
G1 X134.106 Y142.116 E.08156
G1 X132.696 Y142.905 E.08158
G1 X131.243 Y143.549 E.08022
G1 X129.67 Y144.076 E.08373
G1 X128.802 Y144.291 E.04517
G1 X127.928 Y144.47 E.04502
G1 X126.445 Y144.66 E.07549
G1 X124.959 Y144.721 E.07508
G1 X123.503 Y144.656 E.07353
G1 X122.073 Y144.47 E.07283
G1 X121.211 Y144.294 E.04439
G1 X120.361 Y144.084 E.04419
G1 X118.667 Y143.513 E.09023
G1 X117.33 Y142.918 E.0739
G1 X116.015 Y142.19 E.07586
G1 X114.698 Y141.299 E.08026
G1 X113.466 Y140.287 E.08045
G1 X112.338 Y139.171 E.08015
G1 X111.296 Y137.928 E.08186
G1 X110.377 Y136.595 E.08173
G1 X109.6 Y135.206 E.08034
G1 X108.944 Y133.725 E.08176
G1 X108.438 Y132.216 E.08031
G1 X108.073 Y130.668 E.08031
G1 X107.853 Y129.087 E.08059
G1 X107.781 Y127.378 E.08631
G1 X107.853 Y125.914 E.074
G1 X108.056 Y124.425 E.07586
G1 X108.412 Y122.876 E.08026
G1 X108.911 Y121.362 E.08046
G1 X109.545 Y119.906 E.08015
G1 X110.313 Y118.509 E.08046
G1 X111.205 Y117.192 E.08031
G1 X112.215 Y115.963 E.0803
G1 X113.332 Y114.835 E.08014
G1 X114.553 Y113.81 E.08046
G1 X115.885 Y112.89 E.08173
G1 X117.298 Y112.098 E.08175
