; generated by PrusaSlicer 2.5.0+MacOS-x64 on 2023-03-23 at 20:20:07 UTC


;
;
; 

; external perimeters extrusion width = 0.45mm
; perimeters extrusion width = 0.45mm
; infill extrusion width = 0.45mm
; solid infill extrusion width = 0.45mm
; top infill extrusion width = 0.40mm
; support material extrusion width = 0.35mm
; first layer extrusion width = 0.42mm

M73 P0 R286
M73 Q0 S289
M201 X1000 Y1000 Z200 E5000 ; sets maximum accelerations, mm/sec^2
M203 X200 Y200 Z12 E120 ; sets maximum feedrates, mm / sec
M204 P1250 R1250 T1250 ; sets acceleration (P, T) and retract acceleration (R), mm/sec^2
M205 X8.00 Y8.00 Z0.40 E4.50 ; sets the jerk limits, mm/sec
M205 S0 T0 ; sets the minimum extruding and travel feed rate, mm/sec
M107
;TYPE:Custom
M862.3 P "MK3" ; printer model check
M862.1 P0.4 ; nozzle diameter check
M115 U3.11.0 ; tell printer latest fw version
G90 ; use absolute coordinates
M83 ; extruder relative mode
M104 S215 ; set extruder temp
M140 S60 ; set bed temp
M190 S60 ; wait for bed temp
M109 S215 ; wait for extruder temp
G28 W ; home all without mesh bed level
G80 ; mesh bed leveling

G1 Z0.2 F720
G1 Y-3 F1000 ; go outside print area
G92 E0
G1 X60 E9 F1000 ; intro line
G1 X100 E12.5 F1000 ; intro line

G92 E0
M221 S95

; Don't change E values below. Excessive value can damage the printer.

M907 E538 ; set extruder motor current
G21 ; set units to millimeters
G90 ; use absolute coordinates
M83 ; use relative distances for extrusion
M900 K0.05 ; Filament gcode LA 1.5
M900 K30 ; Filament gcode LA 1.0
M107
;LAYER_CHANGE
;Z:0.2
;HEIGHT:0.2
;BEFORE_LAYER_CHANGE
G92 E0.0
;0.2


G1 E-.8 F2100
M73 Q0 S288
G1 Z.4 F720
;AFTER_LAYER_CHANGE
;0.2
G1 X49.663 Y49.663 F10800
G1 Z.2 F720
G1 E.8 F2100
M204 S800
;TYPE:Skirt/Brim
;WIDTH:0.42
G1 F1200
G1 X50.407 Y48.919 E.03298
G1 X52.088 Y48.223 E.05704
G1 X85.912 Y48.223 E1.06056
G1 X87.077 Y48.528 E.03774
G1 X131.099 Y73.26 E1.58321
G1 X131.726 Y73.762 E.02519
G1 X132.422 Y75.443 E.05704
G1 X132.422 Y127.493 E1.63199
G1 X131.929 Y128.943 E.048
G1 X131.741 Y129.188 E.0097
G1 X130.633 Y129.985 E.04278
G1 X129.947 Y130.114 E.02191
G1 X86.002 Y131.775 E1.37883
G1 X52.088 Y131.777 E1.06337
G1 X50.407 Y131.081 E.05704
G1 X47.419 Y128.093 E.13247
G1 X46.723 Y126.412 E.05704
G1 X46.723 Y53.588 E2.28338
G1 X47.419 Y51.907 E.05704
G1 X49.62 Y49.705 E.09761
M204 S1000
;WIPE_START
G1 F8640
G1 X50.407 Y48.919 E-.25672
G1 X52.088 Y48.223 E-.42009
G1 X52.448 Y48.223 E-.08319
;WIPE_END
G1 E-.04 F2100
G1 Z.6 F720
G1 X51.363 Y51.793 F10800
G1 Z.2 F720
M73 P0 R285
G1 E.8 F2100
M204 S800
G1 F1200
G1 X52.466 Y51.202 E.03924
G1 X53.783 Y50.886 E.04246
G1 X84.189 Y50.89 E.95339
G1 X85.21 Y51.084 E.03256
G1 X86.188 Y51.5 E.03332
G1 X87.312 Y52.396 E.04508
G1 X88.205 Y53.734 E.05044
G1 X88.613 Y55.279 E.05011
G1 X88.613 Y124.719 E2.17726
G1 X88.264 Y126.128 E.0455
G1 X87.592 Y127.277 E.04174
G1 X86.637 Y128.207 E.04179
G1 X85.534 Y128.798 E.03923
G1 X84.218 Y129.113 E.04245
G1 X53.781 Y129.113 E.95433
G1 X52.372 Y128.764 E.0455
G1 X51.223 Y128.092 E.04174
G1 X50.293 Y127.137 E.04179
G1 X49.702 Y126.034 E.03923
G1 X49.387 Y124.718 E.04245
G1 X49.387 Y55.281 E2.17715
G1 X49.736 Y53.872 E.0455
G1 X50.408 Y52.723 E.04174
G1 X51.32 Y51.835 E.03991
M204 S1000
G1 X51.581 Y52.106 F10800
M204 S800
G1 F1200
G1 X52.578 Y51.563 E.03561
G1 X53.805 Y51.264 E.0396
G1 X84.171 Y51.267 E.95209
G1 X85.117 Y51.45 E.03022
G1 X86.015 Y51.836 E.03062
G1 X87.053 Y52.671 E.0418
G1 X87.849 Y53.862 E.0449
G1 X88.236 Y55.304 E.04682
G1 X88.236 Y124.696 E2.17573
G1 X87.905 Y126.008 E.04245
G1 X87.281 Y127.062 E.0384
G1 X86.395 Y127.917 E.03861
G1 X85.422 Y128.437 E.0346
G1 X84.195 Y128.736 E.03959
G1 X53.804 Y128.736 E.95287
G1 X52.492 Y128.405 E.04245
G1 X51.438 Y127.781 E.0384
G1 X50.583 Y126.895 E.03861
G1 X50.063 Y125.922 E.0346
G1 X49.764 Y124.695 E.03959
G1 X49.764 Y55.304 E2.17569
G1 X50.095 Y53.992 E.04245
G1 X50.719 Y52.938 E.0384
G1 X51.538 Y52.148 E.03569
M204 S1000
G1 X51.797 Y52.413 F10800
M204 S800
G1 F1200
G1 X52.693 Y51.923 E.03204
G1 X53.829 Y51.641 E.03669
G1 X84.152 Y51.644 E.95077
G1 X85.024 Y51.816 E.02785
G1 X85.84 Y52.171 E.0279
G1 X86.793 Y52.945 E.03848
G1 X87.517 Y54.043 E.04126
G1 X87.859 Y55.328 E.0417
G1 X87.859 Y124.672 E2.17424
G1 X87.566 Y125.841 E.03779
G1 X86.999 Y126.81 E.0352
G1 X86.192 Y127.598 E.03537
G1 X85.307 Y128.077 E.03154
G1 X84.171 Y128.359 E.03668
G1 X53.828 Y128.359 E.95141
G1 X52.659 Y128.066 E.03779
G1 X51.69 Y127.499 E.0352
G1 X50.902 Y126.692 E.03537
G1 X50.423 Y125.807 E.03154
G1 X50.141 Y124.671 E.03668
G1 X50.141 Y55.328 E2.17423
G1 X50.434 Y54.159 E.03779
G1 X51.001 Y53.19 E.0352
G1 X51.754 Y52.455 E.03298
M204 S1000
G1 X52.015 Y52.726 F10800
M204 S800
G1 F1200
G1 X52.051 Y52.691 E.00157
G1 X52.809 Y52.282 E.02699
G1 X53.853 Y52.018 E.03376
G1 X84.133 Y52.021 E.94942
G1 X84.929 Y52.181 E.02544
G1 X85.664 Y52.505 E.02518
G1 X86.53 Y53.217 E.03516
G1 X87.185 Y54.223 E.03763
G1 X87.482 Y55.352 E.03663
G1 X87.482 Y124.648 E2.17273
G1 X87.208 Y125.721 E.03471
G1 X86.688 Y126.595 E.03189
G1 X85.949 Y127.309 E.03222
G1 X85.191 Y127.718 E.02699
G1 X84.148 Y127.982 E.03376
G1 X53.852 Y127.982 E.94991
G1 X52.779 Y127.708 E.03471
G1 X51.905 Y127.188 E.03189
G1 X51.191 Y126.449 E.03222
G1 X50.782 Y125.691 E.02699
M73 Q0 S287
G1 X50.518 Y124.648 E.03376
G1 X50.518 Y55.352 E2.17273
G1 X50.792 Y54.279 E.03471
G1 X51.312 Y53.405 E.03189
G1 X51.972 Y52.768 E.02877
M204 S1000
G1 X52.234 Y53.039 F10800
M204 S800
G1 F1200
G1 X52.294 Y52.981 E.00263
G1 X52.926 Y52.642 E.02247
G1 X53.877 Y52.395 E.03082
G1 X84.115 Y52.398 E.94807
G1 X84.796 Y52.535 E.02178
G1 X85.487 Y52.839 E.02369
G1 X86.267 Y53.488 E.03181
G1 X86.829 Y54.35 E.03225
G1 X87.105 Y55.378 E.03337
G1 X87.105 Y124.624 E2.17116
G1 X86.85 Y125.599 E.03162
G1 X86.409 Y126.341 E.02707
G1 X85.706 Y127.019 E.03062
G1 X85.074 Y127.358 E.02247
G1 X84.123 Y127.605 E.03081
G1 X53.876 Y127.605 E.94837
G1 X52.901 Y127.35 E.03162
G1 X52.159 Y126.909 E.02707
G1 X51.481 Y126.206 E.03062
G1 X51.142 Y125.574 E.02247
G1 X50.895 Y124.623 E.03081
G1 X50.895 Y55.376 E2.17119
G1 X51.15 Y54.401 E.03162
G1 X51.591 Y53.659 E.02707
G1 X52.191 Y53.081 E.02611
M204 S1000
G1 X52.452 Y53.352 F10800
M204 S800
G1 F1200
G1 X52.537 Y53.271 E.00368
G1 X53.044 Y53 E.01801
G1 X53.902 Y52.772 E.02785
G1 X84.095 Y52.776 E.94667
G1 X84.699 Y52.9 E.01932
G1 X85.308 Y53.172 E.02093
G1 X86.001 Y53.757 E.02843
G1 X86.495 Y54.528 E.0287
G1 X86.728 Y55.402 E.02837
G1 X86.728 Y124.598 E2.16961
G1 X86.493 Y125.476 E.02849
M73 P0 R284
G1 X86.129 Y126.087 E.02231
G1 X85.463 Y126.729 E.029
G1 X84.956 Y127 E.01801
G1 X84.098 Y127.228 E.02785
G1 X53.902 Y127.228 E.94679
G1 X53.024 Y126.993 E.02849
G1 X52.413 Y126.629 E.02231
G1 X51.771 Y125.963 E.029
G1 X51.5 Y125.456 E.01801
G1 X51.272 Y124.598 E.02785
G1 X51.272 Y55.402 E2.1696
G1 X51.507 Y54.524 E.02849
G1 X51.871 Y53.913 E.02231
G1 X52.409 Y53.394 E.02344
M204 S1000
G1 X52.669 Y53.659 F10800
M204 S800
G1 F1200
G1 X52.741 Y53.588 E.00317
G1 X53.166 Y53.358 E.01515
G1 X53.928 Y53.149 E.02478
G1 X84.075 Y53.153 E.94522
G1 X84.599 Y53.264 E.01681
G1 X85.127 Y53.504 E.01817
G1 X85.734 Y54.025 E.0251
G1 X86.139 Y54.656 E.02351
G1 X86.351 Y55.428 E.0251
G1 X86.351 Y124.572 E2.16797
G1 X86.137 Y125.351 E.02531
G1 X85.847 Y125.835 E.0177
G1 X85.259 Y126.412 E.02582
G1 X84.834 Y126.642 E.01515
G1 X84.072 Y126.851 E.02478
G1 X53.928 Y126.851 E.94516
G1 X53.149 Y126.637 E.02531
G1 X52.665 Y126.347 E.0177
G1 X52.088 Y125.759 E.02582
G1 X51.858 Y125.334 E.01515
G1 X51.649 Y124.572 E.02478
G1 X51.649 Y55.428 E2.16797
G1 X51.863 Y54.649 E.02531
G1 X52.153 Y54.165 E.0177
G1 X52.626 Y53.701 E.02077
M204 S1000
G1 X52.888 Y53.964 F10800
M204 S800
G1 F1200
G1 X52.949 Y53.904 E.00267
G1 X53.291 Y53.714 E.01229
G1 X53.955 Y53.526 E.02163
G1 X84.053 Y53.53 E.94371
G1 X84.497 Y53.627 E.01423
G1 X84.943 Y53.834 E.01541
G1 X85.466 Y54.291 E.02178
G1 X85.785 Y54.786 E.01847
G1 X85.974 Y55.455 E.02179
G1 X85.974 Y124.545 E2.16629
G1 X85.781 Y125.223 E.02209
G1 X85.564 Y125.585 E.01324
G1 X85.051 Y126.096 E.02269
G1 X84.709 Y126.286 E.01229
G1 X84.045 Y126.474 E.02163
G1 X53.955 Y126.474 E.94347
G1 X53.277 Y126.281 E.02209
G1 X52.915 Y126.064 E.01324
G1 X52.404 Y125.551 E.02269
G1 X52.214 Y125.209 E.01229
G1 X52.026 Y124.545 E.02163
G1 X52.026 Y55.455 E2.16629
G1 X52.219 Y54.777 E.02209
G1 X52.436 Y54.415 E.01324
G1 X52.846 Y54.007 E.01813
M204 S1000
G1 X53.11 Y54.268 F10800
M204 S800
G1 F1200
G1 X53.16 Y54.218 E.00221
G1 X53.42 Y54.069 E.00942
G1 X53.983 Y53.903 E.01838
G1 X84.031 Y53.907 E.94213
G1 X84.391 Y53.99 E.01157
G1 X84.756 Y54.162 E.01266
G1 X85.196 Y54.554 E.01848
G1 X85.431 Y54.92 E.01362
G1 X85.597 Y55.483 E.01841
G1 X85.597 Y124.517 E2.16452
G1 X85.427 Y125.092 E.0188
G1 X85.28 Y125.337 E.00896
G1 X84.84 Y125.782 E.01961
G1 X84.58 Y125.931 E.00942
G1 X84.017 Y126.097 E.01838
G1 X53.983 Y126.097 E.94171
G1 X53.408 Y125.927 E.0188
G1 X53.163 Y125.78 E.00896
G1 X52.718 Y125.34 E.01961
G1 X52.569 Y125.08 E.00942
G1 X52.403 Y124.517 E.01838
G1 X52.403 Y55.483 E2.16453
G1 X52.573 Y54.908 E.0188
G1 X52.72 Y54.663 E.00896
G1 X53.068 Y54.311 E.01553
M204 S1000
G1 X53.335 Y54.569 F10800
M204 S800
G1 F1200
G1 X53.555 Y54.421 E.00831
G1 X54.012 Y54.28 E.015
G1 X84.009 Y54.284 E.94053
G1 X84.247 Y54.339 E.00767
G1 X84.568 Y54.491 E.01111
G1 X84.923 Y54.815 E.01508
G1 X85.079 Y55.057 E.00902
G1 X85.22 Y55.512 E.01495
G1 X85.22 Y124.488 E2.16267
G1 X85.074 Y124.957 E.01542
M73 Q0 S286
G1 X84.994 Y125.091 E.00489
G1 X84.625 Y125.472 E.01663
G1 X84.445 Y125.579 E.00656
G1 X83.988 Y125.72 E.015
G1 X54.012 Y125.72 E.93985
G1 X53.543 Y125.574 E.01542
G1 X53.409 Y125.494 E.00489
G1 X53.028 Y125.125 E.01663
G1 X52.921 Y124.945 E.00656
G1 X52.78 Y124.488 E.015
G1 X52.78 Y55.512 E2.16267
G1 X52.926 Y55.043 E.01542
G1 X53.006 Y54.909 E.00489
G1 X53.294 Y54.612 E.01295
M204 S1000
G1 X53.564 Y54.868 F10800
M204 S800
G1 F1200
G1 X53.698 Y54.771 E.00518
G1 X54.044 Y54.657 E.01143
G1 X83.987 Y54.661 E.93884
G1 X84.104 Y54.688 E.00377
G1 X84.378 Y54.818 E.0095
G1 X84.647 Y55.073 E.0116
G1 X84.73 Y55.2 E.00476
G1 X84.843 Y55.544 E.01136
G1 X84.843 Y124.456 E2.16068
G1 X84.706 Y124.847 E.01299
G1 X84.403 Y125.166 E.0138
G1 X84.302 Y125.229 E.00372
G1 X83.956 Y125.343 E.01143
G1 X54.044 Y125.343 E.93786
G1 X53.653 Y125.206 E.01299
G1 X53.334 Y124.903 E.0138
G1 X53.271 Y124.802 E.00372
G1 X53.157 Y124.456 E.01143
G1 X53.157 Y55.544 E2.16068
G1 X53.276 Y55.183 E.01193
G1 X53.523 Y54.912 E.01148
M204 S1000
G1 X53.797 Y55.166 F10800
M204 S800
G1 F1200
G1 X53.852 Y55.116 E.00233
G1 X54.079 Y55.034 E.00757
G1 X83.935 Y55.034 E.93611
G1 X84.185 Y55.144 E.00856
M73 P0 R283
G1 X84.384 Y55.352 E.00902
G1 X84.466 Y55.579 E.00757
G1 X84.466 Y124.421 E2.15848
G1 X84.389 Y124.634 E.00709
G1 X84.148 Y124.884 E.0109
G1 X83.921 Y124.966 E.00757
G1 X54.079 Y124.966 E.93566
G1 X53.866 Y124.889 E.00709
G1 X53.616 Y124.648 E.0109
G1 X53.534 Y124.421 E.00757
G1 X53.534 Y55.579 E2.15848
G1 X53.611 Y55.366 E.00709
G1 X53.756 Y55.21 E.0067
M204 S1000
G1 X54.019 Y55.473 F10800
M204 S800
G1 F1200
G1 X54.121 Y55.411 E.00373
G1 X83.879 Y55.411 E.93304
G1 X83.948 Y55.44 E.00235
G1 X84.06 Y55.552 E.00495
G1 X84.089 Y55.621 E.00235
G1 X84.089 Y124.379 E2.15585
G1 X84.06 Y124.448 E.00235
G1 X83.948 Y124.56 E.00495
G1 X83.879 Y124.589 E.00235
G1 X54.121 Y124.589 E.93304
G1 X54.052 Y124.56 E.00235
G1 X53.94 Y124.448 E.00495
G1 X53.911 Y124.379 E.00235
G1 X53.911 Y55.621 E2.15585
G1 X53.977 Y55.515 E.0039
M204 S1000
; printing object MotorBearing v9s.stl id:0 copy 0
;WIPE_START
G1 F8640
G1 X54.121 Y55.411 E-.04105
G1 X57.235 Y55.411 E-.71895
;WIPE_END
G1 E-.04 F2100
G1 Z.6 F720
G1 X129.857 Y127.55 F10800
G1 Z.2 F720
G1 E.8 F2100
M204 S800
;TYPE:Support material
G1 F1200
G1 X88.227 Y127.55 E1.30527
G1 X88.901 Y126.553 E.03772
G1 X89.31 Y124.521 E.065
G1 X89.31 Y75.521 E1.53635
G1 X129.857 Y75.521 E1.27131
G1 X129.857 Y127.493 E1.62954
M204 S1000
G1 X129.384 Y127.38 F10800
M204 S800
G1 F1200
G1 X129.384 Y75.861 E1.61536
G1 X128.965 Y75.861 E.01314
M73 P1 R283
M73 Q1 S286
G1 X128.965 Y127.21 E1.61004
G1 X128.546 Y127.21 E.01314
G1 X128.546 Y75.861 E1.61004
G1 X128.127 Y75.861 E.01314
G1 X128.127 Y127.21 E1.61004
G1 X127.708 Y127.21 E.01314
G1 X127.708 Y75.861 E1.61004
G1 X127.289 Y75.861 E.01314
M73 Q1 S285
G1 X127.289 Y127.21 E1.61004
G1 X126.87 Y127.21 E.01314
G1 X126.87 Y75.861 E1.61004
G1 X126.451 Y75.861 E.01314
G1 X126.451 Y127.21 E1.61004
G1 X126.032 Y127.21 E.01314
G1 X126.032 Y75.861 E1.61004
G1 X125.613 Y75.861 E.01314
G1 X125.613 Y127.21 E1.61004
G1 X125.194 Y127.21 E.01314
G1 X125.194 Y75.861 E1.61004
G1 X124.775 Y75.861 E.01314
G1 X124.775 Y127.21 E1.61004
G1 X124.356 Y127.21 E.01314
M73 P1 R282
G1 X124.356 Y75.861 E1.61004
G1 X123.937 Y75.861 E.01314
G1 X123.937 Y127.21 E1.61004
G1 X123.518 Y127.21 E.01314
G1 X123.518 Y75.861 E1.61004
G1 X123.099 Y75.861 E.01314
G1 X123.099 Y127.21 E1.61004
G1 X122.68 Y127.21 E.01314
G1 X122.68 Y75.861 E1.61004
G1 X122.261 Y75.861 E.01314
G1 X122.261 Y127.21 E1.61004
G1 X121.842 Y127.21 E.01314
G1 X121.842 Y75.861 E1.61004
G1 X121.423 Y75.861 E.01314
G1 X121.423 Y127.21 E1.61004
G1 X121.004 Y127.21 E.01314
G1 X121.004 Y75.861 E1.61004
G1 X120.585 Y75.861 E.01314
G1 X120.585 Y127.21 E1.61004
G1 X120.166 Y127.21 E.01314
G1 X120.166 Y75.861 E1.61004
G1 X119.747 Y75.861 E.01314
G1 X119.747 Y127.21 E1.61004
G1 X119.328 Y127.21 E.01314
G1 X119.328 Y75.861 E1.61004
G1 X118.909 Y75.861 E.01314
G1 X118.909 Y127.21 E1.61004
G1 X118.49 Y127.21 E.01314
G1 X118.49 Y75.861 E1.61004
G1 X118.071 Y75.861 E.01314
G1 X118.071 Y127.21 E1.61004
G1 X117.652 Y127.21 E.01314
M73 Q1 S284
G1 X117.652 Y75.861 E1.61004
G1 X117.234 Y75.861 E.01314
G1 X117.234 Y127.21 E1.61004
G1 X116.815 Y127.21 E.01314
G1 X116.815 Y75.861 E1.61004
G1 X116.396 Y75.861 E.01314
G1 X116.396 Y127.21 E1.61004
G1 X115.977 Y127.21 E.01314
G1 X115.977 Y75.861 E1.61004
G1 X115.558 Y75.861 E.01314
G1 X115.558 Y127.21 E1.61004
G1 X115.139 Y127.21 E.01314
G1 X115.139 Y75.861 E1.61004
G1 X114.72 Y75.861 E.01314
M73 P1 R281
G1 X114.72 Y127.21 E1.61004
G1 X114.301 Y127.21 E.01314
G1 X114.301 Y75.861 E1.61004
G1 X113.882 Y75.861 E.01314
G1 X113.882 Y127.21 E1.61004
G1 X113.463 Y127.21 E.01314
G1 X113.463 Y75.861 E1.61004
G1 X113.044 Y75.861 E.01314
G1 X113.044 Y127.21 E1.61004
G1 X112.625 Y127.21 E.01314
G1 X112.625 Y75.861 E1.61004
G1 X112.206 Y75.861 E.01314
G1 X112.206 Y127.21 E1.61004
G1 X111.787 Y127.21 E.01314
G1 X111.787 Y75.861 E1.61004
G1 X111.368 Y75.861 E.01314
G1 X111.368 Y127.21 E1.61004
G1 X110.949 Y127.21 E.01314
G1 X110.949 Y75.861 E1.61004
G1 X110.53 Y75.861 E.01314
G1 X110.53 Y127.21 E1.61004
G1 X110.111 Y127.21 E.01314
G1 X110.111 Y75.861 E1.61004
G1 X109.692 Y75.861 E.01314
G1 X109.692 Y127.21 E1.61004
G1 X109.273 Y127.21 E.01314
G1 X109.273 Y75.861 E1.61004
G1 X108.854 Y75.861 E.01314
G1 X108.854 Y127.21 E1.61004
G1 X108.435 Y127.21 E.01314
G1 X108.435 Y75.861 E1.61004
G1 X108.016 Y75.861 E.01314
M73 Q1 S283
G1 X108.016 Y127.21 E1.61004
G1 X107.597 Y127.21 E.01314
G1 X107.597 Y75.861 E1.61004
G1 X107.178 Y75.861 E.01314
G1 X107.178 Y127.21 E1.61004
G1 X106.759 Y127.21 E.01314
G1 X106.759 Y75.861 E1.61004
G1 X106.34 Y75.861 E.01314
G1 X106.34 Y127.21 E1.61004
G1 X105.921 Y127.21 E.01314
G1 X105.921 Y75.861 E1.61004
G1 X105.502 Y75.861 E.01314
G1 X105.502 Y127.21 E1.61004
G1 X105.083 Y127.21 E.01314
M73 P1 R280
G1 X105.083 Y75.861 E1.61004
G1 X104.664 Y75.861 E.01314
G1 X104.664 Y127.21 E1.61004
G1 X104.245 Y127.21 E.01314
G1 X104.245 Y75.861 E1.61004
G1 X103.826 Y75.861 E.01314
G1 X103.826 Y127.21 E1.61004
G1 X103.407 Y127.21 E.01314
G1 X103.407 Y75.861 E1.61004
G1 X102.988 Y75.861 E.01314
G1 X102.988 Y127.21 E1.61004
G1 X102.569 Y127.21 E.01314
G1 X102.569 Y75.861 E1.61004
G1 X102.15 Y75.861 E.01314
G1 X102.15 Y127.21 E1.61004
G1 X101.731 Y127.21 E.01314
M73 P2 R280
G1 X101.731 Y75.861 E1.61004
G1 X101.312 Y75.861 E.01314
G1 X101.312 Y127.21 E1.61004
G1 X100.893 Y127.21 E.01314
M73 Q2 S283
G1 X100.893 Y75.861 E1.61004
G1 X100.474 Y75.861 E.01314
G1 X100.474 Y127.21 E1.61004
