; generated by PrusaSlicer 2.5.0+MacOS-x64 on 2023-03-24 at 02:45:28 UTC


;
;

;
;
; 

; external perimeters extrusion width = 0.45mm
; perimeters extrusion width = 0.45mm
; infill extrusion width = 0.45mm
; solid infill extrusion width = 0.45mm
; top infill extrusion width = 0.40mm
; support material extrusion width = 0.35mm
; first layer extrusion width = 0.42mm

M73 P0 R215
M201 X2500 Y2500 Z400 E5000 ; sets maximum accelerations, mm/sec^2
M203 X180 Y180 Z12 E80 ; sets maximum feedrates, mm / sec
M204 P1250 R1250 T2500 ; sets acceleration (P, T) and retract acceleration (R), mm/sec^2
M205 X8.00 Y8.00 Z2.00 E10.00 ; sets the jerk limits, mm/sec
M205 S0 T0 ; sets the minimum extruding and travel feed rate, mm/sec
M107
;TYPE:Custom
M862.3 P "MINI" ; printer model check
G90 ; use absolute coordinates
M83 ; extruder relative mode
M104 S170 ; set extruder temp for bed leveling
M140 S60 ; set bed temp
M109 R170 ; wait for bed leveling temp
M190 S60 ; wait for bed temp
M204 T1250 ; set travel acceleration
G28 ; home all without mesh bed level
G29 ; mesh bed leveling 
M204 T2500 ; restore travel acceleration
M104 S215 ; set extruder temp
G92 E0
G1 Y-2 X179 F2400
G1 Z3 F720
M109 S215 ; wait for extruder temp

; intro line
G1 X170 F1000
G1 Z0.2 F720
G1 X110 E8 F900
G1 X40 E10 F700
G92 E0

M221 S95 ; set flow
G21 ; set units to millimeters
G90 ; use absolute coordinates
M83 ; use relative distances for extrusion
M900 K0.2 ; Filament gcode LA 1.5
; ; Filament gcode LA 1.0
M107
;LAYER_CHANGE
;Z:0.2
;HEIGHT:0.2
;BEFORE_LAYER_CHANGE
G92 E0.0
;0.2


G1 E-3.2 F4200
G1 Z.2 F720
;AFTER_LAYER_CHANGE
;0.2
G1 Z.4
G1 X50.413 Y50.413 F9000
G1 Z.2 F720
G1 E3.2 F2400
M204 P800
;TYPE:Skirt/Brim
;WIDTH:0.42
G1 F1200
G1 X51.907 Y48.919 E.06624
G1 X53.588 Y48.223 E.05704
G1 X82.412 Y48.223 E.90379
G1 X83.58 Y48.529 E.03784
G1 X127.58 Y73.333 E1.5837
G1 X128.093 Y73.723 E.02022
G1 X131.081 Y76.711 E.13247
G1 X131.777 Y78.391 E.05704
G1 X131.777 Y126.357 E1.50394
G1 X131.081 Y128.038 E.05704
G1 X128.093 Y131.026 E.13247
G1 X126.415 Y131.722 E.05696
G1 X53.588 Y131.777 E2.28347
G1 X51.907 Y131.081 E.05704
G1 X48.919 Y128.093 E.13247
G1 X48.223 Y126.412 E.05704
G1 X48.223 Y53.588 E2.28338
G1 X48.919 Y51.907 E.05704
G1 X50.37 Y50.455 E.06435
M204 P1000
G1 E-2.24 F4200
;WIPE_START
G1 F7200
G1 X51.534 Y49.292 E-.912
;WIPE_END
G1 E-.048 F4200
G1 Z.4 F720
G1 X52.253 Y52.384 F9000
G1 Z.2 F720
G1 E3.2 F2400
M204 P800
G1 F1200
G1 X52.825 Y51.825 E.02509
G1 X53.939 Y51.21 E.03989
G1 X55.282 Y50.886 E.04333
G1 X80.69 Y50.89 E.79663
G1 X81.71 Y51.084 E.03256
G1 X82.688 Y51.5 E.03332
G1 X83.812 Y52.395 E.04505
G1 X84.652 Y53.617 E.04649
G1 X85.085 Y55.072 E.0476
G1 X85.113 Y75.69 E.64647
G1 X124.765 Y75.69 E1.24325
G1 X126.897 Y76.421 E.07066
G1 X127.647 Y77.04 E.0305
G1 X128.438 Y78.009 E.03921
G1 X128.797 Y78.774 E.0265
G1 X129.113 Y80.085 E.04229
G1 X129.113 Y124.71 E1.39918
G1 X128.383 Y126.841 E.07066
G1 X127.764 Y127.592 E.0305
G1 X126.795 Y128.383 E.03921
G1 X126.03 Y128.742 E.0265
G1 X124.719 Y129.058 E.04229
G1 X81.034 Y129.058 E1.36971
G1 X80.651 Y129.113 E.01213
G1 X55.235 Y129.113 E.79689
G1 X53.103 Y128.383 E.07066
G1 X52.353 Y127.764 E.0305
G1 X51.562 Y126.795 E.03921
G1 X51.203 Y126.03 E.0265
G1 X50.887 Y124.719 E.04229
G1 X50.887 Y55.342 E2.17525
G1 X51.206 Y53.943 E.04501
G1 X51.885 Y52.743 E.04323
G1 X52.21 Y52.426 E.01422
M204 P1000
G1 X52.473 Y52.693 F9000
M204 P800
G1 F1200
G1 X53.032 Y52.141 E.02463
G1 X54.054 Y51.57 E.03671
G1 X55.305 Y51.264 E.04039
G1 X80.671 Y51.267 E.79533
G1 X81.617 Y51.45 E.03022
G1 X82.515 Y51.836 E.03062
G1 X83.553 Y52.671 E.04177
G1 X84.323 Y53.803 E.04295
G1 X84.716 Y55.151 E.04402
G1 X84.736 Y76.067 E.65581
G1 X124.734 Y76.067 E1.25409
G1 X126.684 Y76.735 E.06464
M73 P0 R214
G1 X127.368 Y77.295 E.02773
G1 X128.108 Y78.192 E.03646
G1 X128.436 Y78.883 E.02398
G1 X128.736 Y80.108 E.03955
G1 X128.736 Y124.679 E1.39748
G1 X128.069 Y126.629 E.06464
G1 X127.509 Y127.313 E.02773
G1 X126.612 Y128.053 E.03646
G1 X125.921 Y128.381 E.02398
G1 X124.696 Y128.681 E.03955
G1 X81.005 Y128.681 E1.36988
G1 X80.637 Y128.736 E.0117
G1 X55.266 Y128.736 E.79546
G1 X53.316 Y128.069 E.06464
G1 X52.632 Y127.509 E.02773
G1 X51.892 Y126.612 E.03646
G1 X51.564 Y125.921 E.02398
G1 X51.264 Y124.696 E.03955
G1 X51.264 Y55.363 E2.17388
G1 X51.549 Y54.102 E.04053
G1 X52.169 Y52.992 E.03989
G1 X52.43 Y52.735 E.01147
M204 P1000
G1 X52.695 Y53.001 F9000
M204 P800
G1 F1200
G1 X53.241 Y52.456 E.02418
G1 X54.171 Y51.929 E.03352
G1 X55.329 Y51.641 E.03741
G1 X80.652 Y51.644 E.79401
G1 X81.524 Y51.816 E.02785
G1 X82.34 Y52.171 E.0279
G1 X83.293 Y52.945 E.03848
G1 X83.993 Y53.988 E.03939
G1 X84.346 Y55.229 E.04045
G1 X84.359 Y76.445 E.6652
G1 X124.703 Y76.445 E1.26493
G1 X126.473 Y77.049 E.05865
G1 X127.091 Y77.551 E.02497
G1 X127.779 Y78.377 E.03371
G1 X128.075 Y78.994 E.02145
G1 X128.359 Y80.132 E.03677
G1 X128.359 Y124.648 E1.39577
G1 X127.755 Y126.418 E.05865
G1 X127.253 Y127.036 E.02497
G1 X126.427 Y127.724 E.03371
G1 X125.81 Y128.02 E.02145
G1 X124.672 Y128.304 E.03677
G1 X80.976 Y128.304 E1.37007
G1 X80.621 Y128.359 E.01124
G1 X55.297 Y128.359 E.79402
G1 X53.527 Y127.755 E.05865
G1 X52.909 Y127.253 E.02497
G1 X52.221 Y126.427 E.03371
G1 X51.925 Y125.81 E.02145
G1 X51.641 Y124.672 E.03677
G1 X51.641 Y55.384 E2.1725
G1 X51.892 Y54.26 E.0361
G1 X52.455 Y53.239 E.03656
G1 X52.652 Y53.043 E.00872
M204 P1000
G1 X52.913 Y53.308 F9000
M204 P800
G1 F1200
G1 X53.487 Y52.743 E.02527
G1 X54.289 Y52.288 E.02889
G1 X55.353 Y52.018 E.03442
G1 X80.633 Y52.021 E.79266
G1 X81.429 Y52.181 E.02544
G1 X82.164 Y52.505 E.02518
G1 X83.031 Y53.217 E.03518
G1 X83.661 Y54.17 E.03583
G1 X83.976 Y55.304 E.0369
G1 X83.982 Y76.822 E.67466
G1 X124.672 Y76.822 E1.27578
G1 X126.262 Y77.363 E.05269
G1 X126.815 Y77.808 E.02223
G1 X127.45 Y78.564 E.03097
G1 X127.715 Y79.106 E.01892
G1 X127.982 Y80.156 E.03395
G1 X127.982 Y124.617 E1.39404
G1 X127.441 Y126.207 E.05269
G1 X126.996 Y126.76 E.02223
G1 X126.24 Y127.395 E.03097
G1 X125.697 Y127.66 E.01892
G1 X124.648 Y127.927 E.03395
G1 X80.945 Y127.927 E1.37029
G1 X80.606 Y127.982 E.01077
G1 X55.328 Y127.982 E.79255
G1 X53.738 Y127.441 E.05269
G1 X53.185 Y126.996 E.02223
G1 X52.55 Y126.24 E.03097
G1 X52.285 Y125.697 E.01892
G1 X52.018 Y124.648 E.03395
G1 X52.018 Y55.405 E2.17107
G1 X52.253 Y54.371 E.03325
G1 X52.77 Y53.448 E.03319
G1 X52.87 Y53.35 E.00437
M204 P1000
G1 X53.135 Y53.617 F9000
M204 P800
G1 F1200
G1 X53.698 Y53.056 E.02489
G1 X54.409 Y52.646 E.02575
G1 X55.377 Y52.395 E.03135
G1 X80.615 Y52.398 E.79131
G1 X81.296 Y52.535 E.02178
G1 X81.987 Y52.839 E.02369
G1 X82.767 Y53.488 E.03181
G1 X83.329 Y54.35 E.03225
G1 X83.605 Y55.378 E.03337
G1 X83.605 Y77.199 E.68419
G1 X124.641 Y77.199 E1.28664
G1 X126.053 Y77.679 E.04678
G1 X126.54 Y78.067 E.01952
G1 X127.123 Y78.753 E.02823
G1 X127.355 Y79.221 E.01639
G1 X127.605 Y80.18 E.03107
G1 X127.605 Y124.586 E1.3923
G1 X127.125 Y125.998 E.04678
G1 X126.737 Y126.485 E.01952
G1 X126.051 Y127.068 E.02823
G1 X125.583 Y127.3 E.01639
G1 X124.624 Y127.55 E.03107
G1 X80.912 Y127.55 E1.37054
G1 X80.589 Y127.605 E.01028
G1 X55.359 Y127.605 E.79106
G1 X53.947 Y127.125 E.04678
G1 X53.46 Y126.737 E.01952
G1 X52.877 Y126.051 E.02823
G1 X52.645 Y125.583 E.01639
G1 X52.395 Y124.624 E.03107
G1 X52.395 Y55.426 E2.16965
G1 X52.597 Y54.529 E.02882
G1 X53.056 Y53.695 E.02986
G1 X53.093 Y53.659 E.00161
M204 P1000
G1 X53.36 Y53.924 F9000
M204 P800
G1 F1200
G1 X53.911 Y53.368 E.02453
G1 X54.532 Y53.004 E.02259
G1 X55.402 Y52.772 E.02823
G1 X80.595 Y52.776 E.7899
G1 X81.199 Y52.9 E.01932
G1 X81.808 Y53.172 E.02093
G1 X82.501 Y53.757 E.02843
G1 X82.995 Y54.528 E.0287
G1 X83.228 Y55.402 E.02837
G1 X83.228 Y77.576 E.69524
G1 X124.61 Y77.576 E1.2975
G1 X125.846 Y77.995 E.04091
G1 X126.267 Y78.327 E.01682
M73 P0 R213
G1 X126.798 Y78.944 E.02551
G1 X126.996 Y79.339 E.01386
G1 X127.228 Y80.205 E.02814
G1 X127.228 Y124.555 E1.39055
G1 X126.809 Y125.791 E.04091
G1 X126.477 Y126.212 E.01682
G1 X125.86 Y126.743 E.02551
G1 X125.465 Y126.941 E.01386
G1 X124.598 Y127.173 E.02814
G1 X80.878 Y127.173 E1.37083
G1 X80.571 Y127.228 E.00976
G1 X55.39 Y127.228 E.78954
G1 X54.154 Y126.809 E.04091
G1 X53.733 Y126.477 E.01682
G1 X53.202 Y125.86 E.02551
G1 X53.004 Y125.465 E.01386
G1 X52.772 Y124.598 E.02814
G1 X52.772 Y55.446 E2.16822
G1 X52.941 Y54.685 E.02447
G1 X53.326 Y53.973 E.02537
M204 P1000
G1 X53.656 Y54.155 F9000
M204 P800
G1 F1200
G1 X54.159 Y53.653 E.02227
G1 X54.657 Y53.36 E.01811
G1 X55.428 Y53.149 E.02508
G1 X80.575 Y53.153 E.78845
G1 X81.099 Y53.264 E.01681
G1 X81.627 Y53.504 E.01817
G1 X82.234 Y54.025 E.0251
G1 X82.639 Y54.656 E.02351
G1 X82.851 Y55.428 E.0251
G1 X82.851 Y77.953 E.70625
G1 X124.579 Y77.953 E1.30836
G1 X125.639 Y78.312 E.0351
G1 X125.995 Y78.589 E.01416
G1 X126.473 Y79.137 E.0228
G1 X126.638 Y79.459 E.01132
G1 X126.851 Y80.232 E.02513
G1 X126.851 Y124.524 E1.38876
G1 X126.492 Y125.584 E.0351
G1 X126.214 Y125.94 E.01416
G1 X125.666 Y126.418 E.0228
G1 X125.345 Y126.583 E.01132
G1 X124.572 Y126.796 E.02513
G1 X80.841 Y126.796 E1.37117
G1 X80.553 Y126.851 E.00921
M73 P1 R213
G1 X55.421 Y126.851 E.78799
G1 X54.361 Y126.492 E.0351
G1 X54.005 Y126.214 E.01416
G1 X53.527 Y125.666 E.0228
G1 X53.362 Y125.345 E.01132
G1 X53.149 Y124.572 E.02513
G1 X53.149 Y55.468 E2.16672
G1 X53.303 Y54.795 E.02163
G1 X53.627 Y54.207 E.02106
M204 P1000
G1 X53.948 Y54.393 F9000
M204 P800
G1 F1200
G1 X54.375 Y53.963 E.019
G1 X54.785 Y53.716 E.01503
G1 X55.455 Y53.526 E.02182
G1 X80.553 Y53.53 E.78694
G1 X80.997 Y53.627 E.01423
G1 X81.443 Y53.834 E.01541
G1 X81.966 Y54.291 E.02178
G1 X82.285 Y54.786 E.01847
G1 X82.474 Y55.455 E.02179
G1 X82.474 Y78.33 E.71723
G1 X124.548 Y78.33 E1.31921
G1 X125.435 Y78.63 E.02934
G1 X125.726 Y78.854 E.01151
G1 X126.151 Y79.334 E.02012
G1 X126.282 Y79.582 E.00878
G1 X126.474 Y80.259 E.02204
G1 X126.474 Y124.493 E1.38695
G1 X126.174 Y125.38 E.02934
G1 X125.95 Y125.671 E.01151
G1 X125.47 Y126.096 E.02012
G1 X125.222 Y126.227 E.00878
G1 X124.545 Y126.419 E.02204
G1 X80.802 Y126.419 E1.37155
G1 X80.532 Y126.474 E.00862
G1 X55.452 Y126.474 E.78639
G1 X54.565 Y126.174 E.02934
G1 X54.274 Y125.95 E.01151
G1 X53.849 Y125.47 E.02012
G1 X53.718 Y125.222 E.00878
G1 X53.526 Y124.545 E.02204
G1 X53.526 Y55.489 E2.16523
G1 X53.647 Y54.95 E.0173
G1 X53.919 Y54.446 E.01798
M204 P1000
G1 X54.238 Y54.635 F9000
M204 P800
G1 F1200
G1 X54.594 Y54.27 E.016
G1 X54.918 Y54.069 E.01195
G1 X55.483 Y53.903 E.01846
G1 X80.531 Y53.907 E.78536
G1 X80.891 Y53.99 E.01157
G1 X81.256 Y54.162 E.01266
G1 X81.696 Y54.554 E.01848
G1 X81.931 Y54.92 E.01362
G1 X82.097 Y55.483 E.01841
G1 X82.097 Y78.707 E.72818
G1 X124.517 Y78.707 E1.33007
G1 X125.232 Y78.949 E.02367
G1 X125.459 Y79.12 E.00889
G1 X125.831 Y79.535 E.01749
G1 X125.926 Y79.71 E.00624
G1 X126.097 Y80.287 E.01885
G1 X126.097 Y124.462 E1.3851
G1 X125.855 Y125.177 E.02367
G1 X125.684 Y125.404 E.00889
G1 X125.269 Y125.776 E.01749
G1 X125.094 Y125.871 E.00624
G1 X124.517 Y126.042 E.01885
G1 X80.759 Y126.042 E1.37201
G1 X80.51 Y126.097 E.00799
G1 X55.483 Y126.097 E.78472
G1 X54.768 Y125.855 E.02367
G1 X54.541 Y125.684 E.00889
G1 X54.169 Y125.269 E.01749
G1 X54.074 Y125.094 E.00624
G1 X53.903 Y124.517 E.01885
G1 X53.903 Y55.509 E2.16371
G1 X53.993 Y55.102 E.01307
G1 X54.21 Y54.688 E.01464
M204 P1000
G1 X54.53 Y54.874 F9000
M204 P800
G1 F1200
G1 X54.819 Y54.574 E.01306
G1 X55.057 Y54.421 E.00886
G1 X55.512 Y54.28 E.01496
G1 X80.509 Y54.284 E.78376
G1 X80.747 Y54.339 E.00767
G1 X81.068 Y54.491 E.01111
G1 X81.423 Y54.815 E.01508
G1 X81.579 Y55.057 E.00902
G1 X81.72 Y55.512 E.01495
G1 X81.72 Y79.084 E.73907
G1 X124.486 Y79.084 E1.34091
G1 X125.033 Y79.27 E.0181
G1 X125.194 Y79.389 E.00628
G1 X125.515 Y79.741 E.01495
G1 X125.573 Y79.844 E.0037
G1 X125.72 Y80.316 E.0155
G1 X125.72 Y124.431 E1.38319
G1 X125.534 Y124.978 E.0181
M73 P1 R212
G1 X125.415 Y125.139 E.00628
G1 X125.062 Y125.46 E.01495
G1 X124.96 Y125.518 E.0037
G1 X124.488 Y125.665 E.0155
G1 X80.712 Y125.665 E1.37256
G1 X80.486 Y125.72 E.00729
G1 X55.514 Y125.72 E.78298
G1 X54.967 Y125.534 E.0181
G1 X54.806 Y125.415 E.00628
G1 X54.485 Y125.062 E.01495
G1 X54.427 Y124.96 E.0037
G1 X54.28 Y124.488 E.0155
G1 X54.28 Y55.529 E2.16216
G1 X54.341 Y55.249 E.00898
G1 X54.503 Y54.928 E.01128
M204 P1000
G1 X54.84 Y55.098 F9000
M204 P800
G1 F1200
G1 X55.071 Y54.855 E.01051
G1 X55.2 Y54.77 E.00484
G1 X55.544 Y54.657 E.01136
G1 X80.487 Y54.661 E.78207
G1 X80.604 Y54.688 E.00377
G1 X80.878 Y54.818 E.0095
G1 X81.147 Y55.073 E.0116
G1 X81.23 Y55.2 E.00476
G1 X81.343 Y55.544 E.01136
G1 X81.343 Y79.461 E.7499
G1 X124.454 Y79.461 E1.35174
G1 X124.837 Y79.593 E.01267
G1 X124.932 Y79.661 E.00367
G1 X125.224 Y79.987 E.01371
G1 X125.343 Y80.348 E.01193
G1 X125.343 Y124.399 E1.3812
G1 X125.211 Y124.782 E.01267
G1 X125.143 Y124.877 E.00367
G1 X124.817 Y125.169 E.01371
G1 X124.456 Y125.288 E.01193
G1 X80.658 Y125.288 E1.37325
G1 X80.458 Y125.343 E.00652
G1 X55.546 Y125.343 E.7811
G1 X55.163 Y125.211 E.01267
G1 X55.068 Y125.143 E.00367
G1 X54.776 Y124.817 E.01371
G1 X54.657 Y124.456 E.01193
G1 X54.657 Y55.547 E2.16057
G1 X54.689 Y55.396 E.00484
G1 X54.813 Y55.152 E.0086
M204 P1000
G1 X55.144 Y55.315 F9000
M204 P800
G1 F1200
G1 X55.352 Y55.116 E.00902
G1 X55.579 Y55.034 E.00757
G1 X80.435 Y55.034 E.77934
G1 X80.685 Y55.144 E.00856
G1 X80.884 Y55.352 E.00902
G1 X80.966 Y55.579 E.00757
G1 X80.966 Y79.838 E.76063
G1 X124.421 Y79.838 E1.36251
G1 X124.672 Y79.936 E.00845
G1 X124.889 Y80.17 E.01002
G1 X124.966 Y80.383 E.00709
G1 X124.966 Y124.366 E1.37905
G1 X124.868 Y124.617 E.00845
G1 X124.634 Y124.834 E.01002
G1 X124.421 Y124.911 E.00709
G1 X80.595 Y124.911 E1.37414
G1 X80.424 Y124.966 E.00562
G1 X55.579 Y124.966 E.77899
G1 X55.328 Y124.868 E.00845
G1 X55.111 Y124.634 E.01002
G1 X55.034 Y124.421 E.00709
G1 X55.034 Y55.565 E2.15893
G1 X55.118 Y55.369 E.00668
M204 P1000
G1 X55.44 Y55.552 F9000
M204 P800
G1 F1200
G1 X55.552 Y55.44 E.00495
G1 X55.621 Y55.411 E.00235
G1 X80.379 Y55.411 E.77626
G1 X80.448 Y55.44 E.00235
G1 X80.56 Y55.552 E.00495
G1 X80.589 Y55.621 E.00235
G1 X80.589 Y80.215 E.77114
G1 X124.379 Y80.215 E1.37302
G1 X124.448 Y80.244 E.00235
G1 X124.56 Y80.356 E.00495
G1 X124.589 Y80.425 E.00235
G1 X124.589 Y124.324 E1.37642
G1 X124.56 Y124.393 E.00235
G1 X124.448 Y124.505 E.00495
G1 X124.379 Y124.534 E.00235
G1 X80.512 Y124.534 E1.37542
G1 X80.379 Y124.589 E.00451
G1 X55.621 Y124.589 E.77626
G1 X55.552 Y124.56 E.00235
G1 X55.44 Y124.448 E.00495
G1 X55.411 Y124.379 E.00235
G1 X55.417 Y55.607 E2.15629
M204 P1000
; printing object MotorBearing v11.stl id:0 copy 0
G1 E-2.24 F4200
;WIPE_START
G1 F7200
G1 X55.552 Y55.44 E-.11888
G1 X55.621 Y55.411 E-.04156
G1 X56.977 Y55.411 E-.75156
;WIPE_END
G1 E-.048 F4200
G1 Z.4 F720
G1 X80.201 Y81.073 F9000
G1 Z.2 F720
G1 E3.2 F2400
M204 P800
;TYPE:Perimeter
;WIDTH:0.419999
G1 F1200
G1 X80.279 Y81.091 E.00251
G1 X123.713 Y81.091 E1.36185
G1 X123.713 Y123.658 E1.33465
G1 X80.688 Y123.658 E1.34903
G1 X80.255 Y123.658 E.01357
G1 X80.147 Y123.713 E.0038
G1 X56.287 Y123.713 E.74809
G1 X56.287 Y56.287 E2.11409
G1 X79.713 Y56.287 E.7345
M73 P1 R211
G1 X79.723 Y80.63 E.76326
G1 X79.831 Y80.871 E.00828
G1 X80.035 Y81.036 E.00824
G1 X80.142 Y81.06 E.00343
M204 P1000
G1 X80.279 Y80.714 F9000
M204 P800
;TYPE:External perimeter
G1 F1200
G1 X124.09 Y80.714 E1.37368
G1 X124.09 Y124.035 E1.3583
G1 X80.279 Y124.035 E1.37368
G1 X80.203 Y124.09 E.00292
G1 X55.91 Y124.09 E.7617
G1 X55.91 Y55.91 E2.13773
G1 X80.09 Y55.91 E.75815
G1 X80.09 Y80.525 E.7718
G1 X80.143 Y80.656 E.00443
G1 X80.223 Y80.69 E.00274
M204 P1000
G1 X80.382 Y81.1 F9000
G1 E-2.24 F4200
;WIPE_START
G1 F7200
G1 X81.869 Y80.691 E-.912
;WIPE_END
G1 E-.048 F4200
G1 Z.4 F720
G1 X61.644 Y86.44 F9000
G1 Z.2 F720
G1 E3.2 F2400
M204 P800
;TYPE:Perimeter
G1 F1200
G1 X62.207 Y85.581 E.03219
G1 X62.913 Y84.783 E.0334
G1 X63.727 Y84.098 E.03335
G1 X64.632 Y83.539 E.03335
G1 X65.608 Y83.117 E.03335
G1 X66.636 Y82.843 E.03335
G1 X67.754 Y82.719 E.03527
G1 X68.754 Y82.753 E.03138
G1 X69.803 Y82.94 E.0334
G1 X70.812 Y83.278 E.03335
G1 X71.76 Y83.759 E.03335
