; generated by PrusaSlicer 2.5.0+MacOS-x64 on 2023-03-26 at 15:19:40 UTC


;
;
; 

; external perimeters extrusion width = 0.65mm
; perimeters extrusion width = 0.65mm
; infill extrusion width = 0.65mm
; solid infill extrusion width = 0.65mm
; top infill extrusion width = 0.60mm
; support material extrusion width = 0.55mm
; first layer extrusion width = 0.65mm

M73 P0 R145
M73 Q0 S147
M201 X1000 Y1000 Z200 E5000 ; sets maximum accelerations, mm/sec^2
M203 X200 Y200 Z12 E120 ; sets maximum feedrates, mm / sec
M204 P1250 R1250 T1250 ; sets acceleration (P, T) and retract acceleration (R), mm/sec^2
M205 X8.00 Y8.00 Z0.40 E4.50 ; sets the jerk limits, mm/sec
M205 S0 T0 ; sets the minimum extruding and travel feed rate, mm/sec
M107
;TYPE:Custom
M862.3 P "MK3" ; printer model check
M862.1 P0.6 ; nozzle diameter check
M115 U3.11.0 ; tell printer latest fw version
G90 ; use absolute coordinates
M83 ; extruder relative mode
M104 S215 ; set extruder temp
M140 S60 ; set bed temp
M190 S60 ; wait for bed temp
M109 S215 ; wait for extruder temp
G28 W ; home all without mesh bed level
G80 ; mesh bed leveling

G1 Z0.2 F720
G1 Y-3 F1000 ; go outside print area
G92 E0
G1 X60 E9 F1000 ; intro line
G1 X100 E12.5 F1000 ; intro line

G92 E0
M221 S95
G21 ; set units to millimeters
G90 ; use absolute coordinates
M83 ; use relative distances for extrusion
M900 K0.04 ; Filament gcode LA 1.5
M900 K18 ; Filament gcode LA 1.0
M107
;LAYER_CHANGE
;Z:0.2
;HEIGHT:0.2
;BEFORE_LAYER_CHANGE
G92 E0.0
;0.2


G1 E-.8 F2100
G1 Z.4 F720
;AFTER_LAYER_CHANGE
;0.2
G1 X98.257 Y49.244 F10800
G1 Z.2 F720
G1 E.8 F1500
M204 S800
;TYPE:Skirt/Brim
;WIDTH:0.65
G1 F1200
G1 X101.244 Y46.257 E.21327
G1 X103.088 Y45.493 E.10072
G1 X126.912 Y45.493 E1.20266
G1 X128.756 Y46.257 E.10072
G1 X131.743 Y49.244 E.21327
G1 X132.373 Y50.263 E.06047
G1 X152.373 Y110.263 E3.19256
G1 X152.507 Y111.088 E.04216
G1 X152.507 Y158.912 E2.41415
G1 X151.743 Y160.756 E.10072
G1 X148.756 Y163.743 E.21327
G1 X146.912 Y164.507 E.10072
G1 X117.088 Y164.507 E1.50553
G1 X115.244 Y163.743 E.10072
G1 X112.257 Y160.756 E.21327
G1 X111.557 Y159.487 E.07316
G1 X97.557 Y97.487 E3.20849
G1 X97.493 Y96.912 E.02917
G1 X97.493 Y51.088 E2.31319
G1 X98.222 Y49.327 E.09618
M204 S1000
;WIPE_START
G1 F8640
G1 X100.531 Y46.981 E-.76
;WIPE_END
G1 E-.04 F2100
G1 Z.6 F720
G1 X101.042 Y51.07 F10800
G1 Z.2 F720
G1 E.8 F1500
M204 S800
G1 F1200
G1 X101.685 Y50.132 E.05742
G1 X102.533 Y49.361 E.05786
G1 X103.097 Y49.029 E.033
G1 X103.722 Y48.767 E.03423
G1 X104.71 Y48.559 E.05095
G1 X125.242 Y48.553 E1.03647
G1 X126.149 Y48.728 E.04659
G1 X127.047 Y49.103 E.04911
G1 X127.719 Y49.559 E.04103
G1 X128.349 Y50.168 E.04424
G1 X128.988 Y51.129 E.05826
G1 X129.307 Y51.97 E.0454
G1 X129.453 Y52.832 E.04413
G1 X129.453 Y108.549 E2.81249
G1 X145.508 Y108.582 E.81043
G1 X146.194 Y108.741 E.03553
G1 X146.887 Y109.019 E.03773
G1 X147.828 Y109.648 E.05713
G1 X148.399 Y110.229 E.04109
G1 X148.855 Y110.877 E.04002
G1 X149.203 Y111.646 E.04259
G1 X149.402 Y112.378 E.03828
G1 X149.453 Y157.17 E2.26107
G1 X149.226 Y158.297 E.05805
G1 X148.856 Y159.117 E.0454
G1 X148.35 Y159.831 E.04417
G1 X147.771 Y160.399 E.04092
G1 X147.123 Y160.855 E.04002
G1 X146.354 Y161.203 E.04259
G1 X145.623 Y161.402 E.03828
G1 X118.828 Y161.453 E1.35255
G1 X117.727 Y161.232 E.05669
G1 X116.707 Y160.755 E.05688
G1 X116.155 Y160.336 E.03495
G1 X115.664 Y159.845 E.03507
G1 X115.245 Y159.293 E.03495
G1 X114.768 Y158.273 E.05687
G1 X114.547 Y157.173 E.05661
G1 X114.547 Y99.449 E2.91388
G1 X104.53 Y99.422 E.50562
M73 P0 R144
G1 X103.772 Y99.247 E.03929
G1 X102.933 Y98.885 E.04614
G1 X102.254 Y98.42 E.04153
G1 X101.66 Y97.84 E.04188
G1 X101.134 Y97.103 E.04572
G1 X100.792 Y96.343 E.04207
G1 X100.597 Y95.621 E.03776
G1 X100.547 Y52.834 E2.15981
G1 X100.708 Y51.916 E.04705
G1 X101.009 Y51.154 E.04139
M204 S1000
G1 X101.566 Y51.379 F10800
M204 S800
G1 F1200
G1 X102.123 Y50.553 E.05031
G1 X102.87 Y49.867 E.05117
G1 X103.386 Y49.563 E.03024
G1 X103.926 Y49.339 E.02953
G1 X104.801 Y49.16 E.04507
G1 X125.212 Y49.16 E1.03031
G1 X125.997 Y49.317 E.04046
G1 X126.78 Y49.649 E.04289
G1 X127.353 Y50.043 E.03511
G1 X127.901 Y50.58 E.03876
G1 X128.434 Y51.38 E.04852
G1 X128.714 Y52.106 E.03928
G1 X128.846 Y52.859 E.03862
G1 X128.846 Y109.155 E2.84173
G1 X145.405 Y109.182 E.83587
M73 Q0 S146
G1 X146.033 Y109.327 E.03253
G1 X146.629 Y109.57 E.03251
G1 X147.419 Y110.097 E.04795
G1 X147.92 Y110.603 E.03594
G1 X148.315 Y111.155 E.03427
G1 X148.64 Y111.872 E.03974
G1 X148.805 Y112.495 E.03251
G1 X148.846 Y157.14 E2.25366
G1 X148.657 Y158.083 E.04851
G1 X148.342 Y158.794 E.03929
G1 X147.902 Y159.42 E.03858
G1 X147.397 Y159.92 E.03591
G1 X146.845 Y160.315 E.03427
G1 X146.127 Y160.64 E.03974
G1 X145.505 Y160.805 E.03251
G1 X118.859 Y160.846 E1.34506
G1 X117.886 Y160.645 E.05017
G1 X117.047 Y160.251 E.04681
G1 X116.569 Y159.891 E.03017
G1 X116.109 Y159.431 E.03287
G1 X115.749 Y158.953 E.03017
G1 X115.355 Y158.114 E.04681
G1 X115.154 Y157.142 E.05012
G1 X115.154 Y98.843 E2.94284
G1 X104.569 Y98.815 E.53431
G1 X103.941 Y98.664 E.03264
G1 X103.251 Y98.367 E.03788
G1 X102.62 Y97.935 E.03863
G1 X102.105 Y97.427 E.0365
G1 X101.675 Y96.826 E.03729
G1 X101.356 Y96.117 E.03924
G1 X101.194 Y95.504 E.03202
G1 X101.154 Y52.86 E2.15263
G1 X101.286 Y52.106 E.03865
G1 X101.534 Y51.463 E.03476
M204 S1000
G1 X102.098 Y51.685 F10800
M204 S800
G1 F1200
G1 X102.563 Y50.973 E.04295
G1 X103.21 Y50.371 E.04458
G1 X103.639 Y50.115 E.02524
G1 X104.13 Y49.912 E.02683
G1 X104.889 Y49.761 E.03905
G1 X125.179 Y49.767 E1.02422
G1 X125.842 Y49.904 E.03416
G1 X126.508 Y50.193 E.03666
G1 X126.982 Y50.524 E.02917
G1 X127.452 Y50.989 E.03339
G1 X127.882 Y51.633 E.03907
G1 X128.123 Y52.245 E.0332
G1 X128.239 Y52.887 E.03296
G1 X128.239 Y109.761 E2.87093
G1 X145.302 Y109.781 E.86131
G1 X145.871 Y109.912 E.02948
G1 X146.369 Y110.119 E.0272
G1 X147.012 Y110.548 E.03903
G1 X147.445 Y110.981 E.03092
G1 X147.775 Y111.435 E.02835
G1 X148.076 Y112.098 E.03674
G1 X148.208 Y112.609 E.02664
G1 X148.239 Y157.111 E2.2464
G1 X148.087 Y157.871 E.03913
G1 X147.825 Y158.474 E.0332
G1 X147.453 Y159.011 E.03296
G1 X147.019 Y159.445 E.03098
G1 X146.565 Y159.775 E.02835
G1 X145.902 Y160.076 E.03674
G1 X145.391 Y160.208 E.02664
G1 X118.889 Y160.239 E1.33778
G1 X118.107 Y160.079 E.04029
G1 X117.383 Y159.745 E.04028
G1 X116.983 Y159.446 E.02521
G1 X116.554 Y159.017 E.03059
G1 X116.255 Y158.617 E.02521
G1 X115.921 Y157.893 E.04028
G1 X115.761 Y157.111 E.04026
G1 X115.761 Y98.238 E2.97187
G1 X104.61 Y98.208 E.56288
G1 X104.115 Y98.082 E.02582
G1 X103.569 Y97.849 E.02995
G1 X102.987 Y97.45 E.03563
G1 X102.552 Y97.015 E.03104
G1 X102.216 Y96.549 E.02902
G1 X101.921 Y95.893 E.03631
G1 X101.792 Y95.391 E.02618
G1 X101.761 Y52.888 E2.1455
G1 X101.877 Y52.245 E.03297
G1 X102.065 Y51.769 E.02583
M204 S1000
G1 X102.626 Y51.995 F10800
M204 S800
G1 F1200
G1 X102.669 Y51.89 E.00571
G1 X103.005 Y51.39 E.03043
G1 X103.553 Y50.873 E.03802
G1 X103.894 Y50.667 E.0201
G1 X104.335 Y50.484 E.02412
G1 X104.919 Y50.368 E.03004
G1 X125.145 Y50.374 E1.02101
G1 X125.68 Y50.49 E.02765
G1 X126.232 Y50.734 E.03046
G1 X126.607 Y51.002 E.02323
G1 X127.002 Y51.397 E.02819
G1 X127.331 Y51.89 E.02995
G1 X127.532 Y52.389 E.02716
G1 X127.632 Y52.917 E.02711
G1 X127.632 Y110.368 E2.90007
G1 X145.203 Y110.381 E.88697
G1 X145.664 Y110.484 E.02383
G1 X146.109 Y110.668 E.02432
G1 X146.603 Y110.998 E.03003
G1 X147 Y111.395 E.0283
G1 X147.236 Y111.715 E.02009
G1 X147.511 Y112.323 E.03365
G1 X147.61 Y112.719 E.02064
G1 X147.632 Y157.081 E2.23935
G1 X147.516 Y157.664 E.02996
G1 X147.305 Y158.159 E.02716
G1 X147.003 Y158.602 E.02711
G1 X146.605 Y159 E.02838
G1 X146.285 Y159.236 E.02009
G1 X145.677 Y159.511 E.03365
G1 X145.281 Y159.61 E.02064
G1 X118.919 Y159.632 E1.33071
G1 X118.325 Y159.512 E.03059
G1 X117.715 Y159.236 E.03377
G1 X117.395 Y159 E.02009
G1 X117 Y158.605 E.02818
G1 X116.764 Y158.285 E.02009
G1 X116.488 Y157.675 E.03377
G1 X116.368 Y157.081 E.03058
G1 X116.368 Y97.631 E3.00096
G1 X104.72 Y97.61 E.588
G1 X104.33 Y97.514 E.02028
G1 X103.835 Y97.303 E.02714
G1 X103.396 Y97.001 E.02687
G1 X103 Y96.605 E.0283
G1 X102.73 Y96.225 E.02354
G1 X102.488 Y95.674 E.03035
G1 X102.39 Y95.281 E.02047
G1 X102.368 Y52.917 E2.13848
G1 X102.468 Y52.389 E.02712
G1 X102.593 Y52.079 E.0169
M204 S1000
G1 X103.152 Y52.31 F10800
M204 S800
G1 F1200
G1 X103.217 Y52.151 E.00867
G1 X103.45 Y51.804 E.02111
G1 X103.901 Y51.371 E.03153
G1 X104.149 Y51.218 E.01474
G1 X104.54 Y51.056 E.02133
G1 X104.948 Y50.975 E.02103
G1 X125.112 Y50.981 E1.01784
G1 X125.463 Y51.058 E.01813
G1 X125.957 Y51.276 E.02727
G1 X126.194 Y51.447 E.01475
G1 X126.551 Y51.805 E.02551
G1 X126.783 Y52.151 E.02103
G1 X126.944 Y52.54 E.02123
G1 X127.025 Y52.948 E.02103
G1 X127.025 Y110.975 E2.92913
G1 X145.109 Y110.981 E.91287
M73 P1 R144
G1 X145.458 Y111.056 E.01803
M73 Q1 S146
G1 X145.849 Y111.217 E.02134
G1 X146.195 Y111.449 E.02103
G1 X146.553 Y111.806 E.02551
G1 X146.724 Y112.043 E.01475
G1 X146.943 Y112.54 E.02743
G1 X147.012 Y112.824 E.01477
G1 X147.025 Y157.052 E2.23254
G1 X146.944 Y157.46 E.02103
G1 X146.783 Y157.849 E.02123
G1 X146.551 Y158.195 E.02103
G1 X146.194 Y158.553 E.02551
G1 X145.957 Y158.724 E.01475
G1 X145.46 Y158.943 E.02743
G1 X145.175 Y159.012 E.01477
G1 X118.949 Y159.025 E1.32391
G1 X118.538 Y158.942 E.02113
G1 X118.043 Y158.724 E.02733
G1 X117.806 Y158.553 E.01475
G1 X117.447 Y158.194 E.02561
G1 X117.276 Y157.957 E.01475
G1 X117.058 Y157.462 E.02733
G1 X116.975 Y157.051 E.02112
G1 X116.975 Y97.025 E3.03008
G1 X104.824 Y97.012 E.61336
M73 P1 R143
G1 X104.543 Y96.945 E.01459
G1 X104.102 Y96.756 E.02422
G1 X103.806 Y96.553 E.01812
G1 X103.449 Y96.196 E.02548
G1 X103.247 Y95.906 E.01785
G1 X103.057 Y95.462 E.02438
G1 X102.988 Y95.175 E.01485
G1 X102.975 Y52.948 E2.13158
G1 X103.056 Y52.54 E.02103
G1 X103.117 Y52.393 E.008
M204 S1000
G1 X103.678 Y52.626 F10800
M204 S800
G1 F1200
G1 X103.767 Y52.411 E.01172
G1 X103.898 Y52.214 E.01194
G1 X104.255 Y51.865 E.02521
G1 X104.408 Y51.768 E.00911
G1 X104.745 Y51.629 E.01841
G1 X104.978 Y51.582 E.01202
G1 X125.077 Y51.588 E1.01459
G1 X125.25 Y51.627 E.00894
G1 X125.637 Y51.792 E.02122
G1 X125.784 Y51.897 E.00912
G1 X126.101 Y52.213 E.02259
G1 X126.233 Y52.411 E.01202
G1 X126.371 Y52.745 E.01822
G1 X126.418 Y52.978 E.01202
G1 X126.418 Y111.582 E2.95827
G1 X145.022 Y111.582 E.93912
M73 Q1 S145
G1 X145.255 Y111.629 E.01202
G1 X145.589 Y111.767 E.01822
G1 X145.787 Y111.899 E.01202
G1 X146.103 Y112.216 E.02259
G1 X146.208 Y112.363 E.00912
G1 X146.373 Y112.75 E.02122
G1 X146.412 Y112.923 E.00894
G1 X146.418 Y157.022 E2.22609
G1 X146.371 Y157.255 E.01202
G1 X146.233 Y157.589 E.01822
G1 X146.101 Y157.787 E.01202
G1 X145.784 Y158.103 E.02259
G1 X145.637 Y158.208 E.00912
G1 X145.25 Y158.373 E.02122
G1 X145.077 Y158.412 E.00894
G1 X118.978 Y158.418 E1.31747
G1 X118.746 Y158.372 E.01193
G1 X118.363 Y158.208 E.02103
G1 X118.216 Y158.103 E.00912
G1 X117.897 Y157.784 E.02278
G1 X117.792 Y157.637 E.00912
G1 X117.628 Y157.254 E.02103
G1 X117.582 Y157.022 E.01193
G1 X117.582 Y96.418 E3.05922
G1 X104.923 Y96.412 E.63905
G1 X104.748 Y96.373 E.00903
G1 X104.411 Y96.233 E.01841
G1 X104.213 Y96.101 E.01202
G1 X103.897 Y95.784 E.02259
G1 X103.792 Y95.637 E.00912
G1 X103.627 Y95.25 E.02122
G1 X103.588 Y95.077 E.00894
G1 X103.582 Y52.978 E2.12513
G1 X103.644 Y52.709 E.01394
M204 S1000
G1 X104.204 Y52.941 F10800
M204 S800
G1 F1200
G1 X104.35 Y52.621 E.01773
G1 X104.621 Y52.35 E.01939
G1 X105.008 Y52.189 E.02113
G1 X124.992 Y52.189 E1.00878
G1 X125.379 Y52.35 E.02113
G1 X125.65 Y52.621 E.01939
G1 X125.799 Y52.949 E.01818
G1 X125.811 Y112.189 E2.99037
G1 X144.992 Y112.189 E.96826
G1 X145.379 Y112.35 E.02113
G1 X145.684 Y112.671 E.02236
G1 X145.811 Y113.008 E.01818
G1 X145.811 Y156.992 E2.22027
G1 X145.65 Y157.379 E.02113
G1 X145.379 Y157.65 E.01939
G1 X145.051 Y157.799 E.01818
G1 X119.008 Y157.811 E1.31461
G1 X118.621 Y157.65 E.02113
G1 X118.35 Y157.379 E.01939
G1 X118.201 Y157.051 E.01818
G1 X118.189 Y95.811 E3.09133
G1 X105.008 Y95.811 E.66538
G1 X104.621 Y95.65 E.02113
G1 X104.35 Y95.379 E.01939
G1 X104.201 Y95.051 E.01818
G1 X104.189 Y53.029 E2.1212
M204 S1000
G1 X104.796 Y53.098 F10800
M204 S800
G1 F1200
G1 X104.843 Y52.987 E.0061
G1 X104.987 Y52.843 E.01028
G1 X105.098 Y52.796 E.0061
G1 X124.902 Y52.796 E.99966
G1 X125.013 Y52.843 E.0061
G1 X125.157 Y52.987 E.01028
G1 X125.204 Y53.098 E.0061
G1 X125.204 Y112.796 E3.0135
G1 X144.902 Y112.796 E.99435
G1 X145.013 Y112.843 E.0061
G1 X145.157 Y112.987 E.01028
G1 X145.204 Y113.098 E.0061
G1 X145.204 Y156.902 E2.21116
G1 X145.157 Y157.013 E.0061
G1 X145.013 Y157.157 E.01028
G1 X144.902 Y157.204 E.0061
G1 X119.098 Y157.204 E1.30254
G1 X118.987 Y157.157 E.0061
G1 X118.843 Y157.013 E.01028
G1 X118.796 Y156.902 E.0061
G1 X118.796 Y95.204 E3.11446
G1 X105.098 Y95.204 E.69147
G1 X104.987 Y95.157 E.0061
G1 X104.843 Y95.013 E.01028
G1 X104.796 Y94.902 E.0061
G1 X104.796 Y53.188 E2.10566
M204 S1000
; printing object SLIDERNOMOTOR.stl id:0 copy 0
;WIPE_START
G1 F8640
G1 X104.843 Y52.987 E-.04775
G1 X104.987 Y52.843 E-.04701
G1 X105.098 Y52.796 E-.02788
G1 X107.858 Y52.796 E-.63736
;WIPE_END
G1 E-.04 F2100
G1 Z.6 F720
G1 X120.155 Y62.801 F10800
G1 Z.2 F720
G1 E.8 F1500
M204 S800
;TYPE:Support material
G1 F1200
G1 X109.845 Y62.801 E.52044
G1 X109.845 Y58.845 E.1997
G1 X120.155 Y58.845 E.52044
G1 X120.155 Y62.71 E.1951
M204 S1000
G1 X119.604 Y62.528 F10800
M204 S800
G1 F1200
G1 X119.604 Y59.391 E.15833
G1 X118.929 Y59.391 E.03405
G1 X118.929 Y62.255 E.14454
G1 X118.255 Y62.255 E.03405
G1 X118.255 Y59.391 E.14454
G1 X117.58 Y59.391 E.03405
G1 X117.58 Y62.255 E.14454
G1 X116.906 Y62.255 E.03405
G1 X116.906 Y59.391 E.14454
G1 X116.231 Y59.391 E.03405
G1 X116.231 Y62.255 E.14454
G1 X115.557 Y62.255 E.03405
G1 X115.557 Y59.391 E.14454
G1 X114.882 Y59.391 E.03405
G1 X114.882 Y62.255 E.14454
G1 X114.207 Y62.255 E.03405
G1 X114.207 Y59.391 E.14454
G1 X113.533 Y59.391 E.03405
G1 X113.533 Y62.255 E.14454
G1 X112.858 Y62.255 E.03405
G1 X112.858 Y59.391 E.14454
G1 X112.184 Y59.391 E.03405
G1 X112.184 Y62.255 E.14454
G1 X111.509 Y62.255 E.03405
G1 X111.509 Y59.391 E.14454
G1 X110.835 Y59.391 E.03405
G1 X110.835 Y62.528 E.15833
M204 S1000
;WIPE_START
G1 F8640
G1 X110.835 Y59.391 E-.72422
G1 X110.99 Y59.391 E-.03578
;WIPE_END
G1 E-.04 F2100
G1 Z.6 F720
G1 X135.508 Y121.403 F10800
G1 Z.2 F720
G1 E.8 F1500
M204 S800
G1 F1200
G1 X135.869 Y121.57 E.02006
G1 X136.179 Y121.819 E.02006
G1 X136.421 Y122.134 E.02006
G1 X136.58 Y122.499 E.02006
G1 X136.647 Y122.89 E.02006
G1 X136.618 Y123.287 E.02006
G1 X136.496 Y123.665 E.02006
G1 X136.286 Y124.003 E.02006
G1 X136.002 Y124.281 E.02006
G1 X135.659 Y124.482 E.02006
G1 X135.279 Y124.596 E.02006
G1 X134.882 Y124.616 E.02006
G1 X134.492 Y124.54 E.02006
G1 X134.131 Y124.372 E.02006
G1 X133.821 Y124.124 E.02006
G1 X133.579 Y123.808 E.02006
G1 X133.42 Y123.444 E.02006
G1 X133.353 Y123.052 E.02006
G1 X133.382 Y122.655 E.02006
G1 X133.504 Y122.277 E.02006
G1 X133.714 Y121.94 E.02006
G1 X133.998 Y121.662 E.02006
G1 X134.341 Y121.46 E.02006
G1 X134.721 Y121.346 E.02006
G1 X135.118 Y121.327 E.02006
G1 X135.419 Y121.385 E.01547
M204 S1000
G1 X135.793 Y124.087 F10800
M204 S800
G1 F1200
G1 X135.793 Y122.213 E.09462
G1 X135.579 Y122.038 E.01393
G1 X135.339 Y121.926 E.01337
G1 X135.118 Y121.883 E.01135
G1 X135.118 Y124.057 E.10973
G1 X134.921 Y124.067 E.00995
G1 X134.661 Y124.016 E.01337
G1 X134.443 Y123.915 E.01212
G1 X134.443 Y121.716 E.11098
M204 S1000
;WIPE_START
G1 F8640
G1 X134.443 Y123.915 E-.50765
G1 X134.661 Y124.016 E-.05544
G1 X134.921 Y124.067 E-.06114
G1 X135.118 Y124.057 E-.0455
G1 X135.118 Y123.666 E-.09026
;WIPE_END
G1 E-.04 F2100
G1 Z.6 F720
G1 X120.122 Y94.705 F10800
G1 Z.2 F720
G1 E.8 F1500
M204 S800
;TYPE:Perimeter
;WIDTH:0.649999
G1 F1200
G1 X120.101 Y94.543 E.00824
G1 X120.014 Y94.331 E.01158
G1 X119.887 Y94.157 E.01087
G1 X119.583 Y93.943 E.01878
G1 X119.221 Y93.868 E.01864
G1 X106.132 Y93.868 E.66074
G1 X106.132 Y54.132 E2.00582
G1 X123.868 Y54.132 E.89528
G1 X123.868 Y113.221 E2.98276
G1 X123.882 Y113.379 E.00797
