; generated by PrusaSlicer 2.5.0+MacOS-x64 on 2023-03-21 at 15:13:03 UTC


;
;

;
;
; 

; external perimeters extrusion width = 0.45mm
; perimeters extrusion width = 0.45mm
; infill extrusion width = 0.45mm
; solid infill extrusion width = 0.45mm
; top infill extrusion width = 0.40mm
; support material extrusion width = 0.35mm
; first layer extrusion width = 0.42mm

M73 P0 R90
M201 X2500 Y2500 Z400 E5000 ; sets maximum accelerations, mm/sec^2
M203 X180 Y180 Z12 E80 ; sets maximum feedrates, mm / sec
M204 P1250 R1250 T2500 ; sets acceleration (P, T) and retract acceleration (R), mm/sec^2
M205 X8.00 Y8.00 Z2.00 E10.00 ; sets the jerk limits, mm/sec
M205 S0 T0 ; sets the minimum extruding and travel feed rate, mm/sec
M107
;TYPE:Custom
M862.3 P "MINI" ; printer model check
G90 ; use absolute coordinates
M83 ; extruder relative mode
M104 S170 ; set extruder temp for bed leveling
M140 S60 ; set bed temp
M109 R170 ; wait for bed leveling temp
M190 S60 ; wait for bed temp
M204 T1250 ; set travel acceleration
G28 ; home all without mesh bed level
G29 ; mesh bed leveling 
M204 T2500 ; restore travel acceleration
M104 S215 ; set extruder temp
G92 E0
G1 Y-2 X179 F2400
G1 Z3 F720
M109 S215 ; wait for extruder temp

; intro line
G1 X170 F1000
G1 Z0.2 F720
G1 X110 E8 F900
G1 X40 E10 F700
G92 E0

M221 S95 ; set flow
G21 ; set units to millimeters
G90 ; use absolute coordinates
M83 ; use relative distances for extrusion
M900 K0.2 ; Filament gcode LA 1.5
; ; Filament gcode LA 1.0
M107
;LAYER_CHANGE
;Z:0.2
;HEIGHT:0.2
;BEFORE_LAYER_CHANGE
G92 E0.0
;0.2


G1 E-3.2 F4200
G1 Z.2 F720
;AFTER_LAYER_CHANGE
;0.2
G1 Z.4
G1 X42.187 Y78.639 F9000
G1 Z.2 F720
G1 E3.2 F2400
M204 P800
;TYPE:Skirt/Brim
;WIDTH:0.42
G1 F1200
G1 X43.868 Y77.943 E.05704
G1 X87.692 Y77.943 E1.3741
G1 X89.373 Y78.639 E.05704
G1 X92.361 Y81.627 E.13247
G1 X93.057 Y83.308 E.05704
G1 X93.057 Y127.133 E1.3741
G1 X92.361 Y128.814 E.05704
M73 P0 R89
G1 X89.373 Y131.801 E.13247
G1 X87.692 Y132.497 E.05704
G1 X43.868 Y132.497 E1.3741
G1 X42.187 Y131.801 E.05704
G1 X39.199 Y128.814 E.13247
G1 X38.503 Y127.133 E.05704
G1 X38.503 Y83.308 E1.3741
G1 X39.199 Y81.627 E.05704
G1 X42.144 Y78.682 E.13059
M204 P1000
G1 E-2.24 F4200
;WIPE_START
G1 F7200
G1 X43.657 Y78.034 E-.912
;WIPE_END
G1 E-.048 F4200
G1 Z.4 F720
G1 X43.584 Y81.218 F9000
G1 Z.2 F720
G1 E3.2 F2400
M204 P800
G1 F1200
G1 X45.534 Y80.607 E.06406
G1 X85.969 Y80.61 E1.26782
G1 X86.99 Y80.804 E.03256
G1 X87.968 Y81.22 E.03333
G1 X89.092 Y82.116 E.04508
G1 X89.985 Y83.454 E.05044
G1 X90.393 Y84.999 E.05011
G1 X90.393 Y125.44 E1.268
G1 X90.013 Y126.925 E.04806
G1 X89.155 Y128.261 E.04979
G1 X88.579 Y128.795 E.02461
G1 X87.976 Y129.223 E.0232
G1 X86.026 Y129.834 E.06405
G1 X45.56 Y129.834 E1.26879
G1 X44.075 Y129.453 E.04806
G1 X42.739 Y128.595 E.04979
G1 X42.206 Y128.019 E.02461
G1 X41.778 Y127.416 E.0232
G1 X41.167 Y125.467 E.06405
G1 X41.167 Y85.001 E1.26879
G1 X41.547 Y83.516 E.04806
G1 X42.405 Y82.179 E.04979
G1 X42.981 Y81.646 E.02461
G1 X43.536 Y81.253 E.02132
M204 P1000
G1 X43.753 Y81.56 F9000
M204 P800
G1 F1200
G1 X45.563 Y80.984 E.05955
G1 X85.951 Y80.988 E1.26635
G1 X86.897 Y81.171 E.03022
G1 X87.795 Y81.556 E.03062
G1 X88.833 Y82.391 E.0418
G1 X89.629 Y83.582 E.0449
G1 X90.016 Y85.024 E.04682
G1 X90.016 Y125.416 E1.26645
G1 X89.656 Y126.8 E.04486
G1 X88.881 Y128.001 E.04479
G1 X88.332 Y128.509 E.02347
G1 X87.782 Y128.898 E.02111
G1 X85.998 Y129.457 E.05863
G1 X45.585 Y129.457 E1.26712
G1 X44.2 Y129.096 E.04486
G1 X43 Y128.322 E.04479
G1 X42.491 Y127.773 E.02347
G1 X42.103 Y127.223 E.02111
G1 X41.544 Y125.438 E.05863
G1 X41.544 Y85.025 E1.26712
G1 X41.904 Y83.64 E.04486
G1 X42.679 Y82.44 E.04479
G1 X43.228 Y81.931 E.02347
G1 X43.704 Y81.595 E.01827
M204 P1000
G1 X43.92 Y81.903 F9000
M204 P800
G1 F1200
G1 X43.97 Y81.868 E.00191
G1 X45.591 Y81.361 E.05325
G1 X85.932 Y81.365 E1.26487
G1 X86.804 Y81.536 E.02785
G1 X87.62 Y81.891 E.0279
G1 X88.573 Y82.665 E.03848
G1 X89.297 Y83.763 E.04126
G1 X89.639 Y85.049 E.0417
G1 X89.639 Y125.392 E1.26494
G1 X89.322 Y126.623 E.03986
G1 X88.607 Y127.741 E.0416
G1 X88.085 Y128.224 E.0223
G1 X87.59 Y128.572 E.019
G1 X85.969 Y129.08 E.05324
G1 X45.608 Y129.08 E1.26548
G1 X44.377 Y128.762 E.03986
G1 X43.26 Y128.047 E.0416
G1 X42.776 Y127.526 E.0223
G1 X42.428 Y127.03 E.019
G1 X41.921 Y125.409 E.05324
G1 X41.921 Y85.049 E1.26548
G1 X42.238 Y83.818 E.03986
M73 P1 R89
G1 X42.953 Y82.7 E.0416
G1 X43.475 Y82.217 E.0223
G1 X43.871 Y81.938 E.01521
M204 P1000
G1 X44.087 Y82.247 F9000
M204 P800
G1 F1200
G1 X44.162 Y82.194 E.00288
G1 X45.62 Y81.738 E.04788
G1 X85.913 Y81.742 E1.26337
G1 X86.709 Y81.902 E.02544
G1 X87.444 Y82.225 E.02518
G1 X88.31 Y82.937 E.03516
G1 X88.965 Y83.943 E.03763
G1 X89.262 Y85.073 E.03663
G1 X89.262 Y125.367 E1.26341
G1 X88.965 Y126.498 E.03665
G1 X88.334 Y127.48 E.03661
G1 X87.839 Y127.938 E.02115
G1 X87.398 Y128.246 E.01687
G1 X85.94 Y128.703 E.04788
G1 X45.633 Y128.703 E1.26381
G1 X44.503 Y128.405 E.03665
G1 X43.52 Y127.774 E.03661
G1 X43.062 Y127.279 E.02115
G1 X42.754 Y126.838 E.01687
G1 X42.298 Y125.381 E.04788
G1 X42.298 Y85.073 E1.26381
G1 X42.595 Y83.943 E.03665
G1 X43.226 Y82.961 E.03661
G1 X43.721 Y82.502 E.02115
G1 X44.038 Y82.281 E.01211
M204 P1000
G1 X44.252 Y82.59 F9000
M204 P800
G1 F1200
G1 X44.353 Y82.52 E.00385
G1 X45.648 Y82.115 E.04255
G1 X85.895 Y82.119 E1.26189
G1 X86.576 Y82.255 E.02178
G1 X87.267 Y82.56 E.02369
G1 X88.047 Y83.208 E.03181
G1 X88.609 Y84.07 E.03225
G1 X88.885 Y85.098 E.03337
G1 X88.885 Y125.343 E1.26187
G1 X88.631 Y126.321 E.03167
G1 X88.059 Y127.22 E.03341
G1 X87.593 Y127.653 E.01994
G1 X87.207 Y127.92 E.01473
G1 X85.912 Y128.325 E.04254
G1 X45.657 Y128.325 E1.26217
G1 X44.679 Y128.071 E.03167
G1 X43.78 Y127.499 E.03341
G1 X43.348 Y127.033 E.01994
G1 X43.08 Y126.647 E.01473
G1 X42.675 Y125.352 E.04254
G1 X42.675 Y85.097 E1.26217
G1 X42.929 Y84.12 E.03167
G1 X43.501 Y83.22 E.03341
G1 X43.967 Y82.788 E.01994
G1 X44.203 Y82.625 E.00899
M204 P1000
G1 X44.416 Y82.935 F9000
M204 P800
G1 F1200
G1 X44.543 Y82.847 E.00484
G1 X45.677 Y82.492 E.03724
G1 X85.875 Y82.496 E1.26037
G1 X86.479 Y82.62 E.01932
G1 X87.088 Y82.892 E.02093
G1 X87.781 Y83.477 E.02843
G1 X88.275 Y84.248 E.0287
G1 X88.508 Y85.122 E.02837
G1 X88.508 Y125.318 E1.26032
G1 X88.274 Y126.195 E.02845
G1 X87.785 Y126.96 E.02846
G1 X87.347 Y127.366 E.01876
G1 X87.017 Y127.593 E.01256
G1 X85.883 Y127.948 E.03724
G1 X45.682 Y127.948 E1.26048
G1 X44.805 Y127.715 E.02845
G1 X44.04 Y127.226 E.02846
M73 P1 R88
G1 X43.634 Y126.787 E.01876
G1 X43.407 Y126.457 E.01256
G1 X43.052 Y125.323 E.03724
G1 X43.052 Y85.122 E1.26048
G1 X43.286 Y84.246 E.02845
G1 X43.775 Y83.481 E.02846
G1 X44.213 Y83.074 E.01876
G1 X44.367 Y82.969 E.00584
M204 P1000
G1 X44.579 Y83.279 F9000
M204 P800
G1 F1200
G1 X44.732 Y83.175 E.00584
G1 X45.706 Y82.869 E.03199
G1 X85.854 Y82.873 E1.25884
G1 X86.379 Y82.984 E.01681
G1 X86.907 Y83.224 E.01817
G1 X87.514 Y83.745 E.0251
G1 X87.919 Y84.376 E.02351
G1 X88.131 Y85.148 E.0251
G1 X88.131 Y125.292 E1.25869
G1 X87.919 Y126.067 E.02517
G1 X87.512 Y126.699 E.02358
G1 X87.101 Y127.08 E.01756
G1 X86.828 Y127.266 E.01037
G1 X85.854 Y127.571 E.03198
G1 X45.708 Y127.571 E1.25876
G1 X44.934 Y127.359 E.02517
G1 X44.301 Y126.952 E.02358
G1 X43.92 Y126.541 E.01756
G1 X43.734 Y126.268 E.01037
G1 X43.429 Y125.295 E.03198
G1 X43.429 Y85.148 E1.25876
G1 X43.641 Y84.374 E.02517
G1 X44.048 Y83.741 E.02358
G1 X44.529 Y83.313 E.02019
M204 P1000
G1 X44.738 Y83.625 F9000
M204 P800
G1 F1200
G1 X44.92 Y83.503 E.00685
G1 X45.735 Y83.246 E.02679
G1 X85.833 Y83.25 E1.25726
G1 X86.277 Y83.348 E.01423
G1 X86.723 Y83.554 E.01541
G1 X87.246 Y84.011 E.02178
G1 X87.565 Y84.506 E.01847
G1 X87.754 Y85.175 E.02179
G1 X87.754 Y125.265 E1.25701
G1 X87.564 Y125.936 E.02184
G1 X87.239 Y126.438 E.01878
G1 X86.856 Y126.793 E.01636
G1 X86.64 Y126.938 E.00814
G1 X85.825 Y127.194 E.02678
G1 X45.735 Y127.194 E1.25701
G1 X45.065 Y127.004 E.02184
G1 X44.562 Y126.679 E.01878
G1 X44.207 Y126.296 E.01636
G1 X44.062 Y126.081 E.00814
G1 X43.806 Y125.266 E.02678
G1 X43.806 Y85.175 E1.25701
G1 X43.996 Y84.505 E.02184
G1 X44.321 Y84.002 E.01878
G1 X44.69 Y83.66 E.01577
M204 P1000
G1 X44.947 Y83.937 F9000
M204 P800
G1 F1200
G1 X45.105 Y83.832 E.00596
G1 X45.764 Y83.623 E.02167
G1 X85.811 Y83.627 E1.25565
G1 X86.171 Y83.71 E.01157
G1 X86.536 Y83.883 E.01266
G1 X86.976 Y84.275 E.01848
G1 X87.211 Y84.64 E.01362
G1 X87.377 Y85.203 E.01841
G1 X87.377 Y125.237 E1.25525
G1 X87.211 Y125.802 E.01844
G1 X86.966 Y126.177 E.01407
G1 X86.612 Y126.505 E.01513
G1 X86.455 Y126.609 E.00588
G1 X85.796 Y126.817 E.02167
G1 X45.763 Y126.817 E1.25522
G1 X45.199 Y126.651 E.01844
G1 X44.823 Y126.406 E.01407
G1 X44.495 Y126.052 E.01513
G1 X44.392 Y125.895 E.00588
G1 X44.183 Y125.237 E.02167
G1 X44.183 Y85.203 E1.25522
G1 X44.349 Y84.639 E.01844
G1 X44.594 Y84.263 E.01407
G1 X44.903 Y83.978 E.01317
M204 P1000
G1 X45.159 Y84.254 F9000
M204 P800
G1 F1200
G1 X45.287 Y84.163 E.00494
G1 X45.793 Y84.001 E.01667
G1 X85.789 Y84.004 E1.25404
G1 X86.027 Y84.059 E.00767
M73 P2 R88
G1 X86.348 Y84.211 E.01111
G1 X86.703 Y84.536 E.01508
G1 X86.859 Y84.777 E.00902
G1 X87 Y85.233 E.01495
G1 X87 Y125.208 E1.25339
G1 X86.859 Y125.663 E.01495
G1 X86.693 Y125.916 E.00948
G1 X86.368 Y126.217 E.01387
G1 X86.273 Y126.278 E.00355
G1 X85.767 Y126.44 E.01667
G1 X45.792 Y126.44 E1.25336
G1 X45.337 Y126.299 E.01495
G1 X45.084 Y126.133 E.00948
G1 X44.784 Y125.809 E.01387
G1 X44.723 Y125.713 E.00355
G1 X44.56 Y125.207 E.01667
G1 X44.56 Y85.233 E1.25336
G1 X44.701 Y84.777 E.01495
G1 X44.867 Y84.525 E.00948
G1 X45.115 Y84.295 E.01059
M204 P1000
G1 X45.371 Y84.572 F9000
M204 P800
G1 F1200
G1 X45.463 Y84.497 E.00371
G1 X45.824 Y84.378 E.01193
G1 X85.767 Y84.381 E1.25238
G1 X85.884 Y84.409 E.00377
G1 X86.158 Y84.538 E.0095
G1 X86.427 Y84.793 E.0116
G1 X86.51 Y84.92 E.00476
G1 X86.623 Y85.264 E.01136
G1 X86.623 Y125.176 E1.25141
G1 X86.51 Y125.52 E.01134
G1 X86.42 Y125.654 E.00506
G1 X86.097 Y125.944 E.01361
G1 X85.736 Y126.063 E.01193
G1 X45.824 Y126.063 E1.2514
G1 X45.481 Y125.95 E.01134
G1 X45.346 Y125.861 E.00506
G1 X45.056 Y125.538 E.01361
G1 X44.937 Y125.176 E.01193
G1 X44.937 Y85.264 E1.2514
G1 X45.05 Y84.921 E.01134
G1 X45.14 Y84.786 E.00506
G1 X45.327 Y84.613 E.00802
M204 P1000
G1 X45.583 Y84.889 F9000
M204 P800
G1 F1200
G1 X45.646 Y84.831 E.00269
G1 X45.859 Y84.755 E.00709
G1 X85.715 Y84.755 E1.24965
G1 X85.965 Y84.864 E.00856
G1 X86.164 Y85.072 E.00902
G1 X86.246 Y85.299 E.00757
G1 X86.246 Y125.141 E1.24921
G1 X86.148 Y125.392 E.00845
G1 X85.914 Y125.61 E.01002
G1 X85.701 Y125.686 E.00709
G1 X45.859 Y125.686 E1.24921
G1 X45.608 Y125.588 E.00845
G1 X45.391 Y125.354 E.01002
G1 X45.314 Y125.141 E.00709
G1 X45.314 Y85.299 E1.24921
G1 X45.396 Y85.072 E.00757
G1 X45.539 Y84.93 E.00633
M204 P1000
G1 X45.801 Y85.191 F9000
M204 P800
G1 F1200
G1 X45.901 Y85.132 E.00366
G1 X85.659 Y85.132 E1.24658
G1 X85.728 Y85.16 E.00235
G1 X85.84 Y85.272 E.00495
G1 X85.869 Y85.341 E.00235
G1 X85.869 Y125.099 E1.24658
G1 X85.84 Y125.169 E.00235
G1 X85.728 Y125.28 E.00495
G1 X85.659 Y125.309 E.00235
G1 X45.901 Y125.309 E1.24658
G1 X45.832 Y125.28 E.00235
G1 X45.72 Y125.169 E.00495
G1 X45.691 Y125.099 E.00235
G1 X45.691 Y85.341 E1.24658
G1 X45.758 Y85.234 E.00397
M204 P1000
; printing object base1 v1.stl id:0 copy 0
M73 P2 R87
G1 X46.567 Y86.007 F9000
M204 P800
;TYPE:Perimeter
;WIDTH:0.419999
G1 F1200
G1 X84.993 Y86.007 E1.20481
G1 X84.993 Y124.433 E1.20481
G1 X46.567 Y124.433 E1.20481
G1 X46.567 Y86.067 E1.20293
M204 P1000
G1 X46.19 Y85.63 F9000
M204 P800
;TYPE:External perimeter
G1 F1200
G1 X85.37 Y85.63 E1.22846
G1 X85.37 Y124.81 E1.22846
G1 X46.19 Y124.81 E1.22846
G1 X46.19 Y85.69 E1.22658
M204 P1000
G1 X46.576 Y85.734 F9000
G1 E-2.24 F4200
;WIPE_START
G1 F7200
G1 X47.836 Y85.688 E-.912
;WIPE_END
G1 E-.048 F4200
G1 Z.4 F720
G1 X84.115 Y86.12 F9000
G1 Z.2 F720
G1 E3.2 F2400
M204 P800
;TYPE:Solid infill
;WIDTH:0.421072
G1 F1200
G1 X84.71 Y86.715 E.02645
G1 X84.71 Y87.25 E.01682
G1 X83.75 Y86.29 E.04269
G1 X83.215 Y86.29 E.01682
G1 X84.71 Y87.785 E.06647
G1 X84.71 Y88.32 E.01682
G1 X82.681 Y86.29 E.09025
G1 X82.146 Y86.29 E.01682
G1 X84.71 Y88.855 E.11403
G1 X84.71 Y89.389 E.01682
G1 X81.611 Y86.29 E.13781
G1 X81.076 Y86.29 E.01682
G1 X84.71 Y89.924 E.16159
G1 X84.71 Y90.459 E.01682
G1 X80.541 Y86.29 E.18537
G1 X80.007 Y86.29 E.01682
G1 X84.71 Y90.994 E.20915
G1 X84.71 Y91.528 E.01682
G1 X79.472 Y86.29 E.23293
G1 X78.937 Y86.29 E.01682
G1 X84.71 Y92.063 E.25671
G1 X84.71 Y92.598 E.01682
G1 X78.402 Y86.29 E.2805
G1 X77.867 Y86.29 E.01682
G1 X84.71 Y93.133 E.30428
G1 X84.71 Y93.668 E.01682
G1 X77.333 Y86.29 E.32806
G1 X76.798 Y86.29 E.01682
G1 X84.71 Y94.202 E.35184
G1 X84.71 Y94.737 E.01682
G1 X76.263 Y86.29 E.37562
G1 X75.728 Y86.29 E.01682
M73 P3 R87
G1 X84.71 Y95.272 E.3994
G1 X84.71 Y95.807 E.01682
G1 X75.194 Y86.29 E.42318
G1 X74.659 Y86.29 E.01682
G1 X84.71 Y96.342 E.44696
G1 X84.71 Y96.876 E.01682
G1 X74.124 Y86.29 E.47074
G1 X73.589 Y86.29 E.01682
G1 X84.71 Y97.411 E.49452
G1 X84.71 Y97.946 E.01682
G1 X73.054 Y86.29 E.5183
G1 X72.52 Y86.29 E.01682
G1 X84.71 Y98.481 E.54208
G1 X84.71 Y99.015 E.01682
G1 X71.985 Y86.29 E.56587
G1 X71.45 Y86.29 E.01682
G1 X84.71 Y99.55 E.58965
G1 X84.71 Y100.085 E.01682
G1 X70.915 Y86.29 E.61343
G1 X70.38 Y86.29 E.01682
G1 X84.71 Y100.62 E.63721
G1 X84.71 Y101.155 E.01682
G1 X69.846 Y86.29 E.66099
G1 X69.311 Y86.29 E.01682
G1 X84.71 Y101.689 E.68477
G1 X84.71 Y102.224 E.01682
G1 X68.776 Y86.29 E.70855
G1 X68.241 Y86.29 E.01682
G1 X84.71 Y102.759 E.73233
G1 X84.71 Y103.294 E.01682
G1 X67.707 Y86.29 E.75611
G1 X67.172 Y86.29 E.01682
G1 X84.71 Y103.829 E.77989
G1 X84.71 Y104.363 E.01682
G1 X66.637 Y86.29 E.80367
G1 X66.102 Y86.29 E.01682
G1 X84.71 Y104.898 E.82745
G1 X84.71 Y105.433 E.01682
G1 X65.567 Y86.29 E.85124
G1 X65.033 Y86.29 E.01682
G1 X84.71 Y105.968 E.87502
G1 X84.71 Y106.502 E.01682
G1 X64.498 Y86.29 E.8988
G1 X63.963 Y86.29 E.01682
G1 X84.71 Y107.037 E.92258
G1 X84.71 Y107.572 E.01682
G1 X63.428 Y86.29 E.94636
G1 X62.893 Y86.29 E.01682
G1 X84.71 Y108.107 E.97014
G1 X84.71 Y108.642 E.01682
G1 X62.359 Y86.29 E.99392
G1 X61.824 Y86.29 E.01682
G1 X84.71 Y109.176 E1.0177
G1 X84.71 Y109.711 E.01682
G1 X61.289 Y86.29 E1.04148
G1 X60.754 Y86.29 E.01682
G1 X84.71 Y110.246 E1.06526
G1 X84.71 Y110.781 E.01682
G1 X60.22 Y86.29 E1.08904
G1 X59.685 Y86.29 E.01682
G1 X84.71 Y111.316 E1.11282
G1 X84.71 Y111.85 E.01682
M73 P3 R86
G1 X59.15 Y86.29 E1.13661
G1 X58.615 Y86.29 E.01682
G1 X84.71 Y112.385 E1.16039
G1 X84.71 Y112.92 E.01682
G1 X58.08 Y86.29 E1.18417
G1 X57.546 Y86.29 E.01682
G1 X84.71 Y113.455 E1.20795
G1 X84.71 Y113.99 E.01682
G1 X57.011 Y86.29 E1.23173
G1 X56.476 Y86.29 E.01682
G1 X84.71 Y114.524 E1.25551
G1 X84.71 Y115.059 E.01682
G1 X55.941 Y86.29 E1.27929
G1 X55.406 Y86.29 E.01682
G1 X84.71 Y115.594 E1.30307
G1 X84.71 Y116.129 E.01682
M73 P4 R86
G1 X54.872 Y86.29 E1.32685
G1 X54.337 Y86.29 E.01682
G1 X84.71 Y116.663 E1.35063
G1 X84.71 Y117.198 E.01682
G1 X53.802 Y86.29 E1.37441
G1 X53.267 Y86.29 E.01682
G1 X84.71 Y117.733 E1.39819
G1 X84.71 Y118.268 E.01682
G1 X52.732 Y86.29 E1.42198
G1 X52.198 Y86.29 E.01682
G1 X84.71 Y118.803 E1.44576
G1 X84.71 Y119.337 E.01682
G1 X51.663 Y86.29 E1.46954
G1 X51.128 Y86.29 E.01682
G1 X84.71 Y119.872 E1.49332
G1 X84.71 Y120.407 E.01682
G1 X50.593 Y86.29 E1.5171
G1 X50.059 Y86.29 E.01682
G1 X84.71 Y120.942 E1.54088
G1 X84.71 Y121.477 E.01682
G1 X49.524 Y86.29 E1.56466
G1 X48.989 Y86.29 E.01682
G1 X84.71 Y122.011 E1.58844
G1 X84.71 Y122.546 E.01682
G1 X48.454 Y86.29 E1.61222
G1 X47.919 Y86.29 E.01682
G1 X84.71 Y123.081 E1.636
G1 X84.71 Y123.616 E.01682
G1 X47.385 Y86.29 E1.65978
G1 X46.85 Y86.29 E.01681
G1 X84.71 Y124.15 E1.68356
G1 X84.175 Y124.15 E.01682
G1 X46.85 Y86.825 E1.65978
G1 X46.85 Y87.36 E.01682
G1 X83.64 Y124.15 E1.636
G1 X83.106 Y124.15 E.01682
M73 P4 R85
G1 X46.85 Y87.895 E1.61222
G1 X46.85 Y88.429 E.01682
G1 X82.571 Y124.15 E1.58844
G1 X82.036 Y124.15 E.01682
G1 X46.85 Y88.964 E1.56465
G1 X46.85 Y89.499 E.01682
G1 X81.501 Y124.15 E1.54087
G1 X80.967 Y124.15 E.01682
M73 P5 R85
