; generated by PrusaSlicer 2.5.0+MacOS-x64 on 2023-03-24 at 04:07:46 UTC


;
;
; 

; external perimeters extrusion width = 0.45mm
; perimeters extrusion width = 0.45mm
; infill extrusion width = 0.45mm
; solid infill extrusion width = 0.45mm
; top infill extrusion width = 0.40mm
; first layer extrusion width = 0.42mm

M73 P0 R4
M73 Q0 S4
M201 X1000 Y1000 Z200 E5000 ; sets maximum accelerations, mm/sec^2
M203 X200 Y200 Z12 E120 ; sets maximum feedrates, mm / sec
M204 P1250 R1250 T1250 ; sets acceleration (P, T) and retract acceleration (R), mm/sec^2
M205 X8.00 Y8.00 Z0.40 E4.50 ; sets the jerk limits, mm/sec
M205 S0 T0 ; sets the minimum extruding and travel feed rate, mm/sec
M107
;TYPE:Custom
M862.3 P "MK3" ; printer model check
M862.1 P0.4 ; nozzle diameter check
M115 U3.11.0 ; tell printer latest fw version
G90 ; use absolute coordinates
M83 ; extruder relative mode
M104 S215 ; set extruder temp
M140 S60 ; set bed temp
M190 S60 ; wait for bed temp
M109 S215 ; wait for extruder temp
G28 W ; home all without mesh bed level
G80 ; mesh bed leveling

G1 Z0.2 F720
G1 Y-3 F1000 ; go outside print area
G92 E0
G1 X60 E9 F1000 ; intro line
G1 X100 E12.5 F1000 ; intro line

G92 E0
M221 S95

; Don't change E values below. Excessive value can damage the printer.

M907 E538 ; set extruder motor current
G21 ; set units to millimeters
G90 ; use absolute coordinates
M83 ; use relative distances for extrusion
M900 K0.05 ; Filament gcode LA 1.5
M900 K30 ; Filament gcode LA 1.0
M107
;LAYER_CHANGE
;Z:0.2
;HEIGHT:0.2
;BEFORE_LAYER_CHANGE
G92 E0.0
;0.2


M73 P1 R4
M73 Q1 S4
G1 E-.8 F2100
M73 P2 R4
M73 Q2 S4
G1 Z.4 F720
;AFTER_LAYER_CHANGE
;0.2
G1 X83.838 Y83.606 F10800
G1 Z.2 F720
G1 E.8 F2100
M204 S800
;TYPE:Skirt/Brim
;WIDTH:0.42
G1 F961
G1 X85.105 Y82.592 E.05088
G1 X85.873 Y82.138 E.02797
G1 X86.86 Y81.694 E.03395
G1 X88.425 Y81.261 E.05088
G1 X90.232 Y81.123 E.05684
G1 X91.844 Y81.313 E.05088
G1 X92.887 Y81.602 E.03395
M73 Q3 S4
G1 X93.715 Y81.934 E.02797
G1 X95.121 Y82.744 E.05088
G1 X96.488 Y83.935 E.05684
G1 X97.502 Y85.247 E.05198
M73 P3 R4
G1 X98.01 Y86.163 E.03285
G1 X98.355 Y86.986 E.02797
G1 X98.793 Y88.745 E.05684
G1 X98.874 Y90.366 E.05088
G1 X98.659 Y91.975 E.05088
G1 X98.355 Y93.014 E.03395
G1 X98.01 Y93.837 E.02797
G1 X97.178 Y95.23 E.05088
G1 X96.106 Y96.449 E.05088
G1 X94.67 Y97.554 E.05684
G1 X93.217 Y98.278 E.05089
G1 X91.657 Y98.725 E.05088
G1 X90.773 Y98.847 E.02797
G1 X89.691 Y98.875 E.03395
G1 X88.081 Y98.67 E.05088
G1 X86.36 Y98.099 E.05684
G1 X84.947 Y97.301 E.05089
G1 X83.702 Y96.26 E.05088
G1 X82.987 Y95.447 E.03395
G1 X82.476 Y94.715 E.02797
G1 X81.744 Y93.267 E.05088
G1 X81.252 Y91.522 E.05684
G1 X81.122 Y89.905 E.05089
G1 X81.292 Y88.27 E.05153
G1 X81.56 Y87.242 E.0333
G1 X81.879 Y86.409 E.02797
M73 Q4 S4
G1 X82.778 Y84.835 E.05684
G1 X83.799 Y83.652 E.04901
M204 S1000
G1 X84.083 Y83.896 F10800
M204 S800
M73 P4 R4
G1 F961
G1 X85.307 Y82.91 E.04927
G1 X86.204 Y82.392 E.03251
G1 X87.001 Y82.044 E.02725
G1 X88.499 Y81.631 E.04872
G1 X90.215 Y81.499 E.05397
G1 X91.758 Y81.68 E.04872
G1 X92.758 Y81.956 E.03251
G1 X93.565 Y82.279 E.02725
G1 X95.046 Y83.155 E.05397
G1 X96.208 Y84.187 E.04872
G1 X97.18 Y85.444 E.04981
G1 X97.667 Y86.319 E.03141
G1 X98.002 Y87.121 E.02725
G1 X98.393 Y88.625 E.04872
G1 X98.498 Y90.343 E.05397
G1 X98.293 Y91.884 E.04872
G1 X98.002 Y92.879 E.0325
G1 X97.667 Y93.681 E.02725
G1 X96.869 Y95.014 E.04872
G1 X95.842 Y96.18 E.04872
G1 X94.478 Y97.23 E.05396
G1 X93.087 Y97.924 E.04873
G1 X91.594 Y98.353 E.04872
G1 X90.733 Y98.472 E.02725
G1 X89.696 Y98.498 E.03251
G1 X88.155 Y98.3 E.04872
G1 X86.521 Y97.759 E.05397
G1 X85.167 Y96.996 E.04872
G1 X83.975 Y95.999 E.04872
M73 Q5 S4
G1 X83.29 Y95.221 E.03251
G1 X82.792 Y94.509 E.02725
G1 X82.092 Y93.122 E.04872
M73 P5 R4
G1 X81.625 Y91.465 E.05397
G1 X81.498 Y89.916 E.04872
G1 X81.66 Y88.349 E.04938
G1 X81.916 Y87.366 E.03185
G1 X82.227 Y86.555 E.02725
G1 X83.08 Y85.06 E.05396
G1 X84.044 Y83.942 E.04629
M204 S1000
G1 X84.328 Y84.186 F10800
M204 S800
G1 F961
G1 X85.508 Y83.229 E.04765
G1 X86.237 Y82.798 E.02653
G1 X87.141 Y82.394 E.03107
G1 X88.573 Y82 E.04656
G1 X90.198 Y81.876 E.05109
G1 X91.673 Y82.047 E.04656
G1 X92.628 Y82.31 E.03106
G1 X93.414 Y82.625 E.02653
G1 X94.816 Y83.454 E.05109
G1 X95.927 Y84.439 E.04656
G1 X96.859 Y85.641 E.04766
G1 X97.324 Y86.476 E.02997
G1 X97.65 Y87.256 E.02653
G1 X98.044 Y88.837 E.05109
G1 X98.121 Y90.32 E.04656
G1 X97.927 Y91.793 E.04656
G1 X97.65 Y92.744 E.03106
G1 X97.324 Y93.524 E.02653
G1 X96.56 Y94.798 E.04656
G1 X95.577 Y95.911 E.04656
G1 X94.286 Y96.905 E.05109
M73 Q6 S4
G1 X92.958 Y97.569 E.04657
G1 X91.531 Y97.981 E.04656
G1 X90.693 Y98.097 E.02653
M73 P6 R4
G1 X89.702 Y98.121 E.03107
G1 X88.088 Y97.898 E.05109
G1 X86.683 Y97.418 E.04656
G1 X85.388 Y96.69 E.04656
G1 X84.248 Y95.739 E.04656
G1 X83.592 Y94.996 E.03107
G1 X83.107 Y94.302 E.02653
G1 X82.44 Y92.976 E.04656
G1 X81.998 Y91.408 E.05109
G1 X81.875 Y89.928 E.04656
G1 X82.029 Y88.429 E.04722
G1 X82.272 Y87.491 E.03041
G1 X82.575 Y86.701 E.02653
G1 X83.382 Y85.285 E.05108
G1 X84.289 Y84.232 E.04358
M204 S1000
; printing object testtube v1.stl id:0 copy 0
;WIPE_START
G1 F8640
G1 X85.508 Y83.229 E-.36456
G1 X86.237 Y82.798 E-.19536
G1 X87.028 Y82.444 E-.20008
;WIPE_END
G1 E-.04 F2100
G1 Z.6 F720
G1 X90.77 Y84.801 F10800
G1 Z.2 F720
G1 E.8 F2100
M204 S800
;TYPE:External perimeter
;WIDTH:0.580117
G1 F961
G1 X91.053 Y84.85 E.01285
;WIDTH:0.566774
G1 X91.766 Y85.059 E.03235
;WIDTH:0.564063
G1 X92.443 Y85.351 E.03196
;WIDTH:0.57072
G1 X93.114 Y85.761 E.03452
G1 X93.912 Y86.485 E.04727
;WIDTH:0.568054
G1 X94.354 Y87.065 E.03186
;WIDTH:0.570518
G1 X94.742 Y87.717 E.03329
G1 X95.006 Y88.398 E.03204
;WIDTH:0.573063
G1 X95.204 Y89.225 E.03749
;WIDTH:0.580718
G1 X95.254 Y90.185 E.04299
G1 X95.137 Y91.138 E.04295
;WIDTH:0.574798
G1 X94.963 Y91.748 E.02802
;WIDTH:0.576023
G1 X94.558 Y92.628 E.04297
;WIDTH:0.577491
G1 X94.208 Y93.156 E.02816
M73 Q7 S4
G1 X93.56 Y93.876 E.04307
;WIDTH:0.582251
G1 X93.098 Y94.248 E.02658
G1 X92.696 Y94.502 E.0213
;WIDTH:0.574525
G1 X92.231 Y94.765 E.02364
;WIDTH:0.582506
G1 X91.64 Y94.994 E.02843
G1 X90.987 Y95.156 E.03021
;WIDTH:0.56254
G1 X90.314 Y95.238 E.02929
;WIDTH:0.574775
M73 P7 R4
G1 X89.785 Y95.255 E.0234
G1 X89.49 Y95.225 E.01311
;WIDTH:0.569003
G1 X88.728 Y95.101 E.03377
G1 X87.715 Y94.734 E.04713
;WIDTH:0.56748
G1 X87.074 Y94.357 E.03242
;WIDTH:0.569473
G1 X86.481 Y93.908 E.0326
G1 X85.979 Y93.378 E.03196
;WIDTH:0.572594
G1 X85.501 Y92.724 E.03565
G1 X85.049 Y91.771 E.04646
;WIDTH:0.568807
G1 X84.857 Y91.053 E.03252
;WIDTH:0.571732
G1 X84.748 Y90.317 E.03272
G1 X84.748 Y89.683 E.02788
G1 X84.763 Y89.571 E.00495
;WIDTH:0.5744
G1 X84.902 Y88.705 E.03876
G1 X85.095 Y88.102 E.028
;WIDTH:0.575884
G1 X85.527 Y87.234 E.04296
G1 X85.891 Y86.716 E.02806
;WIDTH:0.574879
G1 X86.321 Y86.24 E.02838
;WIDTH:0.579898
G1 X87.077 Y85.632 E.04329
G1 X87.918 Y85.169 E.0429
;WIDTH:0.574156
G1 X88.514 Y84.952 E.02799
;WIDTH:0.572537
G1 X89.22 Y84.799 E.03181
;WIDTH:0.569241
G1 X89.966 Y84.749 E.03276
;WIDTH:0.580117
G1 X90.71 Y84.791 E.03329
M204 S1000
G1 X90.544 Y85.319 F10800
M204 S800
G1 F961
G1 X90.669 Y85.326 E.00559
G1 X91.204 Y85.428 E.02434
;WIDTH:0.576077
G1 X92.035 Y85.73 E.03917
;WIDTH:0.573928
G1 X92.728 Y86.131 E.03534
G1 X93.444 Y86.754 E.04192
;WIDTH:0.574949
G1 X93.793 Y87.174 E.02419
G1 X94.237 Y87.886 E.03711
;WIDTH:0.572656
G1 X94.472 Y88.448 E.02683
G1 X94.656 Y89.151 E.03202
;WIDTH:0.564862
G1 X94.728 Y89.815 E.02898
;WIDTH:0.56343
G1 X94.663 Y90.804 E.0429
;WIDTH:0.568304
G1 X94.508 Y91.448 E.02894
G1 X94.25 Y92.079 E.02976
;WIDTH:0.566963
G1 X93.918 Y92.658 E.02909
G1 X93.278 Y93.415 E.04321
;WIDTH:0.582251
G1 X92.763 Y93.825 E.02951
G1 X92.446 Y94.049 E.01741
;WIDTH:0.568035
G1 X91.888 Y94.342 E.02753
G1 X90.94 Y94.636 E.04331
;WIDTH:0.561763
G1 X90.27 Y94.722 E.02916
;WIDTH:0.564328
G1 X89.603 Y94.715 E.02891
;WIDTH:0.569325
G1 X88.942 Y94.614 E.02925
;WIDTH:0.575514
G1 X88.083 Y94.322 E.04021
;WIDTH:0.575623
G1 X87.598 Y94.071 E.02419
G1 X86.88 Y93.561 E.039
;WIDTH:0.573637
G1 X86.479 Y93.159 E.02504
G1 X86.014 Y92.549 E.03388
;WIDTH:0.571979
G1 X85.569 Y91.664 E.04356
;WIDTH:0.574449
M73 Q8 S4
G1 X85.411 Y91.14 E.02417
G1 X85.281 Y90.352 E.0353
;WIDTH:0.571732
G1 X85.277 Y89.685 E.02934
;WIDTH:0.570351
G1 X85.372 Y89.023 E.02933
;WIDTH:0.568724
G1 X85.549 Y88.394 E.02859
G1 X85.828 Y87.773 E.02975
;WIDTH:0.567157
M73 P8 R4
G1 X86.181 Y87.206 E.0291
;WIDTH:0.568491
G1 X86.612 Y86.695 E.02921
G1 X87.113 Y86.254 E.02917
;WIDTH:0.564319
G1 X87.956 Y85.734 E.04297
;WIDTH:0.568982
G1 X88.572 Y85.487 E.02898
;WIDTH:0.571661
G1 X89.227 Y85.329 E.02967
;WIDTH:0.573856
G1 X89.789 Y85.274 E.0249
;WIDTH:0.580117
G1 X90.484 Y85.315 E.03112
M204 S1000
; stop printing object testtube v1.stl id:0 copy 0
M106 S84.15
;LAYER_CHANGE
;Z:0.4
;HEIGHT:0.2
;BEFORE_LAYER_CHANGE
G92 E0.0
;0.4


;WIPE_START
G1 F8640
G1 X90.669 Y85.326 E-.04274
G1 X91.204 Y85.428 E-.12582
G1 X92.035 Y85.73 E-.20401
G1 X92.728 Y86.131 E-.18483
G1 X93.389 Y86.707 E-.2026
;WIPE_END
G1 E-.04 F2100
G1 Z.6 F720
;AFTER_LAYER_CHANGE
;0.4
G1 X96.099 Y83.597 F10800
G1 Z.4 F720
G1 E.8 F2100
;TYPE:Skirt/Brim
;WIDTH:0.42
G1 F1188
G1 X96.488 Y83.935 E.01617
G1 X97.502 Y85.247 E.05198
G1 X98.01 Y86.163 E.03285
G1 X98.355 Y86.986 E.02797
G1 X98.793 Y88.745 E.05684
G1 X98.874 Y90.366 E.05088
G1 X98.659 Y91.975 E.05088
G1 X98.355 Y93.014 E.03395
G1 X98.01 Y93.837 E.02797
G1 X97.178 Y95.23 E.05088
G1 X96.106 Y96.449 E.05088
G1 X94.67 Y97.554 E.05684
G1 X93.217 Y98.278 E.05089
G1 X91.657 Y98.725 E.05088
G1 X90.773 Y98.847 E.02797
G1 X89.691 Y98.875 E.03395
G1 X88.081 Y98.67 E.05088
G1 X86.36 Y98.099 E.05684
G1 X84.947 Y97.301 E.05089
G1 X83.702 Y96.26 E.05088
G1 X82.987 Y95.447 E.03395
G1 X82.476 Y94.715 E.02797
G1 X81.744 Y93.267 E.05088
G1 X81.252 Y91.522 E.05684
M73 Q9 S4
G1 X81.122 Y89.905 E.05089
G1 X81.292 Y88.27 E.05153
G1 X81.56 Y87.242 E.0333
M73 P9 R4
G1 X81.879 Y86.409 E.02797
M73 P9 R3
G1 X82.778 Y84.835 E.05684
G1 X83.838 Y83.606 E.05089
M73 Q9 S3
G1 X85.105 Y82.592 E.05088
G1 X85.873 Y82.138 E.02797
G1 X86.86 Y81.694 E.03395
G1 X88.425 Y81.261 E.05088
G1 X90.232 Y81.123 E.05684
G1 X91.844 Y81.313 E.05088
G1 X92.887 Y81.602 E.03395
G1 X93.715 Y81.934 E.02797
G1 X95.121 Y82.744 E.05088
G1 X96.054 Y83.557 E.03879
G1 X95.809 Y83.833 F10800
G1 F1188
G1 X96.208 Y84.187 E.01673
G1 X97.18 Y85.444 E.04981
G1 X97.667 Y86.319 E.03141
G1 X98.002 Y87.121 E.02725
G1 X98.393 Y88.625 E.04872
G1 X98.498 Y90.343 E.05397
G1 X98.293 Y91.884 E.04872
G1 X98.002 Y92.879 E.0325
G1 X97.667 Y93.681 E.02725
G1 X96.869 Y95.014 E.04872
G1 X95.842 Y96.18 E.04872
G1 X94.478 Y97.23 E.05396
G1 X93.087 Y97.924 E.04873
G1 X91.594 Y98.353 E.04872
G1 X90.733 Y98.472 E.02725
G1 X89.696 Y98.498 E.03251
G1 X88.155 Y98.3 E.04872
G1 X86.521 Y97.759 E.05397
G1 X85.167 Y96.996 E.04872
G1 X83.975 Y95.999 E.04872
G1 X83.29 Y95.221 E.03251
M73 Q10 S3
G1 X82.792 Y94.509 E.02725
G1 X82.092 Y93.122 E.04872
G1 X81.625 Y91.465 E.05397
G1 X81.498 Y89.916 E.04872
M73 P10 R3
G1 X81.66 Y88.349 E.04938
G1 X81.916 Y87.366 E.03185
G1 X82.227 Y86.555 E.02725
G1 X83.08 Y85.06 E.05396
G1 X84.095 Y83.883 E.04873
G1 X85.307 Y82.91 E.04872
G1 X86.204 Y82.392 E.03251
G1 X87.001 Y82.044 E.02725
G1 X88.499 Y81.631 E.04872
G1 X90.215 Y81.499 E.05397
G1 X91.758 Y81.68 E.04872
G1 X92.758 Y81.956 E.03251
G1 X93.565 Y82.279 E.02725
G1 X95.046 Y83.155 E.05397
G1 X95.764 Y83.793 E.03012
G1 X95.515 Y84.074 F10800
G1 F1188
G1 X95.927 Y84.439 E.01727
G1 X96.859 Y85.641 E.04766
G1 X97.324 Y86.476 E.02997
G1 X97.65 Y87.256 E.02653
G1 X98.044 Y88.837 E.05109
G1 X98.121 Y90.32 E.04656
G1 X97.927 Y91.793 E.04656
G1 X97.65 Y92.744 E.03106
G1 X97.324 Y93.524 E.02653
G1 X96.56 Y94.798 E.04656
G1 X95.577 Y95.911 E.04656
G1 X94.286 Y96.905 E.05109
G1 X92.958 Y97.569 E.04657
G1 X91.531 Y97.981 E.04656
G1 X90.693 Y98.097 E.02653
G1 X89.702 Y98.121 E.03107
G1 X88.088 Y97.898 E.05109
G1 X86.683 Y97.418 E.04656
G1 X85.388 Y96.69 E.04656
G1 X84.248 Y95.739 E.04656
G1 X83.592 Y94.996 E.03107
M73 Q11 S3
G1 X83.107 Y94.302 E.02653
G1 X82.44 Y92.976 E.04656
G1 X81.998 Y91.408 E.05109
G1 X81.875 Y89.928 E.04656
M73 P11 R3
G1 X82.029 Y88.429 E.04722
G1 X82.272 Y87.491 E.03041
G1 X82.575 Y86.701 E.02653
G1 X83.382 Y85.285 E.05108
G1 X84.351 Y84.16 E.04657
G1 X85.508 Y83.229 E.04656
G1 X86.237 Y82.798 E.02653
G1 X87.141 Y82.394 E.03107
G1 X88.573 Y82 E.04656
G1 X90.198 Y81.876 E.05109
G1 X91.673 Y82.047 E.04656
G1 X92.628 Y82.31 E.03106
G1 X93.414 Y82.625 E.02653
G1 X94.816 Y83.454 E.05109
G1 X95.47 Y84.034 E.02741
; printing object testtube v1.stl id:0 copy 0
;WIPE_START
G1 F8640
G1 X95.927 Y84.439 E-.14107
G1 X96.859 Y85.641 E-.35095
G1 X97.324 Y86.476 E-.22069
G1 X97.403 Y86.665 E-.04729
;WIPE_END
G1 E-.04 F2100
G1 Z.8 F720
G1 X90.735 Y84.895 F10800
G1 Z.4 F720
G1 E.8 F2100
M204 S800
;TYPE:Perimeter
;WIDTH:0.374348
G1 F1188
G1 X91.302 Y85.013 E.01596
G1 X91.743 Y85.162 E.01282
;WIDTH:0.36065
G1 X92.396 Y85.437 E.01872
G1 X93.027 Y85.84 E.01978
;WIDTH:0.361626
G1 X93.581 Y86.289 E.0189
;WIDTH:0.375611
G1 X93.944 Y86.682 E.01479
G1 X94.323 Y87.183 E.01739
;WIDTH:0.365845
G1 X94.661 Y87.8 E.01888
;WIDTH:0.363748
G1 X94.983 Y88.67 E.02475
;WIDTH:0.375062
G1 X95.095 Y89.221 E.01554
G1 X95.151 Y90.172 E.02631
;WIDTH:0.372763
G1 X95.035 Y91.113 E.02599
;WIDTH:0.372117
G1 X94.866 Y91.707 E.0169
G1 X94.623 Y92.287 E.01721
;WIDTH:0.368969
G1 X94.311 Y92.833 E.01705
;WIDTH:0.368457
G1 X93.935 Y93.336 E.017
;WIDTH:0.367029
G1 X93.485 Y93.803 E.01747
;WIDTH:0.374656
G1 X93.01 Y94.185 E.01681
G1 X92.463 Y94.531 E.01788
;WIDTH:0.368562
G1 X91.911 Y94.79 E.01649
;WIDTH:0.373806
G1 X91.343 Y94.976 E.01645
G1 X90.939 Y95.057 E.01132
;WIDTH:0.360718
G1 X90.217 Y95.149 E.01924
G1 X89.49 Y95.12 E.01922
;WIDTH:0.361254
G1 X88.766 Y95.004 E.01942
;WIDTH:0.36838
G1 X87.918 Y94.717 E.02421
G1 X87.368 Y94.436 E.01671
;WIDTH:0.365984
M73 Q12 S3
G1 X86.832 Y94.067 E.01748
;WIDTH:0.370078
G1 X86.157 Y93.434 E.02518
G1 X85.594 Y92.678 E.02562
;WIDTH:0.369034
G1 X85.179 Y91.826 E.02572
;WIDTH:0.369231
G1 X84.998 Y91.242 E.01659
G1 X84.851 Y90.306 E.0257
;WIDTH:0.364327
G1 X84.851 Y89.694 E.01636
M73 P12 R3
G1 X84.867 Y89.573 E.00325
;WIDTH:0.366237
G1 X85.002 Y88.74 E.0227
;WIDTH:0.369013
G1 X85.317 Y87.845 E.02571
G1 X85.598 Y87.316 E.01625
;WIDTH:0.368241
G1 X85.893 Y86.907 E.01364
;WIDTH:0.359837
G1 X86.364 Y86.351 E.01921
G1 X86.941 Y85.868 E.01983
;WIDTH:0.374987
G1 X87.398 Y85.553 E.01532
G1 X87.941 Y85.272 E.01687
;WIDTH:0.368607
G1 X88.818 Y84.983 E.02502
G1 X89.241 Y84.914 E.0116
;WIDTH:0.357552
G1 X89.951 Y84.852 E.01865
;WIDTH:0.365183
G1 X90.675 Y84.891 E.01944
M204 S1000
G1 X90.607 Y85.207 F10800
M204 S800
;WIDTH:0.374348
G1 F1188
G1 X91.232 Y85.337 E.01758
G1 X91.629 Y85.45 E.01137
;WIDTH:0.362104
G1 X92.167 Y85.676 E.0155
G1 X92.767 Y86.036 E.01858
;WIDTH:0.363894
G1 X93.301 Y86.462 E.01824
;WIDTH:0.375611
G1 X93.684 Y86.889 E.01586
G1 X94.016 Y87.302 E.01466
;WIDTH:0.363011
G1 X94.32 Y87.822 E.01603
;WIDTH:0.367179
G1 X94.66 Y88.713 E.02572
;WIDTH:0.375062
G1 X94.765 Y89.255 E.01525
G1 X94.827 Y89.77 E.01435
;WIDTH:0.356026
G1 X94.769 Y90.79 E.02659
;WIDTH:0.372117
G1 X94.556 Y91.597 E.02285
G1 X94.336 Y92.134 E.01587
;WIDTH:0.368969
G1 X94.046 Y92.643 E.01589
;WIDTH:0.368457
G1 X93.698 Y93.115 E.01585
;WIDTH:0.367029
G1 X93.358 Y93.482 E.01349
;WIDTH:0.374656
G1 X92.821 Y93.912 E.01899
G1 X92.318 Y94.24 E.01655
;WIDTH:0.368562
G1 X91.812 Y94.48 E.01519
;WIDTH:0.373806
G1 X91.241 Y94.661 E.01645
G1 X90.894 Y94.749 E.00986
;WIDTH:0.365576
G1 X90.351 Y94.823 E.01471
;WIDTH:0.367805
G1 X89.787 Y94.827 E.01525
G1 X88.94 Y94.719 E.02306
;WIDTH:0.361533
G1 X88.305 Y94.526 E.01757
;WIDTH:0.360853
G1 X87.669 Y94.237 E.01847
;WIDTH:0.362459
G1 X87.11 Y93.877 E.01767
G1 X86.583 Y93.416 E.0186
;WIDTH:0.358669
G1 X85.95 Y92.637 E.02635
G1 X85.62 Y92.039 E.01793
;WIDTH:0.360024
G1 X85.369 Y91.387 E.01842
G1 X85.184 Y90.4 E.02649
;WIDTH:0.364327
G1 X85.173 Y89.699 E.01874
;WIDTH:0.363786
G1 X85.267 Y89.022 E.01823
;WIDTH:0.356155
G1 X85.447 Y88.384 E.01727
